%
(Header)
(Generated by gcodetools from Inkscape.)
(Using default header. To add your own header create file "header" in the output dir.)
M3
(Header end.)
G21 (All units in mm)

(Start cutting path id: path99)
(Change tool to Default tool)

G00 Z5.000000
G00 X499.939270 Y-271.010390

G01 Z-0.125000 F100.0(Penetrate)
G02 X500.670890 Y-270.884990 Z-0.125000 I0.658676 J-1.645971 F400.000000
G02 X501.062340 Y-271.056690 Z-0.125000 I-0.024180 J-0.587202
G02 X501.024923 Y-271.239071 Z-0.125000 I-0.078852 J-0.078852
G02 X500.293300 Y-271.364490 Z-0.125000 I-0.658696 J1.645809
G02 X499.901847 Y-271.192816 Z-0.125000 I0.024174 J0.587257
G02 X499.939270 Y-271.010460 Z-0.125000 I0.078846 J0.078837
G01 X499.939270 Y-271.010390 Z-0.125000
G00 Z5.000000

(End cutting path id: path99)


(Start cutting path id: path99)
(Change tool to Default tool)

G00 Z5.000000
G00 X507.255640 Y-144.998680

G01 Z-0.125000 F100.0(Penetrate)
G03 X502.450296 Y-144.900005 Z-0.125000 I-4.816712 J-117.510800 F400.000000
G03 X497.294700 Y-144.998680 Z-0.125000 I-0.012959 J-134.057157
G03 X496.575305 Y-145.084111 Z-0.125000 I0.171380 J-4.514781
G01 X496.579500 Y-145.137271 Z-0.125000
G03 X497.911700 Y-145.172000 Z-0.125000 I1.831211 J44.676200
G03 X502.099920 Y-145.195620 Z-0.125000 I4.233224 J379.292344
G03 X506.292515 Y-145.173139 Z-0.125000 I0.000000 J390.964665
G03 X507.723298 Y-145.138382 Z-0.125000 I-0.565798 J52.758306
G01 X507.730773 Y-145.081343 Z-0.125000
G03 X507.255640 Y-144.999920 Z-0.125000 I-0.551986 J-1.794043
G01 X507.255640 Y-144.998680 Z-0.125000
G00 Z5.000000

(End cutting path id: path99)


(Start cutting path id: path99)
(Change tool to Default tool)

G00 Z5.000000
G00 X508.105780 Y-138.584680

G01 Z-0.125000 F100.0(Penetrate)
G03 X507.080385 Y-138.452877 Z-0.125000 I-1.025395 J-3.922751 F400.000000
G03 X506.054990 Y-138.584680 Z-0.125000 I-0.000000 J-4.054555
G03 X506.054988 Y-138.720864 Z-0.125000 I0.017792 J-0.068092
G03 X507.080380 Y-138.852630 Z-0.125000 I1.025392 J3.923862
G03 X508.105782 Y-138.720863 Z-0.125000 I0.000000 J4.055694
G03 X508.105780 Y-138.584680 Z-0.125000 I-0.017794 J0.068091
G01 X508.105780 Y-138.584680 Z-0.125000
G00 Z5.000000

(End cutting path id: path99)


(Start cutting path id: path99)
(Change tool to Default tool)

G00 Z5.000000
G00 X504.736630 Y-137.231070

G01 Z-0.125000 F100.0(Penetrate)
G03 X503.827084 Y-136.766948 Z-0.125000 I-2.723324 J-4.213646 F400.000000
G03 X503.271790 Y-136.663060 Z-0.125000 I-0.555294 J-1.432115
G03 X503.182506 Y-136.809573 Z-0.125000 I0.000000 J-0.100461
G03 X503.564760 Y-137.231070 Z-0.125000 I0.982025 J0.506513
G03 X504.474323 Y-137.695195 Z-0.125000 I2.723453 J4.213934
G03 X505.029600 Y-137.799080 Z-0.125000 I0.555277 J1.432071
G03 X505.118885 Y-137.652564 Z-0.125000 I0.000000 J0.100463
G03 X504.736630 Y-137.231070 Z-0.125000 I-0.982035 J-0.506531
G01 X504.736630 Y-137.231070 Z-0.125000
G00 Z5.000000

(End cutting path id: path99)


(Start cutting path id: path99)
(Change tool to Default tool)

G00 Z5.000000
G00 X500.014800 Y-136.841750

G01 Z-0.125000 F100.0(Penetrate)
G03 X499.947401 Y-136.688750 Z-0.125000 I-0.067680 J0.061531 F400.000000
G03 X497.705380 Y-136.834750 Z-0.125000 I-0.050708 J-16.508915
G02 X496.274814 Y-136.842730 Z-0.125000 I-0.746418 J5.577825
G02 X496.253758 Y-136.711321 Z-0.125000 I0.008419 J0.068740
G02 X497.057144 Y-136.422805 Z-0.125000 I1.917852 J-4.077552
G02 X499.756170 Y-135.870180 Z-0.125000 I7.106286 J-27.839835
G02 X501.165978 Y-135.885824 Z-0.125000 I0.657960 J-4.238394
G02 X501.221010 Y-136.130980 Z-0.125000 I-0.023879 J-0.134115
G03 X501.186684 Y-136.331009 Z-0.125000 I0.083324 J-0.117258
G03 X501.415420 Y-136.407310 Z-0.125000 I0.166067 J0.116834
G02 X502.499192 Y-136.122361 Z-0.125000 I3.054782 J-9.415056
G02 X503.173240 Y-136.050120 Z-0.125000 I0.721389 J-3.550199
G03 X503.294341 Y-135.878728 Z-0.125000 I-0.001984 J0.129881
G03 X502.978820 Y-135.473150 Z-0.125000 I-0.738641 J-0.249109
G02 X502.758231 Y-135.067937 Z-0.125000 I0.261885 J0.405213
G02 X502.978820 Y-134.826800 Z-0.125000 I0.242094 J0.000000
G02 X503.857300 Y-134.775460 Z-0.125000 I1.262649 J-14.063695
G02 X504.221360 Y-134.792800 Z-0.125000 I0.066343 J-2.437560
G03 X505.138814 Y-134.128844 Z-0.125000 I0.100565 J0.826886
G03 X505.908510 Y-126.334730 Z-0.125000 I-39.077616 J7.794114
G01 X505.908510 Y-124.422700 Z-0.125000
G01 X502.539370 Y-125.771350 Z-0.125000
G02 X499.132261 Y-126.999485 Z-0.125000 I-19.334504 J48.297946
G02 X496.150660 Y-127.826000 Z-0.125000 I-11.630188 J36.163957
G03 X493.461581 Y-128.871154 Z-0.125000 I2.335771 J-9.991655
G03 X492.827630 Y-129.692390 Z-0.125000 I0.649781 J-1.156903
G03 X492.975738 Y-130.143562 Z-0.125000 I0.423711 J-0.110803
G03 X493.381810 Y-130.141100 Z-0.125000 I0.201535 J0.248895
G02 X494.541651 Y-130.777529 Z-0.125000 I0.454219 J-0.547296
G02 X492.403940 Y-137.882500 Z-0.125000 I-22.193710 J2.803462
G03 X492.641215 Y-138.281398 Z-0.125000 I0.247980 J-0.122512
G03 X495.812460 Y-138.014520 Z-0.125000 I0.503307 J12.994343
G03 X499.620603 Y-137.085271 Z-0.125000 I-12.298993 J58.670032
G03 X500.014800 Y-136.842230 Z-0.125000 I-0.224775 J0.805771
G01 X500.014800 Y-136.841750 Z-0.125000
G00 Z5.000000

(End cutting path id: path99)


(Start cutting path id: path99)
(Change tool to Default tool)

G00 Z5.000000
G00 X492.578430 Y-140.358530

G01 Z-0.125000 F100.0(Penetrate)
G03 X491.846010 Y-140.216335 Z-0.125000 I-0.732420 J-1.815189 F400.000000
G03 X491.113590 Y-140.358530 Z-0.125000 I-0.000000 J-1.957383
G03 X491.113588 Y-140.511876 Z-0.125000 I0.030937 J-0.076674
G03 X491.846010 Y-140.654080 Z-0.125000 I0.732422 J1.815074
G03 X492.578433 Y-140.511872 Z-0.125000 I-0.000000 J1.957221
G03 X492.578430 Y-140.358530 Z-0.125000 I-0.030939 J0.076670
G01 X492.578430 Y-140.358530 Z-0.125000
G00 Z5.000000

(End cutting path id: path99)


(Start cutting path id: path99)
(Change tool to Default tool)

G00 Z5.000000
G00 X489.648740 Y-140.944470

G01 Z-0.125000 F100.0(Penetrate)
G03 X488.916320 Y-140.802275 Z-0.125000 I-0.732420 J-1.815189 F400.000000
G03 X488.183900 Y-140.944470 Z-0.125000 I0.000000 J-1.957383
G03 X488.183899 Y-141.097813 Z-0.125000 I0.030937 J-0.076671
G03 X488.916320 Y-141.240010 Z-0.125000 I0.732421 J1.815154
G03 X489.648742 Y-141.097808 Z-0.125000 I-0.000000 J1.957297
G03 X489.648740 Y-140.944470 Z-0.125000 I-0.030937 J0.076668
G01 X489.648740 Y-140.944470 Z-0.125000
G00 Z5.000000

(End cutting path id: path99)


(Start cutting path id: path99)
(Change tool to Default tool)

G00 Z5.000000
G00 X483.631340 Y-142.468080

G01 Z-0.125000 F100.0(Penetrate)
G03 X483.610559 Y-142.235044 Z-0.125000 I-0.034765 J0.114344 F400.000000
G03 X479.394840 Y-141.968920 Z-0.125000 I-4.558999 J-38.695904
G03 X473.942513 Y-142.181362 Z-0.125000 I-0.504354 J-57.128924
G03 X473.681950 Y-142.465560 Z-0.125000 I0.024706 J-0.284198
G03 X474.970255 Y-143.754263 Z-0.125000 I1.288703 J0.000000
G03 X483.631340 Y-142.465560 Z-0.125000 I0.009165 J29.687360
G01 X483.631340 Y-142.468080 Z-0.125000
G00 Z5.000000

(End cutting path id: path99)


(Start cutting path id: path99)
(Change tool to Default tool)

G00 Z5.000000
G00 X482.959270 Y-144.218980

G01 Z-0.125000 F100.0(Penetrate)
G02 X483.295139 Y-143.876206 Z-0.125000 I0.541984 J-0.195127 F400.000000
G02 X484.375310 Y-143.676340 Z-0.125000 I1.080171 J-2.818946
G03 X485.201491 Y-143.512929 Z-0.125000 I-0.000000 J2.170232
G03 X485.240030 Y-143.320330 Z-0.125000 I-0.044934 J0.109147
G03 X484.637596 Y-143.126454 Z-0.125000 I-0.490177 J-0.490222
G03 X481.945453 Y-143.728330 Z-0.125000 I3.899666 J-23.764717
G03 X479.462625 Y-144.613839 Z-0.125000 I5.525716 J-19.416713
G03 X479.341520 Y-144.998980 Z-0.125000 I0.105832 J-0.244889
G03 X481.177638 Y-145.778738 Z-0.125000 I1.469308 J0.908163
G03 X482.959270 Y-144.218980 Z-0.125000 I-0.519577 J2.390899
G01 X482.959270 Y-144.218980 Z-0.125000
G00 Z5.000000

(End cutting path id: path99)


(Start cutting path id: path99)
(Change tool to Default tool)

G00 Z5.000000
G00 X474.695150 Y-143.908260

G01 Z-0.125000 F100.0(Penetrate)
G03 X474.303716 Y-143.736603 Z-0.125000 I-0.415617 J-0.415617 F400.000000
G03 X473.572080 Y-143.861960 Z-0.125000 I-0.072965 J-1.771898
G03 X473.534663 Y-144.044306 Z-0.125000 I0.041420 J-0.103512
G03 X473.926110 Y-144.215980 Z-0.125000 I0.415650 J0.415635
G03 X474.657724 Y-144.090515 Z-0.125000 I0.072373 J1.773808
G03 X474.695150 Y-143.908190 Z-0.125000 I-0.041394 J0.103501
G01 X474.695150 Y-143.908260 Z-0.125000
G00 Z5.000000

(End cutting path id: path99)


(Start cutting path id: path99)
(Change tool to Default tool)

G00 Z5.000000
G00 X473.839560 Y-129.815190

G01 Z-0.125000 F100.0(Penetrate)
G03 X473.108928 Y-129.668262 Z-0.125000 I-0.755417 J-1.866405 F400.000000
G03 X472.081750 Y-129.793490 Z-0.125000 I-0.047804 J-3.883208
G03 X472.072353 Y-129.938424 Z-0.125000 I0.019295 J-0.074023
G03 X472.803040 Y-130.085340 Z-0.125000 I0.755585 J1.867417
G03 X473.830158 Y-129.960102 Z-0.125000 I0.047058 J3.888541
G03 X473.839560 Y-129.815230 Z-0.125000 I-0.019269 J0.073991
G01 X473.839560 Y-129.815190 Z-0.125000
G00 Z5.000000

(End cutting path id: path99)


(Start cutting path id: path99)
(Change tool to Default tool)

G00 Z5.000000
G00 X462.988590 Y-130.951880

G01 Z-0.125000 F100.0(Penetrate)
G03 X461.377260 Y-130.830536 Z-0.125000 I-1.611330 J-10.637731 F400.000000
G03 X459.765930 Y-130.951880 Z-0.125000 I0.000000 J-10.759075
G03 X459.765933 Y-131.074633 Z-0.125000 I0.009300 J-0.061376
G03 X461.377260 Y-131.195980 Z-0.125000 I1.611327 J10.637477
G03 X462.988587 Y-131.074633 Z-0.125000 I0.000000 J10.758824
G03 X462.988590 Y-130.951880 Z-0.125000 I-0.009297 J0.061377
G01 X462.988590 Y-130.951880 Z-0.125000
G00 Z5.000000

(End cutting path id: path99)


(Start cutting path id: path99)
(Change tool to Default tool)

G00 Z5.000000
G00 X454.053040 Y-131.371560

G01 Z-0.125000 F100.0(Penetrate)
G03 X454.080692 Y-130.972118 Z-0.125000 I-0.365678 J0.225993 F400.000000
G03 X453.794640 Y-130.785630 Z-0.125000 I-0.286052 J-0.126142
G03 X453.350647 Y-130.962121 Z-0.125000 I-0.000000 J-0.646716
G03 X453.174130 Y-131.371560 Z-0.125000 I0.386598 J-0.409439
G03 X453.276094 Y-131.855512 Z-0.125000 I1.199469 J-0.000000
G03 X453.432530 Y-131.957500 Z-0.125000 I0.156436 J0.068981
G03 X453.644017 Y-131.873433 Z-0.125000 I-0.000000 J0.308052
G03 X454.053040 Y-131.371560 Z-0.125000 I-1.710816 J1.811914
G01 X454.053040 Y-131.371560 Z-0.125000
G00 Z5.000000

(End cutting path id: path99)


(Start cutting path id: path99)
(Change tool to Default tool)

G00 Z5.000000
G00 X453.175780 Y-136.803650

G01 Z-0.125000 F100.0(Penetrate)
G03 X454.341106 Y-134.571612 Z-0.125000 I-20.915867 J12.340201 F400.000000
G03 X454.674900 Y-133.528780 Z-0.125000 I-4.174904 J1.911156
G03 X454.481649 Y-133.120616 Z-0.125000 I-0.375101 J0.072234
G03 X454.007280 Y-133.167380 Z-0.125000 I-0.202596 J-0.374253
G03 X449.597081 Y-137.710431 Z-0.125000 I18.839498 J-22.700716
G03 X450.057470 Y-138.224600 Z-0.125000 I0.276309 J-0.215793
G02 X450.677821 Y-138.100504 Z-0.125000 I0.477442 J-0.774115
G02 X451.117440 Y-138.393290 Z-0.125000 I-0.099596 J-0.625982
G03 X451.682191 Y-138.495938 Z-0.125000 I0.328620 J0.203104
G03 X453.175780 Y-136.803650 Z-0.125000 I-3.651269 J4.727811
G01 X453.175780 Y-136.803650 Z-0.125000
G00 Z5.000000

(End cutting path id: path99)


(Start cutting path id: path99)
(Change tool to Default tool)

G00 Z5.000000
G00 X449.072570 Y-141.297960

G01 Z-0.125000 F100.0(Penetrate)
G03 X448.838802 Y-140.510806 Z-0.125000 I-1.442153 J-0.000000 F400.000000
G03 X448.512240 Y-140.437810 Z-0.125000 I-0.200657 J-0.130710
G03 X448.213137 Y-140.872269 Z-0.125000 I0.344448 J-0.557323
G03 X448.281970 Y-141.644250 Z-0.125000 I1.389100 J-0.265202
G03 X448.725149 Y-141.829422 Z-0.125000 I0.309972 J0.118943
G03 X449.072570 Y-141.297960 Z-0.125000 I-0.232787 J0.531462
G01 X449.072570 Y-141.297960 Z-0.125000
G00 Z5.000000

(End cutting path id: path99)


(Start cutting path id: path99)
(Change tool to Default tool)

G00 Z5.000000
G00 X450.973240 Y-143.287040

G01 Z-0.125000 F100.0(Penetrate)
G02 X450.546382 Y-142.888841 Z-0.125000 I0.303623 J0.753365 F400.000000
G02 X450.568350 Y-142.454430 Z-0.125000 I0.405682 J0.197246
G03 X450.578838 Y-142.097419 Z-0.125000 I-0.303474 J0.187575
G03 X450.279020 Y-141.918530 Z-0.125000 I-0.299818 J-0.161803
G03 X449.754059 Y-142.362594 Z-0.125000 I0.000000 J-0.532330
G03 X450.049150 Y-143.285700 Z-0.125000 I1.042865 J-0.175345
G03 X450.484666 Y-143.555588 Z-0.125000 I0.792177 J0.791993
G03 X451.074550 Y-143.630110 Z-0.125000 I0.480309 J1.430015
G03 X451.165458 Y-143.498683 Z-0.125000 I-0.007524 J0.102358
G03 X450.973240 Y-143.287040 Z-0.125000 I-0.315074 J-0.093046
G01 X450.973240 Y-143.287040 Z-0.125000
G00 Z5.000000

(End cutting path id: path99)


(Start cutting path id: path99)
(Change tool to Default tool)

G00 Z5.000000
G00 X448.633120 Y-146.202140

G01 Z-0.125000 F100.0(Penetrate)
G02 X449.658510 Y-146.070335 Z-0.125000 I1.025390 J-3.922663 F400.000000
G02 X450.683900 Y-146.202140 Z-0.125000 I0.000000 J-4.054468
G02 X450.683900 Y-146.338327 Z-0.125000 I-0.017793 J-0.068093
G02 X449.658510 Y-146.470090 Z-0.125000 I-1.025390 J3.923948
G02 X448.633120 Y-146.338327 Z-0.125000 I0.000000 J4.055712
G02 X448.633120 Y-146.202140 Z-0.125000 I0.017794 J0.068093
G01 X448.633120 Y-146.202140 Z-0.125000
G00 Z5.000000

(End cutting path id: path99)


(Start cutting path id: path99)
(Change tool to Default tool)

G00 Z5.000000
G00 X440.283510 Y-145.484490

G01 Z-0.125000 F100.0(Penetrate)
G02 X440.264454 Y-145.180411 Z-0.125000 I0.044429 J0.155421 F400.000000
G02 X442.227890 Y-144.654160 Z-0.125000 I2.825718 J-6.616811
G02 X446.144815 Y-144.769550 Z-0.125000 I1.575640 J-13.052624
G02 X446.728820 Y-145.468730 Z-0.125000 I-0.126532 J-0.699180
G02 X445.930673 Y-146.268834 Z-0.125000 I-0.800106 J0.000000
G02 X440.283510 Y-145.484530 Z-0.125000 I-0.049868 J20.363516
G01 X440.283510 Y-145.484490 Z-0.125000
G00 Z5.000000

(End cutting path id: path99)


(Start cutting path id: path99)
(Change tool to Default tool)

G00 Z5.000000
G00 X429.905030 Y-137.599760

G01 Z-0.125000 F100.0(Penetrate)
G03 X434.294718 Y-133.426815 Z-0.125000 I-14.620647 J19.775361 F400.000000
G03 X433.798000 Y-132.856420 Z-0.125000 I-0.296457 J0.243312
G03 X432.539447 Y-133.738024 Z-0.125000 I6.512549 J-10.636266
G03 X428.611630 Y-136.988160 Z-0.125000 I85.547806 J-107.383732
G03 X426.672761 Y-139.027363 Z-0.125000 I9.113877 J-10.606790
G03 X426.842460 Y-139.270500 Z-0.125000 I0.122727 J-0.095132
G03 X428.184655 Y-138.697687 Z-0.125000 I-2.302485 J7.253994
G03 X429.905030 Y-137.599760 Z-0.125000 I-7.125490 J13.061967
G01 X429.905030 Y-137.599760 Z-0.125000
G00 Z5.000000

(End cutting path id: path99)


(Start cutting path id: path99)
(Change tool to Default tool)

G00 Z5.000000
G00 X427.246400 Y-140.944400

G01 Z-0.125000 F100.0(Penetrate)
G02 X427.978820 Y-140.802205 Z-0.125000 I0.732420 J-1.815189 F400.000000
G02 X428.711240 Y-140.944400 Z-0.125000 I-0.000000 J-1.957383
G02 X428.711243 Y-141.097732 Z-0.125000 I-0.030934 J-0.076667
G02 X427.978820 Y-141.239940 Z-0.125000 I-0.732423 J1.815018
G02 X427.246399 Y-141.097738 Z-0.125000 I0.000000 J1.957295
G02 X427.246400 Y-140.944400 Z-0.125000 I0.030937 J0.076669
G01 X427.246400 Y-140.944400 Z-0.125000
G00 Z5.000000

(End cutting path id: path99)


(Start cutting path id: path99)
(Change tool to Default tool)

G00 Z5.000000
G00 X425.342100 Y-142.504400

G01 Z-0.125000 F100.0(Penetrate)
G02 X423.741277 Y-142.192549 Z-0.125000 I9.439446 J52.720159 F400.000000
G01 X423.731726 Y-142.130263 Z-0.125000
G02 X423.907262 Y-142.080775 Z-0.125000 I0.190150 J-0.338411
G02 X426.221010 Y-142.010570 Z-0.125000 I5.949836 J-157.927137
G02 X429.379468 Y-142.163519 Z-0.125000 I0.511702 J-22.121262
G02 X430.322570 Y-142.504400 Z-0.125000 I-0.266573 J-2.212582
G02 X430.195401 Y-142.935469 Z-0.125000 I-0.127169 J-0.196777
G02 X425.342100 Y-142.504400 Z-0.125000 I0.000000 J27.536605
G01 X425.342100 Y-142.504400 Z-0.125000
G00 Z5.000000

(End cutting path id: path99)


(Start cutting path id: path99)
(Change tool to Default tool)

G00 Z5.000000
G00 X412.451480 Y-136.645130

G01 Z-0.125000 F100.0(Penetrate)
G03 X411.997189 Y-136.224498 Z-0.125000 I-0.986206 J-0.609486 F400.000000
G03 X411.316750 Y-136.059190 Z-0.125000 I-0.680439 J-1.317751
G02 X410.631423 Y-135.873411 Z-0.125000 I-0.000000 J1.356954
G02 X409.814760 Y-135.180290 Z-0.125000 I1.559617 J2.665277
G02 X409.497547 Y-134.301385 Z-0.125000 I1.058990 J0.878905
G02 X409.814760 Y-133.422480 Z-0.125000 I1.376203 J0.000000
G03 X410.266523 Y-132.673972 Z-0.125000 I-2.255408 J1.871839
G03 X410.179450 Y-132.543570 Z-0.125000 I-0.087073 J0.036131
G01 X409.375310 Y-132.543570 Z-0.125000
G03 X409.084426 Y-132.692132 Z-0.125000 I0.000000 J-0.359056
G03 X408.935850 Y-133.150890 Z-0.125000 I0.633964 J-0.458758
G02 X408.763948 Y-133.663442 Z-0.125000 I-0.850078 J0.000000
G02 X408.056950 Y-134.313800 Z-0.125000 I-2.141385 J1.618415
G03 X407.909677 Y-134.661088 Z-0.125000 I0.176911 J-0.279893
G03 X408.174310 Y-134.878360 Z-0.125000 I0.267100 J0.055528
G02 X409.040980 Y-135.109701 Z-0.125000 I-0.019856 J-1.813457
G02 X409.639150 Y-135.700890 Z-0.125000 I-0.774066 J-1.381418
G03 X410.237348 Y-136.342380 Z-0.125000 I1.681499 J0.968361
G03 X411.279600 Y-136.804800 Z-0.125000 I1.830807 J2.720691
G02 X412.448648 Y-137.104390 Z-0.125000 I-18.074423 J-72.959902
G02 X412.632530 Y-137.163100 Z-0.125000 I-0.492896 J-1.861097
G01 X412.677503 Y-137.119196 Z-0.125000
G03 X412.451480 Y-136.645130 Z-0.125000 I-2.282008 J-0.797089
G01 X412.451480 Y-136.645130 Z-0.125000
G00 Z5.000000

(End cutting path id: path99)


(Start cutting path id: path99)
(Change tool to Default tool)

G00 Z5.000000
G00 X409.498470 Y-139.343270

G01 Z-0.125000 F100.0(Penetrate)
G03 X410.461775 Y-138.502966 Z-0.125000 I-1.244654 J2.399151 F400.000000
G03 X410.378840 Y-138.096340 Z-0.125000 I-0.232722 J0.164305
G03 X409.760997 Y-137.993981 Z-0.125000 I-0.433668 J-0.701799
G03 X409.259880 Y-138.352630 Z-0.125000 I0.178311 J-0.778557
G02 X408.712522 Y-138.877417 Z-0.125000 I-1.289190 J0.796794
G02 X407.128120 Y-139.549230 Z-0.125000 I-3.820910 J6.806995
G03 X406.582904 Y-139.913624 Z-0.125000 I0.319273 J-1.067785
G03 X406.671620 Y-140.110270 Z-0.125000 I0.093561 J-0.076126
G03 X407.881321 Y-139.973678 Z-0.125000 I0.160110 J4.007058
G03 X409.498470 Y-139.343270 Z-0.125000 I-2.128914 J7.850573
G01 X409.498470 Y-139.343270 Z-0.125000
G00 Z5.000000

(End cutting path id: path99)


(Start cutting path id: path99)
(Change tool to Default tool)

G00 Z5.000000
G00 X408.056950 Y-136.645130

G01 Z-0.125000 F100.0(Penetrate)
G03 X407.954995 Y-136.161187 Z-0.125000 I-1.199523 J-0.000000 F400.000000
G03 X407.798550 Y-136.059190 Z-0.125000 I-0.156445 J-0.068980
G03 X407.587060 Y-136.143260 Z-0.125000 I0.000000 J-0.308051
G03 X407.178040 Y-136.645130 Z-0.125000 I1.711015 J-1.812074
G03 X407.150389 Y-137.044582 Z-0.125000 I0.365696 J-0.225997
G03 X407.436440 Y-137.231070 Z-0.125000 I0.286051 J0.126140
G03 X407.880430 Y-137.054579 Z-0.125000 I0.000000 J0.646708
G03 X408.056950 Y-136.645130 Z-0.125000 I-0.386611 J0.409449
G01 X408.056950 Y-136.645130 Z-0.125000
G00 Z5.000000

(End cutting path id: path99)


(Start cutting path id: path99)
(Change tool to Default tool)

G00 Z5.000000
G00 X405.360350 Y-137.134170

G01 Z-0.125000 F100.0(Penetrate)
G02 X405.318833 Y-136.796532 Z-0.125000 I0.346705 J0.214003 F400.000000
G02 X405.563080 Y-136.497780 Z-0.125000 I0.499345 J-0.159024
G01 X405.556197 Y-136.425431 Z-0.125000
G03 X405.311600 Y-136.414780 Z-0.125000 I-0.141155 J-0.427707
G02 X404.747933 Y-136.344002 Z-0.125000 I-0.186885 J0.791545
G02 X404.404210 Y-135.940410 Z-0.125000 I0.328056 J0.627557
G03 X404.005417 Y-135.552379 Z-0.125000 I-0.574458 J-0.191448
G03 X402.096790 Y-135.240910 Z-0.125000 I-2.122132 J-7.000457
G03 X401.203758 Y-135.975982 Z-0.125000 I-0.025638 J-0.878857
G03 X401.792280 Y-137.077830 Z-0.125000 I1.011724 J-0.167710
G03 X404.985372 Y-137.793824 Z-0.125000 I3.320040 J7.328200
G03 X405.360350 Y-137.134030 Z-0.125000 I0.006827 J0.432572
G01 X405.360350 Y-137.134170 Z-0.125000
G00 Z5.000000

(End cutting path id: path99)


(Start cutting path id: path99)
(Change tool to Default tool)

G00 Z5.000000
G00 X406.638630 Y-134.236170

G01 Z-0.125000 F100.0(Penetrate)
G02 X407.039919 Y-133.157203 Z-0.125000 I1.499454 J0.056431 F400.000000
G02 X408.620064 Y-131.835411 Z-0.125000 I6.073549 J-5.655274
G02 X410.264054 Y-131.142806 Z-0.125000 I2.798661 J-4.345578
G02 X410.856970 Y-131.519420 Z-0.125000 I0.110318 J-0.481353
G03 X411.252161 Y-132.068219 Z-0.125000 I0.828227 J0.179719
G03 X413.786650 Y-133.260940 Z-0.125000 I7.431298 J12.502034
G03 X415.791316 Y-133.958515 Z-0.125000 I41.984439 J117.424126
G03 X416.021612 Y-133.983491 Z-0.125000 I0.171436 J0.506514
G01 X416.047525 Y-133.899764 Z-0.125000
G03 X415.088200 Y-133.116800 Z-0.125000 I-15.499839 J-18.011946
G03 X413.581030 Y-132.102407 Z-0.125000 I-8.424339 J-10.889896
G03 X413.115580 Y-131.970530 Z-0.125000 I-0.490656 J-0.844408
G02 X412.871599 Y-131.759211 Z-0.125000 I0.006362 J0.253850
G02 X412.914190 Y-130.785650 Z-0.125000 I2.282897 J0.387841
G03 X412.946097 Y-129.825774 Z-0.125000 I-2.104415 J0.550420
G03 X412.689600 Y-129.613770 Z-0.125000 I-0.256497 J-0.049161
G02 X412.325924 Y-129.446340 Z-0.125000 I0.000000 J0.478685
G02 X412.158510 Y-128.993260 Z-0.125000 I0.529386 J0.453080
G02 X412.356339 Y-128.727570 Z-0.125000 I0.277329 J0.000000
G02 X412.834970 Y-128.790820 Z-0.125000 I0.168901 J-0.564472
G03 X413.054767 Y-128.752240 Z-0.125000 I0.088228 J0.142752
G03 X413.069760 Y-128.494280 Z-0.125000 I-0.176403 J0.139668
G03 X412.554964 Y-128.228561 Z-0.125000 I-0.478677 J-0.295840
G03 X411.660870 Y-128.584880 Z-0.125000 I0.099699 J-1.550083
G02 X410.690656 Y-129.386646 Z-0.125000 I-107.628249 J129.252544
G02 X407.578120 Y-131.933280 Z-0.125000 I-1111.026459 J1354.738827
G03 X405.141278 Y-134.435743 Z-0.125000 I9.697542 J-11.880952
G03 X405.234370 Y-134.965740 Z-0.125000 I0.287997 J-0.222588
G03 X406.190149 Y-135.006838 Z-0.125000 I0.513601 J0.809951
G03 X406.638630 Y-134.236130 Z-0.125000 I-0.384163 J0.739388
G01 X406.638630 Y-134.236170 Z-0.125000
G00 Z5.000000

(End cutting path id: path99)


(Start cutting path id: path99)
(Change tool to Default tool)

G00 Z5.000000
G00 X403.097570 Y-134.335370

G01 Z-0.125000 F100.0(Penetrate)
G02 X403.157761 Y-133.859929 Z-0.125000 I0.324317 J0.200472 F400.000000
G02 X406.854430 Y-130.726640 Z-0.125000 I27.007362 J-28.116092
G01 X410.952360 Y-127.669810 Z-0.125000
G01 X409.358200 Y-126.831680 Z-0.125000
G03 X407.722326 Y-126.093511 Z-0.125000 I-6.951840 J-13.224406
G03 X404.248350 Y-124.886250 Z-0.125000 I-22.315612 J-58.612759
G03 X400.899758 Y-124.349641 Z-0.125000 I-3.496074 J-11.100093
G03 X399.853820 Y-124.830550 Z-0.125000 I-0.016994 J-1.340908
G02 X398.210693 Y-125.918154 Z-0.125000 I-2.644180 J2.209764
G02 X390.637550 Y-127.628520 Z-0.125000 I-15.540600 J51.189201
G03 X388.245742 Y-128.187224 Z-0.125000 I2.288533 J-15.196195
G03 X387.407870 Y-128.661230 Z-0.125000 I0.718879 J-2.248250
G03 X386.880920 Y-129.160865 Z-0.125000 I6.203820 J-7.070679
G01 X386.898220 Y-129.183300 Z-0.125000
G02 X387.107988 Y-129.200936 Z-0.125000 I0.091984 J-0.162257
G02 X387.784150 Y-129.904830 Z-0.125000 I-2.532127 J-3.109075
G03 X388.494897 Y-130.329161 Z-0.125000 I0.872649 J0.654261
G03 X389.306950 Y-130.133400 Z-0.125000 I0.164859 J1.098289
G03 X389.314408 Y-129.944680 Z-0.125000 I-0.069749 J0.097264
G03 X389.013980 Y-129.886080 Z-0.125000 I-0.202783 J-0.240211
G02 X388.552792 Y-129.830767 Z-0.125000 I-0.171111 J0.523614
G02 X388.523490 Y-129.582270 Z-0.125000 I0.084181 J0.135902
G02 X389.728937 Y-129.471885 Z-0.125000 I0.668508 J-0.663209
G02 X389.871730 Y-130.518070 Z-0.125000 I-0.408536 J-0.588598
G03 X389.963051 Y-130.824698 Z-0.125000 I0.148004 J-0.122834
G03 X390.895950 Y-130.833950 Z-0.125000 I0.481995 J1.562877
G02 X392.543869 Y-130.826256 Z-0.125000 I0.837612 J-2.920482
G02 X397.244410 Y-132.590470 Z-0.125000 I-7.525831 J-27.195826
G03 X402.791327 Y-134.735228 Z-0.125000 I16.278205 J33.854496
G03 X403.097570 Y-134.335280 Z-0.125000 I0.076989 J0.258269
G01 X403.097570 Y-134.335370 Z-0.125000
G00 Z5.000000

(End cutting path id: path99)


(Start cutting path id: path99)
(Change tool to Default tool)

G00 Z5.000000
G00 X398.828430 Y-135.671020

G01 Z-0.125000 F100.0(Penetrate)
G03 X398.096010 Y-135.528825 Z-0.125000 I-0.732420 J-1.815189 F400.000000
G03 X397.363590 Y-135.671020 Z-0.125000 I-0.000000 J-1.957383
G03 X397.363588 Y-135.824366 Z-0.125000 I0.030937 J-0.076674
G03 X398.096010 Y-135.966570 Z-0.125000 I0.732422 J1.815074
G03 X398.828433 Y-135.824362 Z-0.125000 I-0.000000 J1.957221
G03 X398.828430 Y-135.671020 Z-0.125000 I-0.030939 J0.076670
G01 X398.828430 Y-135.671020 Z-0.125000
G00 Z5.000000

(End cutting path id: path99)


(Start cutting path id: path99)
(Change tool to Default tool)

G00 Z5.000000
G00 X399.425500 Y-139.776340

G01 Z-0.125000 F100.0(Penetrate)
G03 X398.694857 Y-139.629417 Z-0.125000 I-0.755409 J-1.866431 F400.000000
G03 X397.667690 Y-139.754640 Z-0.125000 I-0.047770 J-3.883543
G03 X397.658293 Y-139.899579 Z-0.125000 I0.019297 J-0.074025
G03 X398.388980 Y-140.046500 Z-0.125000 I0.755606 J1.867450
G03 X399.416097 Y-139.921259 Z-0.125000 I0.047057 J3.888451
G03 X399.425500 Y-139.776380 Z-0.125000 I-0.019271 J0.073995
G01 X399.425500 Y-139.776340 Z-0.125000
G00 Z5.000000

(End cutting path id: path99)


(Start cutting path id: path99)
(Change tool to Default tool)

G00 Z5.000000
G00 X392.969060 Y-139.186650

G01 Z-0.125000 F100.0(Penetrate)
G03 X392.236635 Y-139.044458 Z-0.125000 I-0.732425 J-1.815246 F400.000000
G03 X391.504210 Y-139.186650 Z-0.125000 I0.000000 J-1.957438
G03 X391.504208 Y-139.339996 Z-0.125000 I0.030937 J-0.076674
G03 X392.236630 Y-139.482200 Z-0.125000 I0.732422 J1.815074
G03 X392.969062 Y-139.339991 Z-0.125000 I-0.000000 J1.957264
G03 X392.969060 Y-139.186650 Z-0.125000 I-0.030939 J0.076670
G01 X392.969060 Y-139.186650 Z-0.125000
G00 Z5.000000

(End cutting path id: path99)


(Start cutting path id: path99)
(Change tool to Default tool)

G00 Z5.000000
G00 X388.281560 Y-138.600720

G01 Z-0.125000 F100.0(Penetrate)
G03 X387.549135 Y-138.458528 Z-0.125000 I-0.732425 J-1.815246 F400.000000
G03 X386.816710 Y-138.600720 Z-0.125000 I0.000000 J-1.957438
G03 X386.816709 Y-138.754063 Z-0.125000 I0.030937 J-0.076671
G03 X387.549130 Y-138.896260 Z-0.125000 I0.732421 J1.815154
G03 X388.281561 Y-138.754057 Z-0.125000 I-0.000000 J1.957337
G03 X388.281560 Y-138.600720 Z-0.125000 I-0.030937 J0.076668
G01 X388.281560 Y-138.600720 Z-0.125000
G00 Z5.000000

(End cutting path id: path99)


(Start cutting path id: path99)
(Change tool to Default tool)

G00 Z5.000000
G00 X383.008120 Y-138.014420

G01 Z-0.125000 F100.0(Penetrate)
G03 X382.275700 Y-137.872225 Z-0.125000 I-0.732420 J-1.815189 F400.000000
G03 X381.543280 Y-138.014420 Z-0.125000 I-0.000000 J-1.957383
G03 X381.543278 Y-138.167768 Z-0.125000 I0.030937 J-0.076674
G03 X382.275700 Y-138.309970 Z-0.125000 I0.732422 J1.815090
G03 X383.008123 Y-138.167762 Z-0.125000 I-0.000000 J1.957221
G03 X383.008120 Y-138.014420 Z-0.125000 I-0.030939 J0.076670
G01 X383.008120 Y-138.014420 Z-0.125000
G00 Z5.000000

(End cutting path id: path99)


(Start cutting path id: path99)
(Change tool to Default tool)

G00 Z5.000000
G00 X378.015460 Y-137.462530

G01 Z-0.125000 F100.0(Penetrate)
G03 X377.624033 Y-137.290871 Z-0.125000 I-0.415609 J-0.415587 F400.000000
G03 X376.892400 Y-137.416230 Z-0.125000 I-0.072963 J-1.771861
G03 X376.854981 Y-137.598577 Z-0.125000 I0.041420 J-0.103513
G03 X377.246420 Y-137.770250 Z-0.125000 I0.415641 J0.415616
G03 X377.978035 Y-137.644783 Z-0.125000 I0.072372 J1.773796
G03 X378.015460 Y-137.462460 Z-0.125000 I-0.041394 J0.103500
G01 X378.015460 Y-137.462530 Z-0.125000
G00 Z5.000000

(End cutting path id: path99)


(Start cutting path id: path99)
(Change tool to Default tool)

G00 Z5.000000
G00 X373.808900 Y-143.224980

G01 Z-0.125000 F100.0(Penetrate)
G02 X374.440228 Y-142.997229 Z-0.125000 I0.642755 J-0.792826 F400.000000
G02 X383.740540 Y-143.113770 Z-0.125000 I2.194695 J-196.012067
G01 X393.115540 Y-143.453850 Z-0.125000
G01 X383.183900 Y-143.565060 Z-0.125000
G02 X373.883581 Y-143.448489 Z-0.125000 I-2.195134 J195.926494
G02 X373.808900 Y-143.224980 Z-0.125000 I0.004563 J0.125756
G01 X373.808900 Y-143.224980 Z-0.125000
G00 Z5.000000

(End cutting path id: path99)


(Start cutting path id: path99)
(Change tool to Default tool)

G00 Z5.000000
G00 X366.296710 Y-136.291000

G01 Z-0.125000 F100.0(Penetrate)
G03 X365.905283 Y-136.119341 Z-0.125000 I-0.415609 J-0.415587 F400.000000
G03 X365.173650 Y-136.244700 Z-0.125000 I-0.072963 J-1.771861
G03 X365.136230 Y-136.427049 Z-0.125000 I0.041420 J-0.103514
G03 X365.527670 Y-136.598720 Z-0.125000 I0.415633 J0.415603
G03 X366.259280 Y-136.473258 Z-0.125000 I0.072373 J1.773827
G03 X366.296710 Y-136.290930 Z-0.125000 I-0.041395 J0.103504
G01 X366.296710 Y-136.291000 Z-0.125000
G00 Z5.000000

(End cutting path id: path99)


(Start cutting path id: path99)
(Change tool to Default tool)

G00 Z5.000000
G00 X365.729820 Y-130.957170

G01 Z-0.125000 F100.0(Penetrate)
G02 X367.050638 Y-130.834683 Z-0.125000 I1.286475 J-6.689836 F400.000000
G02 X368.073570 Y-130.968870 Z-0.125000 I-0.020793 J-4.124604
G02 X368.069193 Y-131.101225 Z-0.125000 I-0.017197 J-0.065681
G02 X366.748350 Y-131.223690 Z-0.125000 I-1.286432 J6.690583
G02 X365.725426 Y-131.089461 Z-0.125000 I0.019133 J4.110647
G02 X365.729820 Y-130.957030 Z-0.125000 I0.017222 J0.065717
G01 X365.729820 Y-130.957170 Z-0.125000
G00 Z5.000000

(End cutting path id: path99)


(Start cutting path id: path99)
(Change tool to Default tool)

G00 Z5.000000
G00 X365.759580 Y-129.799650

G01 Z-0.125000 F100.0(Penetrate)
G02 X366.491197 Y-129.674243 Z-0.125000 I0.658677 J-1.645876 F400.000000
G02 X366.882650 Y-129.845950 Z-0.125000 I-0.024180 J-0.587191
G02 X366.845233 Y-130.028327 Z-0.125000 I-0.078850 J-0.078850
G02 X366.113610 Y-130.153740 Z-0.125000 I-0.658692 J1.645880
G02 X365.722160 Y-129.982071 Z-0.125000 I0.024175 J0.587264
G02 X365.759580 Y-129.799720 Z-0.125000 I0.078842 J0.078836
G01 X365.759580 Y-129.799650 Z-0.125000
G00 Z5.000000

(End cutting path id: path99)


(Start cutting path id: path99)
(Change tool to Default tool)

G00 Z5.000000
G00 X362.243960 Y-129.799650

G01 Z-0.125000 F100.0(Penetrate)
G02 X362.975577 Y-129.674243 Z-0.125000 I0.658677 J-1.645876 F400.000000
G02 X363.367030 Y-129.845950 Z-0.125000 I-0.024180 J-0.587191
G02 X363.329611 Y-130.028325 Z-0.125000 I-0.078852 J-0.078848
G02 X362.597980 Y-130.153740 Z-0.125000 I-0.658701 J1.645895
G02 X362.206539 Y-129.982072 Z-0.125000 I0.024174 J0.587244
G02 X362.243960 Y-129.799720 Z-0.125000 I0.078843 J0.078836
G01 X362.243960 Y-129.799650 Z-0.125000
G00 Z5.000000

(End cutting path id: path99)


(Start cutting path id: path99)
(Change tool to Default tool)

G00 Z5.000000
G00 X362.243960 Y-130.971270

G01 Z-0.125000 F100.0(Penetrate)
G02 X362.975577 Y-130.845863 Z-0.125000 I0.658677 J-1.645876 F400.000000
G02 X363.367030 Y-131.017570 Z-0.125000 I-0.024180 J-0.587191
G02 X363.329611 Y-131.199945 Z-0.125000 I-0.078852 J-0.078848
G02 X362.597980 Y-131.325360 Z-0.125000 I-0.658701 J1.645895
G02 X362.206539 Y-131.153692 Z-0.125000 I0.024174 J0.587244
G02 X362.243960 Y-130.971340 Z-0.125000 I0.078843 J0.078836
G01 X362.243960 Y-130.971270 Z-0.125000
G00 Z5.000000

(End cutting path id: path99)


(Start cutting path id: path99)
(Change tool to Default tool)

G00 Z5.000000
G00 X359.314270 Y-130.971270

G01 Z-0.125000 F100.0(Penetrate)
G02 X360.045887 Y-130.845863 Z-0.125000 I0.658677 J-1.645876 F400.000000
G02 X360.437340 Y-131.017570 Z-0.125000 I-0.024180 J-0.587191
G02 X360.399923 Y-131.199947 Z-0.125000 I-0.078850 J-0.078850
G02 X359.668300 Y-131.325360 Z-0.125000 I-0.658692 J1.645880
G02 X359.276850 Y-131.153691 Z-0.125000 I0.024175 J0.587264
G02 X359.314270 Y-130.971340 Z-0.125000 I0.078842 J0.078836
G01 X359.314270 Y-130.971270 Z-0.125000
G00 Z5.000000

(End cutting path id: path99)


(Start cutting path id: path99)
(Change tool to Default tool)

G00 Z5.000000
G00 X352.197590 Y-130.395020

G01 Z-0.125000 F100.0(Penetrate)
G02 X352.129764 Y-129.576236 Z-0.125000 I0.449431 J0.449431 F400.000000
G02 X353.125310 Y-129.095820 Z-0.125000 I0.936332 J-0.668599
G02 X353.464694 Y-129.263820 Z-0.125000 I-0.024497 J-0.476289
G02 X353.411130 Y-129.433150 Z-0.125000 I-0.080045 J-0.067816
G03 X352.744353 Y-129.849025 Z-0.125000 I0.332782 J-1.276017
G03 X352.713280 Y-130.244080 Z-0.125000 I0.254199 J-0.218744
G02 X352.614465 Y-130.501694 Z-0.125000 I-0.147525 J-0.091171
G02 X352.197590 Y-130.395020 Z-0.125000 I-0.118485 J0.404865
G01 X352.197590 Y-130.395020 Z-0.125000
G00 Z5.000000

(End cutting path id: path99)


(Start cutting path id: path99)
(Change tool to Default tool)

G00 Z5.000000
G00 X351.953430 Y-135.085080

G01 Z-0.125000 F100.0(Penetrate)
G03 X351.221010 Y-134.942885 Z-0.125000 I-0.732420 J-1.815189 F400.000000
G03 X350.488590 Y-135.085080 Z-0.125000 I-0.000000 J-1.957383
G03 X350.488588 Y-135.238426 Z-0.125000 I0.030937 J-0.076674
G03 X351.221010 Y-135.380630 Z-0.125000 I0.732422 J1.815074
G03 X351.953433 Y-135.238422 Z-0.125000 I-0.000000 J1.957221
G03 X351.953430 Y-135.085080 Z-0.125000 I-0.030939 J0.076670
G01 X351.953430 Y-135.085080 Z-0.125000
G00 Z5.000000

(End cutting path id: path99)


(Start cutting path id: path99)
(Change tool to Default tool)

G00 Z5.000000
G00 X345.792650 Y-129.849450

G01 Z-0.125000 F100.0(Penetrate)
G02 X345.616177 Y-128.608611 Z-0.125000 I0.737825 J0.737902 F400.000000
G02 X346.889170 Y-127.855980 Z-0.125000 I1.272993 J-0.700248
G02 X347.425377 Y-128.135954 Z-0.125000 I0.000000 J-0.653460
G02 X347.705380 Y-129.027850 Z-0.125000 I-1.280481 J-0.891896
G02 X347.009983 Y-130.083376 Z-0.125000 I-1.148777 J-0.000000
G02 X345.792650 Y-129.849450 Z-0.125000 I-0.436059 J1.015200
G01 X345.792650 Y-129.849450 Z-0.125000
G00 Z5.000000

(End cutting path id: path99)


(Start cutting path id: path99)
(Change tool to Default tool)

G00 Z5.000000
G00 X343.750310 Y-134.499140

G01 Z-0.125000 F100.0(Penetrate)
G03 X343.017885 Y-134.356948 Z-0.125000 I-0.732425 J-1.815246 F400.000000
G03 X342.285460 Y-134.499140 Z-0.125000 I0.000000 J-1.957438
G03 X342.285458 Y-134.652486 Z-0.125000 I0.030937 J-0.076674
G03 X343.017880 Y-134.794690 Z-0.125000 I0.732422 J1.815074
G03 X343.750312 Y-134.652481 Z-0.125000 I-0.000000 J1.957264
G03 X343.750310 Y-134.499140 Z-0.125000 I-0.030939 J0.076670
G01 X343.750310 Y-134.499140 Z-0.125000
G00 Z5.000000

(End cutting path id: path99)


(Start cutting path id: path99)
(Change tool to Default tool)

G00 Z5.000000
G00 X339.502260 Y-128.734770

G01 Z-0.125000 F100.0(Penetrate)
G02 X339.875337 Y-128.240912 Z-0.125000 I0.513409 J-0.000000 F400.000000
G02 X342.285460 Y-127.943870 Z-0.125000 I2.160407 J-7.602910
G01 X345.068670 Y-128.031870 Z-0.125000
G01 X342.431950 Y-128.421220 Z-0.125000
G01 X339.795230 Y-128.810580 Z-0.125000
G01 X342.431950 Y-129.109760 Z-0.125000
G01 X345.068670 Y-129.408940 Z-0.125000
G01 X342.285460 Y-129.511300 Z-0.125000
G02 X339.875511 Y-129.226412 Z-0.125000 I-0.289942 J7.882968
G02 X339.502260 Y-128.734760 Z-0.125000 I0.137180 J0.491652
G01 X339.502260 Y-128.734770 Z-0.125000
G00 Z5.000000

(End cutting path id: path99)


(Start cutting path id: path99)
(Change tool to Default tool)

G00 Z5.000000
G00 X334.961240 Y-133.913210

G01 Z-0.125000 F100.0(Penetrate)
G03 X334.228820 Y-133.771015 Z-0.125000 I-0.732420 J-1.815189 F400.000000
G03 X333.496400 Y-133.913210 Z-0.125000 I0.000000 J-1.957383
G03 X333.496399 Y-134.066553 Z-0.125000 I0.030937 J-0.076671
G03 X334.228820 Y-134.208750 Z-0.125000 I0.732421 J1.815154
G03 X334.961242 Y-134.066548 Z-0.125000 I-0.000000 J1.957297
G03 X334.961240 Y-133.913210 Z-0.125000 I-0.030937 J0.076668
G01 X334.961240 Y-133.913210 Z-0.125000
G00 Z5.000000

(End cutting path id: path99)


(Start cutting path id: path99)
(Change tool to Default tool)

G00 Z5.000000
G00 X327.344060 Y-133.327310

G01 Z-0.125000 F100.0(Penetrate)
G03 X326.611635 Y-133.185118 Z-0.125000 I-0.732425 J-1.815246 F400.000000
G03 X325.879210 Y-133.327310 Z-0.125000 I0.000000 J-1.957438
G03 X325.879209 Y-133.480653 Z-0.125000 I0.030937 J-0.076671
G03 X326.611630 Y-133.622850 Z-0.125000 I0.732421 J1.815154
G03 X327.344061 Y-133.480647 Z-0.125000 I-0.000000 J1.957337
G03 X327.344060 Y-133.327310 Z-0.125000 I-0.030937 J0.076668
G01 X327.344060 Y-133.327310 Z-0.125000
G00 Z5.000000

(End cutting path id: path99)


(Start cutting path id: path99)
(Change tool to Default tool)

G00 Z5.000000
G00 X324.707340 Y-128.623850

G01 Z-0.125000 F100.0(Penetrate)
G02 X323.938443 Y-128.157786 Z-0.125000 I0.398598 J1.524878 F400.000000
G02 X323.681950 Y-127.493160 Z-0.125000 I0.732846 J0.664626
G02 X324.068104 Y-127.033869 Z-0.125000 I0.466217 J-0.000000
G02 X327.637030 Y-126.803690 Z-0.125000 I2.844185 J-16.315912
G02 X331.166514 Y-127.240743 Z-0.125000 I-0.981206 J-22.393834
G02 X331.332360 Y-127.562890 Z-0.125000 I-0.046811 J-0.227863
G03 X331.449002 Y-127.957149 Z-0.125000 I0.290056 J-0.128571
G03 X332.797200 Y-128.518970 Z-0.125000 I2.188293 J3.352693
G02 X332.790369 Y-128.705655 Z-0.125000 I-0.019903 J-0.092739
G02 X330.127260 Y-128.890450 Z-0.125000 I-2.669092 J19.183017
G02 X325.746628 Y-128.783309 Z-0.125000 I-0.000000 J89.607916
G02 X324.707340 Y-128.623850 Z-0.125000 I0.249152 J5.090436
G01 X324.707340 Y-128.623850 Z-0.125000
G00 Z5.000000

(End cutting path id: path99)


(Start cutting path id: path99)
(Change tool to Default tool)

G00 Z5.000000
G00 X320.556970 Y-128.051150

G01 Z-0.125000 F100.0(Penetrate)
G02 X320.443420 Y-127.203239 Z-0.125000 I0.498288 J0.498288 F400.000000
G02 X321.338200 Y-126.683980 Z-0.125000 I0.894780 J-0.511305
G02 X322.217110 Y-126.976958 Z-0.125000 I0.000000 J-1.464818
G02 X322.510070 Y-127.562890 Z-0.125000 I-0.439464 J-0.585932
G02 X321.849347 Y-128.409139 Z-0.125000 I-0.872296 J0.000000
G02 X320.556970 Y-128.051150 Z-0.125000 I-0.330070 J1.320215
G01 X320.556970 Y-128.051150 Z-0.125000
G00 Z5.000000

(End cutting path id: path99)


(Start cutting path id: path99)
(Change tool to Default tool)

G00 Z5.000000
G00 X312.245330 Y-127.838340

G01 Z-0.125000 F100.0(Penetrate)
G02 X312.110939 Y-127.200386 Z-0.125000 I0.817725 J0.505393 F400.000000
G02 X312.420760 Y-126.577990 Z-0.125000 I1.082972 J-0.150780
G02 X314.249071 Y-126.074484 Z-0.125000 I1.357271 J-1.357271
G02 X315.185850 Y-127.277950 Z-0.125000 I-0.304648 J-1.203466
G02 X314.061176 Y-128.637210 Z-0.125000 I-1.383725 J-0.000000
G02 X312.245330 Y-127.838340 Z-0.125000 I-0.327543 J1.718648
G01 X312.245330 Y-127.838340 Z-0.125000
G00 Z5.000000

(End cutting path id: path99)


(Start cutting path id: path99)
(Change tool to Default tool)

G00 Z5.000000
G00 X304.720070 Y-126.976950

G01 Z-0.125000 F100.0(Penetrate)
G02 X304.961142 Y-126.506861 Z-0.125000 I0.331099 J0.127063 F400.000000
G02 X307.733550 Y-126.186060 Z-0.125000 I2.512511 J-9.573311
G01 X311.084290 Y-126.274060 Z-0.125000
G01 X308.447570 Y-126.663420 Z-0.125000
G01 X305.810850 Y-127.052770 Z-0.125000
G01 X308.447570 Y-127.351950 Z-0.125000
G01 X311.084290 Y-127.651130 Z-0.125000
G01 X308.070810 Y-127.753500 Z-0.125000
G02 X305.303408 Y-127.484534 Z-0.125000 I-0.361831 J10.648551
G02 X304.720070 Y-126.976950 Z-0.125000 I0.186062 J0.802822
G01 X304.720070 Y-126.976950 Z-0.125000
G00 Z5.000000

(End cutting path id: path99)


(Start cutting path id: path99)
(Change tool to Default tool)

G00 Z5.000000
G00 X296.374390 Y-127.435570

G01 Z-0.125000 F100.0(Penetrate)
G03 X296.826581 Y-127.050776 Z-0.125000 I-0.167777 J0.655257 F400.000000
G03 X296.707900 Y-126.671090 Z-0.125000 I-0.278290 J0.121405
G02 X296.920996 Y-125.707198 Z-0.125000 I0.274868 J0.444734
G02 X302.002260 Y-126.041090 Z-0.125000 I1.643800 J-13.815207
G01 X304.053040 Y-126.564040 Z-0.125000
G01 X302.295230 Y-126.682400 Z-0.125000
G03 X301.873087 Y-126.963671 Z-0.125000 I0.034276 J-0.508863
G03 X302.002260 Y-127.269920 Z-0.125000 I0.195957 J-0.097714
G02 X301.986021 Y-127.505906 Z-0.125000 I-0.037150 J-0.115995
G02 X299.365540 Y-127.729470 Z-0.125000 I-2.585451 J14.835477
G02 X296.385446 Y-127.579820 Z-0.125000 I0.083545 J31.410988
G02 X296.374390 Y-127.435570 Z-0.125000 I0.007164 J0.073098
G01 X296.374390 Y-127.435570 Z-0.125000
G00 Z5.000000

(End cutting path id: path99)


(Start cutting path id: path99)
(Change tool to Default tool)

G00 Z5.000000
G00 X288.086240 Y-126.296020

G01 Z-0.125000 F100.0(Penetrate)
G03 X287.353820 Y-126.153825 Z-0.125000 I-0.732420 J-1.815189 F400.000000
G03 X286.621400 Y-126.296020 Z-0.125000 I0.000000 J-1.957383
G03 X286.621398 Y-126.449366 Z-0.125000 I0.030937 J-0.076674
G03 X287.353820 Y-126.591570 Z-0.125000 I0.732422 J1.815074
G03 X288.086243 Y-126.449362 Z-0.125000 I0.000000 J1.957223
G03 X288.086240 Y-126.296020 Z-0.125000 I-0.030939 J0.076670
G01 X288.086240 Y-126.296020 Z-0.125000
G00 Z5.000000

(End cutting path id: path99)


(Start cutting path id: path99)
(Change tool to Default tool)

G00 Z5.000000
G00 X338.528720 Y-85.081960

G01 Z-0.125000 F100.0(Penetrate)
G03 X335.760130 Y-81.644832 Z-0.125000 I-97.984887 J-76.092732 F400.000000
G03 X335.592300 Y-81.566340 Z-0.125000 I-0.167830 J-0.140181
G03 X335.299370 Y-82.096991 Z-0.125000 I0.000000 J-0.346177
G03 X339.374700 Y-87.572200 Z-0.125000 I37.133648 J23.385181
G03 X340.334181 Y-88.456078 Z-0.125000 I4.528646 J3.953290
G03 X340.764310 Y-88.597590 Z-0.125000 I0.430129 J0.582939
G03 X340.869091 Y-88.406789 Z-0.125000 I0.000000 J0.124172
G03 X338.528720 Y-85.081960 Z-0.125000 I-36.551345 J-23.242639
G01 X338.528720 Y-85.081960 Z-0.125000
G00 Z5.000000

(End cutting path id: path99)


(Start cutting path id: path99)
(Change tool to Default tool)

G00 Z5.000000
G00 X345.361630 Y-80.687950

G01 Z-0.125000 F100.0(Penetrate)
G03 X344.580112 Y-79.827739 Z-0.125000 I-0.864173 J-0.000000 F400.000000
G03 X343.254900 Y-80.485510 Z-0.125000 I-0.133943 J-1.393983
G03 X343.281845 Y-80.716961 Z-0.125000 I0.159693 J-0.098703
G03 X343.513300 Y-80.743910 Z-0.125000 I0.132753 J0.132753
G02 X343.991927 Y-80.680658 Z-0.125000 I0.309731 J-0.501225
G02 X344.189760 Y-80.946350 Z-0.125000 I-0.079497 J-0.265692
G03 X344.366251 Y-81.390340 Z-0.125000 I0.646708 J0.000000
G03 X344.775700 Y-81.566860 Z-0.125000 I0.409449 J0.386611
G03 X345.157369 Y-81.362598 Z-0.125000 I0.000000 J0.458711
G03 X345.361630 Y-80.687950 Z-0.125000 I-1.011926 J0.674622
G01 X345.361630 Y-80.687950 Z-0.125000
G00 Z5.000000

(End cutting path id: path99)


(Start cutting path id: path99)
(Change tool to Default tool)

G00 Z5.000000
G00 X349.252080 Y-79.213520

G01 Z-0.125000 F100.0(Penetrate)
G02 X347.867189 Y-77.316389 Z-0.125000 I13.042131 J10.974700 F400.000000
G02 X347.705380 Y-76.755390 Z-0.125000 I0.891599 J0.560999
G02 X347.888609 Y-76.664697 Z-0.125000 I0.114060 J-0.000000
G02 X348.924190 Y-77.684870 Z-0.125000 I-3.497998 J-4.586527
G03 X350.200367 Y-78.910206 Z-0.125000 I5.010775 J3.941448
G03 X350.641520 Y-78.926170 Z-0.125000 I0.232505 J0.321669
G02 X351.592392 Y-79.209741 Z-0.125000 I0.349218 J-0.565022
G02 X351.368960 Y-80.481430 Z-0.125000 I-1.018617 J-0.476505
G02 X350.820349 Y-80.549187 Z-0.125000 I-0.317731 J0.317731
G02 X349.252080 Y-79.213520 Z-0.125000 I3.205876 J5.352694
G01 X349.252080 Y-79.213520 Z-0.125000
G00 Z5.000000

(End cutting path id: path99)


(Start cutting path id: path99)
(Change tool to Default tool)

G00 Z5.000000
G00 X349.442220 Y-77.368990

G01 Z-0.125000 F100.0(Penetrate)
G02 X349.497764 Y-77.015370 Z-0.125000 I0.270434 J0.138694 F400.000000
G02 X349.799350 Y-77.011920 Z-0.125000 I0.152558 J-0.152584
G02 X350.556722 Y-78.026803 Z-0.125000 I-2.627283 J-2.750691
G02 X350.501190 Y-78.380430 Z-0.125000 I-0.270456 J-0.138703
G02 X350.199622 Y-78.383896 Z-0.125000 I-0.152557 J0.152557
G02 X349.442220 Y-77.368990 Z-0.125000 I2.626701 J2.750318
G01 X349.442220 Y-77.368990 Z-0.125000
G00 Z5.000000

(End cutting path id: path99)


(Start cutting path id: path99)
(Change tool to Default tool)

G00 Z5.000000
G00 X343.744920 Y-75.407270

G01 Z-0.125000 F100.0(Penetrate)
G02 X342.846913 Y-73.746033 Z-0.125000 I10.010953 J6.484908 F400.000000
G02 X342.817759 Y-73.425531 Z-0.125000 I0.460056 J0.203425
G02 X342.962567 Y-73.374299 Z-0.125000 I0.089002 J-0.021300
G02 X343.988550 Y-74.389140 Z-0.125000 I-3.553503 J-4.618563
G02 X345.732212 Y-77.134051 Z-0.125000 I-12.697152 J-9.991939
G02 X345.528740 Y-77.458050 Z-0.125000 I-0.199930 J-0.100333
G02 X345.159728 Y-77.284822 Z-0.125000 I0.011977 J0.505165
G02 X343.744920 Y-75.407270 Z-0.125000 I12.503760 J10.893897
G01 X343.744920 Y-75.407270 Z-0.125000
G00 Z5.000000

(End cutting path id: path99)


(Start cutting path id: path99)
(Change tool to Default tool)

G00 Z5.000000
G00 X344.517710 Y-71.752420

G01 Z-0.125000 F100.0(Penetrate)
G02 X340.857663 Y-65.460160 Z-0.125000 I122.853336 J75.671255 F400.000000
G02 X340.674130 Y-64.743790 Z-0.125000 I1.306308 J0.716370
G02 X340.751776 Y-64.652690 Z-0.125000 I0.092265 J-0.000000
G02 X341.699530 Y-64.579260 Z-0.125000 I0.921759 J-5.744044
G02 X342.527467 Y-64.895871 Z-0.125000 I-0.000000 J-1.240831
G02 X343.502630 Y-66.190590 Z-0.125000 I-2.794212 J-3.119157
G02 X344.446614 Y-68.793664 Z-0.125000 I-12.135395 J-5.873503
G02 X344.198780 Y-68.974790 Z-0.125000 I-0.160731 J-0.040190
G03 X343.898874 Y-68.971305 Z-0.125000 I-0.152847 J-0.247300
G03 X343.846750 Y-69.181210 Z-0.125000 I0.076474 J-0.130415
G03 X344.333552 Y-69.601202 Z-0.125000 I0.909550 J0.562121
G03 X344.750970 Y-69.570450 Z-0.125000 I0.179176 J0.416254
G02 X346.872737 Y-69.927014 Z-0.125000 I0.857651 J-1.387635
G02 X348.291320 Y-73.910610 Z-0.125000 I-4.883978 J-3.983596
G02 X347.325873 Y-74.470642 Z-0.125000 I-0.645154 J0.000000
G02 X344.517710 Y-71.752420 Z-0.125000 I3.927323 J6.866920
G01 X344.517710 Y-71.752420 Z-0.125000
G00 Z5.000000

(End cutting path id: path99)


(Start cutting path id: path99)
(Change tool to Default tool)

G00 Z5.000000
G00 X343.220090 Y-67.186150

G01 Z-0.125000 F100.0(Penetrate)
G03 X342.813780 Y-66.561103 Z-0.125000 I-1.669613 J-0.640743 F400.000000
G03 X342.593840 Y-66.561190 Z-0.125000 I-0.109927 J-0.110143
G03 X342.489929 Y-66.860905 Z-0.125000 I0.257137 J-0.257020
G03 X342.700830 Y-67.465410 Z-0.125000 I1.470086 J0.173845
G03 X343.078797 Y-67.566730 Z-0.125000 I0.242786 J0.150049
G03 X343.220090 Y-67.186150 Z-0.125000 I-0.145485 J0.270531
G01 X343.220090 Y-67.186150 Z-0.125000
G00 Z5.000000

(End cutting path id: path99)


(Start cutting path id: path99)
(Change tool to Default tool)

G00 Z5.000000
G00 X337.744450 Y-66.332560

G01 Z-0.125000 F100.0(Penetrate)
G03 X337.567934 Y-65.923115 Z-0.125000 I-0.563131 J0.000000 F400.000000
G03 X337.123940 Y-65.746620 Z-0.125000 I-0.443994 J-0.470212
G03 X336.837883 Y-65.933115 Z-0.125000 I0.000000 J-0.312632
G03 X336.865540 Y-66.332560 Z-0.125000 I0.393345 J-0.173446
G03 X337.274563 Y-66.834433 Z-0.125000 I2.119839 J1.310042
G03 X337.486050 Y-66.918500 Z-0.125000 I0.211487 J0.223985
G03 X337.642492 Y-66.816506 Z-0.125000 I-0.000000 J0.170975
G03 X337.744450 Y-66.332560 Z-0.125000 I-1.097549 J0.483946
G01 X337.744450 Y-66.332560 Z-0.125000
G00 Z5.000000

(End cutting path id: path99)


(Start cutting path id: path99)
(Change tool to Default tool)

G00 Z5.000000
G00 X335.415230 Y-67.173270

G01 Z-0.125000 F100.0(Penetrate)
G03 X335.397207 Y-65.550090 Z-0.125000 I-2.074389 J0.788657 F400.000000
G03 X334.082340 Y-63.888860 Z-0.125000 I-3.502862 J-1.421548
G01 X332.178040 Y-62.537280 Z-0.125000
G01 X333.496400 Y-64.220970 Z-0.125000
G02 X334.563536 Y-65.990231 Z-0.125000 I-6.707176 J-5.251910
G02 X334.805800 Y-67.143980 Z-0.125000 I-2.530833 J-1.133734
G02 X334.562554 Y-67.578767 Z-0.125000 I-0.517492 J0.004079
G02 X334.228820 Y-67.504390 Z-0.125000 I-0.129109 J0.206609
G03 X333.875676 Y-67.365701 Z-0.125000 I-0.273120 J-0.176496
G03 X333.651850 Y-67.650870 Z-0.125000 I0.073064 J-0.287771
G03 X334.319090 Y-68.166086 Z-0.125000 I0.528951 J-0.004641
G03 X335.415230 Y-67.173270 Z-0.125000 I-0.425620 J1.571432
G01 X335.415230 Y-67.173270 Z-0.125000
G00 Z5.000000

(End cutting path id: path99)


(Start cutting path id: path99)
(Change tool to Default tool)

G00 Z5.000000
G00 X332.466500 Y-68.529790

G01 Z-0.125000 F100.0(Penetrate)
G03 X331.746866 Y-65.283231 Z-0.125000 I-7.740524 J-0.012731 F400.000000
G03 X330.153160 Y-63.549320 Z-0.125000 I-3.515788 J-1.632126
G03 X327.825194 Y-62.302891 Z-0.125000 I-24.024253 J-42.073091
G03 X327.520950 Y-62.230960 Z-0.125000 I-0.304244 J-0.607464
G03 X327.059782 Y-62.754870 Z-0.125000 I0.000000 J-0.464925
G03 X327.919270 Y-65.345630 Z-0.125000 I7.054043 J0.902240
G02 X328.429712 Y-66.681573 Z-0.125000 I-4.209621 J-2.373914
G02 X328.651690 Y-68.676270 Z-0.125000 I-9.295522 J-2.044144
G03 X328.971009 Y-70.348663 Z-0.125000 I4.668411 J0.024684
G03 X329.394840 Y-70.580570 Z-0.125000 I0.350116 J0.136620
G02 X329.939886 Y-70.662576 Z-0.125000 I0.159074 J-0.795033
G02 X330.127260 Y-70.977070 Z-0.125000 I-0.170240 J-0.314494
G03 X330.318561 Y-71.372257 Z-0.125000 I0.503835 J0.000000
G03 X331.152650 Y-71.788010 Z-0.125000 I1.408234 J1.780657
G02 X332.173805 Y-72.067748 Z-0.125000 I-11.335215 J-43.381659
G02 X332.324530 Y-72.123930 Z-0.125000 I-0.285907 J-0.997312
G03 X332.398655 Y-72.078694 Z-0.125000 I0.022004 J0.047294
G03 X332.466500 Y-68.529790 Z-0.125000 I-87.210304 J3.442306
G01 X332.466500 Y-68.529790 Z-0.125000
G00 Z5.000000

(End cutting path id: path99)


(Start cutting path id: path99)
(Change tool to Default tool)

G00 Z5.000000
G00 X335.800950 Y-72.082020

G01 Z-0.125000 F100.0(Penetrate)
G03 X335.618602 Y-72.044602 Z-0.125000 I-0.103513 J-0.041421 F400.000000
G03 X335.446930 Y-72.436050 Z-0.125000 I0.415622 J-0.415641
G03 X335.572390 Y-73.167660 Z-0.125000 I1.773839 J-0.072375
G03 X335.754720 Y-73.205090 Z-0.125000 I0.103505 J0.041395
G03 X335.926377 Y-72.813656 Z-0.125000 I-0.415617 J0.415617
G03 X335.801020 Y-72.082020 Z-0.125000 I-1.771898 J0.072965
G01 X335.800950 Y-72.082020 Z-0.125000
G00 Z5.000000

(End cutting path id: path99)


(Start cutting path id: path99)
(Change tool to Default tool)

G00 Z5.000000
G00 X339.323310 Y-62.442640

G01 Z-0.125000 F100.0(Penetrate)
G02 X339.040053 Y-61.562502 Z-0.125000 I0.716221 J0.716153 F400.000000
G02 X339.502260 Y-61.352030 Z-0.125000 I0.301554 J-0.049476
G03 X339.887214 Y-61.353431 Z-0.125000 I0.193620 J0.313305
G03 X340.088200 Y-60.996020 Z-0.125000 I-0.217298 J0.357411
G02 X340.233239 Y-60.627985 Z-0.125000 I0.539463 J-0.000000
G02 X340.434900 Y-60.624480 Z-0.125000 I0.102524 J-0.095664
G02 X340.561381 Y-61.001632 Z-0.125000 I-0.315635 J-0.315635
G02 X340.255950 Y-61.910370 Z-0.125000 I-2.567461 J0.357238
G02 X339.680567 Y-62.490591 Z-0.125000 I-1.331755 J0.745249
G02 X339.323310 Y-62.442640 Z-0.125000 I-0.147219 J0.257988
G01 X339.323310 Y-62.442640 Z-0.125000
G00 Z5.000000

(End cutting path id: path99)


(Start cutting path id: path99)
(Change tool to Default tool)

G00 Z5.000000
G00 X329.834290 Y-61.058730

G01 Z-0.125000 F100.0(Penetrate)
G03 X328.262816 Y-60.036510 Z-0.125000 I-2.718550 J-2.460231 F400.000000
G03 X327.783510 Y-60.383270 Z-0.125000 I-0.114219 J-0.346760
G03 X327.960461 Y-60.768502 Z-0.125000 I0.507810 J0.000000
G03 X329.101870 Y-61.515470 Z-0.125000 I3.424501 J3.987275
G03 X330.463771 Y-62.129697 Z-0.125000 I12.634494 J26.196989
G03 X330.613405 Y-62.117733 Z-0.125000 I0.063263 J0.150468
G03 X330.632605 Y-62.009837 Z-0.125000 I-0.039039 J0.062603
G03 X329.834290 Y-61.058730 Z-0.125000 I-13.147778 J-10.225048
G01 X329.834290 Y-61.058730 Z-0.125000
G00 Z5.000000

(End cutting path id: path99)


(Start cutting path id: path99)
(Change tool to Default tool)

G00 Z5.000000
G00 X326.684350 Y-58.559070

G01 Z-0.125000 F100.0(Penetrate)
G03 X326.426422 Y-58.559549 Z-0.125000 I-0.128724 J-0.129694 F400.000000
G03 X326.356340 Y-58.887070 Z-0.125000 I0.217858 J-0.217875
G03 X326.826497 Y-59.610231 Z-0.125000 I1.909590 J0.727088
G03 X327.084430 Y-59.609770 Z-0.125000 I0.128735 J0.129702
G03 X327.154504 Y-59.282240 Z-0.125000 I-0.217874 J0.217874
G03 X326.684350 Y-58.559070 Z-0.125000 I-1.910117 J-0.727408
G01 X326.684350 Y-58.559070 Z-0.125000
G00 Z5.000000

(End cutting path id: path99)


(Start cutting path id: path99)
(Change tool to Default tool)

G00 Z5.000000
G00 X326.953880 Y-53.066060

G01 Z-0.125000 F100.0(Penetrate)
G02 X327.073308 Y-52.785285 Z-0.125000 I0.204904 J0.078631 F400.000000
G02 X327.477120 Y-52.844810 Z-0.125000 I0.152967 J-0.361757
G02 X328.067808 Y-53.726550 Z-0.125000 I-1.193709 J-1.438403
G02 X327.846210 Y-54.027810 Z-0.125000 I-0.221598 J-0.069130
G02 X327.443647 Y-53.852169 Z-0.125000 I0.000000 J0.549152
G02 X326.953880 Y-53.066060 Z-0.125000 I1.790071 J1.660885
G01 X326.953880 Y-53.066060 Z-0.125000
G00 Z5.000000

(End cutting path id: path99)


(Start cutting path id: path99)
(Change tool to Default tool)

G00 Z5.000000
G00 X332.819940 Y-51.593560

G01 Z-0.125000 F100.0(Penetrate)
G03 X332.792993 Y-51.362107 Z-0.125000 I-0.159698 J0.098702 F400.000000
G03 X332.561540 Y-51.335160 Z-0.125000 I-0.132751 J-0.132751
G02 X332.044418 Y-51.459563 Z-0.125000 I-0.447889 J0.724800
G02 X331.874000 Y-51.278960 Z-0.125000 I0.015077 J0.184932
G03 X331.683974 Y-50.909811 Z-0.125000 I-0.474801 J-0.010928
G03 X328.895330 Y-49.047120 Z-0.125000 I-18.583553 J-24.802736
G02 X325.988137 Y-47.208811 Z-0.125000 I30.111052 J50.837063
G02 X325.015420 Y-46.432670 Z-0.125000 I4.323952 J6.416703
G03 X322.876581 Y-45.101827 Z-0.125000 I-4.397519 J-4.683268
G03 X322.602890 Y-45.526640 Z-0.125000 I-0.090891 J-0.242013
G03 X322.825058 Y-45.643476 Z-0.125000 I0.299100 J0.299100
G03 X323.157060 Y-45.629170 Z-0.125000 I0.134885 J0.729261
G02 X323.458022 Y-45.702365 Z-0.125000 I0.084843 J-0.306488
G02 X325.134250 Y-47.460520 Z-0.125000 I-13.311736 J-14.369568
G03 X326.769147 Y-49.116924 Z-0.125000 I11.232654 J9.451767
G03 X327.039960 Y-49.107060 Z-0.125000 I0.130102 J0.150576
G02 X327.332475 Y-49.030719 Z-0.125000 I0.211417 J-0.211498
G02 X327.992460 Y-49.375540 Z-0.125000 I-0.491664 J-1.745054
G03 X331.952716 Y-51.855206 Z-0.125000 I11.555204 J14.052447
G03 X332.819940 Y-51.593310 Z-0.125000 I0.285489 J0.621431
G01 X332.819940 Y-51.593560 Z-0.125000
G00 Z5.000000

(End cutting path id: path99)


(Start cutting path id: path99)
(Change tool to Default tool)

G00 Z5.000000
G00 X325.840010 Y-64.464780

G01 Z-0.125000 F100.0(Penetrate)
G03 X325.657663 Y-64.427361 Z-0.125000 I-0.103513 J-0.041421 F400.000000
G03 X325.485990 Y-64.818800 Z-0.125000 I0.415616 J-0.415641
G03 X325.611457 Y-65.550422 Z-0.125000 I1.773825 J-0.072373
G03 X325.793780 Y-65.587850 Z-0.125000 I0.103501 J0.041394
G03 X325.965437 Y-65.196416 Z-0.125000 I-0.415617 J0.415617
G03 X325.840080 Y-64.464780 Z-0.125000 I-1.771898 J0.072965
G01 X325.840010 Y-64.464780 Z-0.125000
G00 Z5.000000

(End cutting path id: path99)


(Start cutting path id: path99)
(Change tool to Default tool)

G00 Z5.000000
G00 X322.389600 Y-41.168150

G01 Z-0.125000 F100.0(Penetrate)
G02 X322.366373 Y-39.791560 Z-0.125000 I5.300490 J0.777926 F400.000000
G02 X322.554720 Y-39.699960 Z-0.125000 I0.123185 J-0.013852
G03 X322.880014 Y-39.682407 Z-0.125000 I0.150024 J0.242705
G03 X323.293000 Y-39.125280 Z-0.125000 I-0.794429 J1.020524
G03 X323.189736 Y-38.404038 Z-0.125000 I-0.698532 J0.268000
G03 X321.075350 Y-36.212760 Z-0.125000 I-10.396624 J-7.916068
G03 X318.837146 Y-35.063697 Z-0.125000 I-3.786186 J-4.620553
G03 X318.188260 Y-35.438150 Z-0.125000 I-0.137260 J-0.511594
G03 X318.275293 Y-38.271187 Z-0.125000 I4.745533 J-1.272070
G03 X320.019840 Y-40.904240 Z-0.125000 I5.785001 J1.938435
G03 X322.241657 Y-42.791159 Z-0.125000 I48.887622 J55.312845
G03 X322.430090 Y-42.870650 Z-0.125000 I0.229815 J0.281692
G03 X322.526742 Y-42.782415 Z-0.125000 I0.009932 J0.086173
G03 X322.389690 Y-41.168150 Z-0.125000 I-13.299643 J-0.316193
G01 X322.389600 Y-41.168150 Z-0.125000
G00 Z5.000000

(End cutting path id: path99)


(Start cutting path id: path99)
(Change tool to Default tool)

G00 Z5.000000
G00 X323.974920 Y-35.617390

G01 Z-0.125000 F100.0(Penetrate)
G03 X321.021262 Y-33.332758 Z-0.125000 I-20.190194 J-23.051026 F400.000000
G03 X320.601850 Y-33.322680 Z-0.125000 I-0.217510 J-0.319714
G03 X320.562416 Y-33.646344 Z-0.125000 I0.108612 J-0.177467
G03 X322.932057 Y-35.840029 Z-0.125000 I25.638625 J25.318421
G03 X325.558034 Y-37.893412 Z-0.125000 I28.038750 J33.151644
G03 X326.318670 Y-38.157780 Z-0.125000 I0.822081 J1.138852
G03 X326.400641 Y-37.981234 Z-0.125000 I0.004601 J0.105167
G03 X323.974920 Y-35.617390 Z-0.125000 I-23.422484 J-21.609077
G01 X323.974920 Y-35.617390 Z-0.125000
G00 Z5.000000

(End cutting path id: path99)


(Start cutting path id: path99)
(Change tool to Default tool)

G00 Z5.000000
G00 X322.685500 Y-21.331320

G01 Z-0.125000 F100.0(Penetrate)
G03 X320.247712 Y-19.718070 Z-0.125000 I-5.968088 J-6.369901 F400.000000
G03 X319.911030 Y-20.104430 Z-0.125000 I-0.108491 J-0.245334
G03 X320.308260 Y-20.390313 Z-0.125000 I0.543127 J0.335754
G03 X320.792750 Y-20.311380 Z-0.125000 I0.146783 J0.625413
G02 X321.144760 Y-20.321209 Z-0.125000 I0.168527 J-0.272713
G02 X321.338200 Y-20.692120 Z-0.125000 I-0.258882 J-0.370911
G03 X322.290361 Y-22.944113 Z-0.125000 I3.139218 J0.000000
G03 X323.857380 Y-23.138700 Z-0.125000 I0.912233 J0.939317
G03 X323.933275 Y-22.823027 Z-0.125000 I-0.111955 J0.193876
G03 X322.685500 Y-21.331320 Z-0.125000 I-6.739510 J-4.369708
G01 X322.685500 Y-21.331320 Z-0.125000
G00 Z5.000000

(End cutting path id: path99)


(Start cutting path id: path99)
(Change tool to Default tool)

G00 Z5.000000
G00 X317.470540 Y-22.651290

G01 Z-0.125000 F100.0(Penetrate)
G02 X317.110633 Y-20.238196 Z-0.125000 I14.887770 J3.453860 F400.000000
G02 X317.292530 Y-20.043460 Z-0.125000 I0.181897 J0.012416
G02 X317.560541 Y-20.241262 Z-0.125000 I0.000000 J-0.280471
G02 X318.109164 Y-22.396964 Z-0.125000 I-21.270950 J-6.561086
G02 X318.448476 Y-24.616291 Z-0.125000 I-23.170313 J-4.678100
G02 X318.300230 Y-25.034530 Z-0.125000 I-0.512796 J-0.053631
G02 X318.149764 Y-25.000080 Z-0.125000 I-0.064432 J0.064400
G02 X317.470540 Y-22.651290 Z-0.125000 I21.589657 J7.515912
G01 X317.470540 Y-22.651290 Z-0.125000
G00 Z5.000000

(End cutting path id: path99)


(Start cutting path id: path99)
(Change tool to Default tool)

G00 Z5.000000
G00 X317.236630 Y-16.892520

G01 Z-0.125000 F100.0(Penetrate)
G03 X317.160388 Y-16.708456 Z-0.125000 I-0.260306 J-0.000000 F400.000000
G03 X316.211240 Y-15.867130 Z-0.125000 I-7.460001 J-7.460001
G03 X316.002565 Y-15.879705 Z-0.125000 I-0.097244 J-0.124005
G03 X315.989990 Y-16.088380 Z-0.125000 I0.111432 J-0.111431
G03 X317.008332 Y-17.016927 Z-0.125000 I3.273511 J2.567392
G03 X317.236630 Y-16.892520 Z-0.125000 I0.080253 J0.124407
G01 X317.236630 Y-16.892520 Z-0.125000
G00 Z5.000000

(End cutting path id: path99)


(Start cutting path id: path99)
(Change tool to Default tool)

G00 Z5.000000
G00 X315.571340 Y-9.496510

G01 Z-0.125000 F100.0(Penetrate)
G02 X315.713548 Y-8.764087 Z-0.125000 I1.957221 J-0.000000 F400.000000
G02 X315.866890 Y-8.764090 Z-0.125000 I0.076670 J-0.030939
G02 X316.009082 Y-9.496515 Z-0.125000 I-1.815246 J-0.732425
G02 X315.866890 Y-10.228940 Z-0.125000 I-1.957438 J-0.000000
G02 X315.713544 Y-10.228941 Z-0.125000 I-0.076673 J0.030937
G02 X315.571340 Y-9.496510 Z-0.125000 I1.815115 J0.732431
G01 X315.571340 Y-9.496510 Z-0.125000
G00 Z5.000000

(End cutting path id: path99)


(Start cutting path id: path99)
(Change tool to Default tool)

G00 Z5.000000
G00 X317.415700 Y-8.249080

G01 Z-0.125000 F100.0(Penetrate)
G01 X318.289450 Y-6.122730 Z-0.125000 F400.000000
G01 X316.005230 Y-4.084870 Z-0.125000
G03 X314.073358 Y-2.833537 Z-0.125000 I-5.004937 J-5.609950
G03 X313.721010 Y-3.061800 Z-0.125000 I-0.102236 J-0.228263
G02 X313.662179 Y-4.071136 Z-0.125000 I-8.687803 J0.000000
G02 X313.405310 Y-5.761160 Z-0.125000 I-24.686207 J2.887560
G03 X313.453816 Y-7.377324 Z-0.125000 I3.720092 J-0.697157
G03 X314.323180 Y-9.428260 Z-0.125000 I6.969102 J1.744382
G03 X315.722356 Y-9.899640 Z-0.125000 I0.985599 J0.613263
G03 X317.415700 Y-8.249080 Z-0.125000 I-1.060897 J2.782295
G01 X317.415700 Y-8.249080 Z-0.125000
G00 Z5.000000

(End cutting path id: path99)


(Start cutting path id: path99)
(Change tool to Default tool)

G00 Z5.000000
G00 X319.287420 Y-4.223160

G01 Z-0.125000 F100.0(Penetrate)
G03 X318.845186 Y-3.780912 Z-0.125000 I-1.157750 J-0.715479 F400.000000
G03 X318.339370 Y-3.637220 Z-0.125000 I-0.505816 J-0.818426
G03 X318.077184 Y-3.817730 Z-0.125000 I0.000000 J-0.280665
G03 X318.115540 Y-4.223160 Z-0.125000 I0.429139 J-0.163930
G03 X318.557763 Y-4.665394 Z-0.125000 I1.157754 J0.715504
G03 X319.063590 Y-4.809090 Z-0.125000 I0.505827 J0.818434
G03 X319.325775 Y-4.628584 Z-0.125000 I0.000000 J0.280665
G03 X319.287420 Y-4.223160 Z-0.125000 I-0.429116 J0.163930
G01 X319.287420 Y-4.223160 Z-0.125000
G00 Z5.000000

(End cutting path id: path99)


(Start cutting path id: path99)
(Change tool to Default tool)

G00 Z5.000000
G00 X327.464290 Y-4.357980

G01 Z-0.125000 F100.0(Penetrate)
G03 X327.503397 Y-0.982515 Z-0.125000 I-20.632673 J1.927002 F400.000000
G03 X327.208470 Y-0.707530 Z-0.125000 I-0.294927 J-0.020665
G02 X326.863959 Y-0.445559 Z-0.125000 I0.000000 J0.357514
G02 X326.517880 Y1.782700 Z-0.125000 I9.351303 J2.593390
G03 X326.437889 Y3.538890 Z-0.125000 I-111.671413 J-4.206476
G03 X326.402009 Y3.634456 Z-0.125000 I-0.169302 J-0.009046
G01 X326.362377 Y3.623945 Z-0.125000
G03 X326.173300 Y2.222160 Z-0.125000 I56.469691 J-8.330445
G03 X325.921298 Y-7.837138 Z-0.125000 I51.769858 J-6.329727
G03 X326.921540 Y-8.210150 Z-0.125000 I0.585322 J0.041963
G03 X327.041328 Y-7.969953 Z-0.125000 I-0.299323 J0.299242
G03 X327.464290 Y-4.357980 Z-0.125000 I-76.980009 J10.845118
G01 X327.464290 Y-4.357980 Z-0.125000
G00 Z5.000000

(End cutting path id: path99)


(Start cutting path id: path99)
(Change tool to Default tool)

G00 Z5.000000
G00 X327.585640 Y-12.865690

G01 Z-0.125000 F100.0(Penetrate)
G03 X327.432292 Y-12.865688 Z-0.125000 I-0.076674 J-0.030937 F400.000000
G03 X327.290090 Y-13.598110 Z-0.125000 I1.815090 J-0.732422
G03 X327.432298 Y-14.330533 Z-0.125000 I1.957221 J0.000000
G03 X327.585640 Y-14.330530 Z-0.125000 I0.076670 J0.030939
G03 X327.727835 Y-13.598110 Z-0.125000 I-1.815189 J0.732420
G03 X327.585640 Y-12.865690 Z-0.125000 I-1.957383 J-0.000000
G01 X327.585640 Y-12.865690 Z-0.125000
G00 Z5.000000

(End cutting path id: path99)


(Start cutting path id: path99)
(Change tool to Default tool)

G00 Z5.000000
G00 X328.171580 Y-20.482880

G01 Z-0.125000 F100.0(Penetrate)
G03 X328.018234 Y-20.482878 Z-0.125000 I-0.076674 J-0.030937 F400.000000
G03 X327.876030 Y-21.215300 Z-0.125000 I1.815074 J-0.732422
G03 X328.018239 Y-21.947732 Z-0.125000 I1.957264 J0.000000
G03 X328.171580 Y-21.947730 Z-0.125000 I0.076670 J0.030939
G03 X328.313772 Y-21.215305 Z-0.125000 I-1.815246 J0.732425
G03 X328.171580 Y-20.482880 Z-0.125000 I-1.957438 J-0.000000
G01 X328.171580 Y-20.482880 Z-0.125000
G00 Z5.000000

(End cutting path id: path99)


(Start cutting path id: path99)
(Change tool to Default tool)

G00 Z5.000000
G00 X340.476260 Y-17.553240

G01 Z-0.125000 F100.0(Penetrate)
G03 X340.322916 Y-17.553239 Z-0.125000 I-0.076672 J-0.030936 F400.000000
G03 X340.180720 Y-18.285660 Z-0.125000 I1.815170 J-0.732421
G03 X340.322922 Y-19.018081 Z-0.125000 I1.957295 J0.000000
G03 X340.476260 Y-19.018080 Z-0.125000 I0.076669 J0.030937
G03 X340.618455 Y-18.285660 Z-0.125000 I-1.815189 J0.732420
G03 X340.476260 Y-17.553240 Z-0.125000 I-1.957383 J0.000000
G01 X340.476260 Y-17.553240 Z-0.125000
G00 Z5.000000

(End cutting path id: path99)


(Start cutting path id: path99)
(Change tool to Default tool)

G00 Z5.000000
G00 X340.494250 Y-5.552660

G01 Z-0.125000 F100.0(Penetrate)
G03 X340.349313 Y-5.543261 Z-0.125000 I-0.074025 J-0.019294 F400.000000
G03 X340.202400 Y-6.273930 Z-0.125000 I1.867355 J-0.755566
G03 X340.327641 Y-7.301066 Z-0.125000 I3.888601 J-0.047059
G03 X340.472510 Y-7.310470 Z-0.125000 I0.073991 J0.019269
G03 X340.619437 Y-6.579793 Z-0.125000 I-1.866664 J0.755465
G03 X340.494210 Y-5.552660 Z-0.125000 I-3.882916 J0.047801
G01 X340.494250 Y-5.552660 Z-0.125000
G00 Z5.000000

(End cutting path id: path99)


(Start cutting path id: path99)
(Change tool to Default tool)

G00 Z5.000000
G00 X340.476260 Y2.954520

G01 Z-0.125000 F100.0(Penetrate)
G03 X340.322917 Y2.954521 Z-0.125000 I-0.076671 J-0.030937 F400.000000
G03 X340.180720 Y2.222100 Z-0.125000 I1.815154 J-0.732421
G03 X340.322923 Y1.489669 Z-0.125000 I1.957337 J0.000000
G03 X340.476260 Y1.489670 Z-0.125000 I0.076668 J0.030937
G03 X340.618452 Y2.222095 Z-0.125000 I-1.815246 J0.732425
G03 X340.476260 Y2.954520 Z-0.125000 I-1.957438 J-0.000000
G01 X340.476260 Y2.954520 Z-0.125000
G00 Z5.000000

(End cutting path id: path99)


(Start cutting path id: path99)
(Change tool to Default tool)

G00 Z5.000000
G00 X344.009880 Y9.681700

G01 Z-0.125000 F100.0(Penetrate)
G03 X343.864936 Y9.691099 Z-0.125000 I-0.074028 J-0.019296 F400.000000
G03 X343.718020 Y8.960430 Z-0.125000 I1.867304 J-0.755565
G03 X343.843264 Y7.933296 Z-0.125000 I3.888510 J-0.047058
G03 X343.988140 Y7.923890 Z-0.125000 I0.073995 J0.019271
G03 X344.135064 Y8.654558 Z-0.125000 I-1.866542 J0.755434
G03 X344.009840 Y9.681700 Z-0.125000 I-3.883330 J0.047767
G01 X344.009880 Y9.681700 Z-0.125000
G00 Z5.000000

(End cutting path id: path99)


(Start cutting path id: path99)
(Change tool to Default tool)

G00 Z5.000000
G00 X342.838000 Y10.853590

G01 Z-0.125000 F100.0(Penetrate)
G03 X342.693063 Y10.862989 Z-0.125000 I-0.074025 J-0.019294 F400.000000
G03 X342.546150 Y10.132320 Z-0.125000 I1.867355 J-0.755566
G03 X342.671391 Y9.105184 Z-0.125000 I3.888601 J-0.047059
G03 X342.816260 Y9.095780 Z-0.125000 I0.073991 J0.019269
G03 X342.963187 Y9.826457 Z-0.125000 I-1.866664 J0.755465
G03 X342.837960 Y10.853590 Z-0.125000 I-3.882916 J0.047801
G01 X342.838000 Y10.853590 Z-0.125000
G00 Z5.000000

(End cutting path id: path99)


(Start cutting path id: path99)
(Change tool to Default tool)

G00 Z5.000000
G00 X341.660330 Y14.636720

G01 Z-0.125000 F100.0(Penetrate)
G03 X341.477973 Y14.674143 Z-0.125000 I-0.103519 J-0.041421 F400.000000
G03 X341.306300 Y14.282710 Z-0.125000 I0.415601 J-0.415635
G03 X341.431776 Y13.551098 Z-0.125000 I1.773705 J-0.072364
G03 X341.614100 Y13.513670 Z-0.125000 I0.103502 J0.041398
G03 X341.785753 Y13.905096 Z-0.125000 I-0.415609 J0.415609
G03 X341.660400 Y14.636720 Z-0.125000 I-1.771886 J0.072964
G01 X341.660330 Y14.636720 Z-0.125000
G00 Z5.000000

(End cutting path id: path99)


(Start cutting path id: path99)
(Change tool to Default tool)

G00 Z5.000000
G00 X340.158510 Y22.729980

G01 Z-0.125000 F100.0(Penetrate)
G02 X341.002518 Y27.254242 Z-0.125000 I13.476659 J-0.173235 F400.000000
G02 X341.792630 Y27.124510 Z-0.125000 I0.382361 J-0.142182
G02 X341.680120 Y25.976225 Z-0.125000 I-4.498467 J-0.138891
G02 X340.983980 Y23.608880 Z-0.125000 I-20.120153 J4.630495
G02 X340.388370 Y22.637241 Z-0.125000 I-2.644391 J0.952626
G02 X340.158510 Y22.729980 Z-0.125000 I-0.096914 J0.091024
G01 X340.158510 Y22.729980 Z-0.125000
G00 Z5.000000

(End cutting path id: path99)


(Start cutting path id: path99)
(Change tool to Default tool)

G00 Z5.000000
G00 X344.240330 Y24.165520

G01 Z-0.125000 F100.0(Penetrate)
G02 X344.540637 Y24.133689 Z-0.125000 I0.137793 J-0.132529 F400.000000
G02 X344.784660 Y23.286620 Z-0.125000 I-1.383447 J-0.857226
G03 X345.015859 Y22.626095 Z-0.125000 I1.077238 J0.006333
G03 X345.293840 Y22.640380 Z-0.125000 I0.133932 J0.105567
G03 X345.490485 Y23.408361 Z-0.125000 I-1.083281 J0.686546
G03 X345.208529 Y25.699890 Z-0.125000 I-19.574932 J-1.245447
G03 X344.674112 Y27.702643 Z-0.125000 I-12.844703 J-2.354816
G03 X344.352420 Y27.775460 Z-0.125000 I-0.183816 J-0.065067
G03 X342.624832 Y24.609841 Z-0.125000 I4.521587 J-4.521799
G03 X341.922010 Y16.577630 Z-0.125000 I31.245722 J-6.780867
G03 X342.065837 Y16.558572 Z-0.125000 I0.073557 J0.002876
G03 X342.836420 Y19.507320 Z-0.125000 I-30.995212 J9.674897
G02 X343.865019 Y23.524020 Z-0.125000 I48.289989 J-10.226083
G02 X344.240330 Y24.165520 Z-0.125000 I1.517639 J-0.457359
G01 X344.240330 Y24.165520 Z-0.125000
G00 Z5.000000

(End cutting path id: path99)


(Start cutting path id: path99)
(Change tool to Default tool)

G00 Z5.000000
G00 X347.478980 Y29.505620

G01 Z-0.125000 F100.0(Penetrate)
G02 X347.463098 Y30.140007 Z-0.125000 I0.884914 J0.339547 F400.000000
G02 X347.795740 Y30.474550 Z-0.125000 I0.498717 J-0.163235
G03 X348.134834 Y30.844523 Z-0.125000 I-0.163388 J0.490134
G03 X348.190070 Y32.123740 Z-0.125000 I-3.270142 J0.782004
G03 X347.846438 Y32.227954 Z-0.125000 I-0.196529 J-0.029380
G03 X347.008880 Y30.823080 Z-0.125000 I3.051783 J-2.771517
G03 X346.589101 Y28.637781 Z-0.125000 I7.111800 J-2.499090
G03 X346.908280 Y28.408460 Z-0.125000 I0.234937 J-0.009788
G03 X347.443911 Y28.886614 Z-0.125000 I-0.362874 J0.945580
G03 X347.478980 Y29.505620 Z-0.125000 I-0.669788 J0.348442
G01 X347.478980 Y29.505620 Z-0.125000
G00 Z5.000000

(End cutting path id: path99)


(Start cutting path id: path99)
(Change tool to Default tool)

G00 Z5.000000
G00 X354.980680 Y32.481410

G01 Z-0.125000 F100.0(Penetrate)
G03 X354.780973 Y32.868299 Z-0.125000 I-0.272219 J0.104472 F400.000000
G03 X354.270050 Y32.663870 Z-0.125000 I-0.115839 J-0.451168
G03 X353.913829 Y31.717699 Z-0.125000 I2.177316 J-1.359872
G03 X354.083020 Y31.518640 Z-0.125000 I0.169191 J-0.027627
G03 X354.489743 Y31.695509 Z-0.125000 I0.000000 J0.556080
G03 X354.980680 Y32.481410 Z-0.125000 I-1.775537 J1.655432
G01 X354.980680 Y32.481410 Z-0.125000
G00 Z5.000000

(End cutting path id: path99)


(Start cutting path id: path99)
(Change tool to Default tool)

G00 Z5.000000
G00 X357.080380 Y32.690920

G01 Z-0.125000 F100.0(Penetrate)
G03 X356.978424 Y33.174861 Z-0.125000 I-1.199502 J0.000000 F400.000000
G03 X356.821990 Y33.276850 Z-0.125000 I-0.156434 J-0.068976
G03 X356.610501 Y33.192782 Z-0.125000 I-0.000000 J-0.308056
G03 X356.201480 Y32.690920 Z-0.125000 I1.710864 J-1.811973
G03 X356.173829 Y32.291468 Z-0.125000 I0.365696 J-0.225997
G03 X356.459880 Y32.104980 Z-0.125000 I0.286051 J0.126140
G03 X356.903863 Y32.281472 Z-0.125000 I0.000000 J0.646690
G03 X357.080380 Y32.690920 Z-0.125000 I-0.386621 J0.409448
G01 X357.080380 Y32.690920 Z-0.125000
G00 Z5.000000

(End cutting path id: path99)


(Start cutting path id: path99)
(Change tool to Default tool)

G00 Z5.000000
G00 X354.150700 Y34.448730

G01 Z-0.125000 F100.0(Penetrate)
G03 X354.576125 Y35.499745 Z-0.125000 I-4.690065 J2.510032 F400.000000
G03 X354.484920 Y35.620600 Z-0.125000 I-0.091205 J0.026013
G03 X354.258022 Y35.510277 Z-0.125000 I0.000000 J-0.288488
G03 X353.564760 Y34.448730 Z-0.125000 I5.729376 J-4.498818
G03 X353.139334 Y33.397706 Z-0.125000 I4.690015 J-2.510005
G03 X353.230540 Y33.276850 Z-0.125000 I0.091206 J-0.026013
G03 X353.457427 Y33.387168 Z-0.125000 I0.000000 J0.288475
G03 X354.150700 Y34.448730 Z-0.125000 I-5.729428 J4.498867
G01 X354.150700 Y34.448730 Z-0.125000
G00 Z5.000000

(End cutting path id: path99)


(Start cutting path id: path99)
(Change tool to Default tool)

G00 Z5.000000
G00 X354.243630 Y39.590800

G01 Z-0.125000 F100.0(Penetrate)
G03 X354.907031 Y41.813244 Z-0.125000 I-8.238593 J3.669460 F400.000000
G03 X354.908780 Y43.682610 Z-0.125000 I-5.783431 J0.940095
G02 X354.902070 Y45.509915 Z-0.125000 I5.821512 J0.935042
G02 X355.338160 Y46.479230 Z-0.125000 I1.963450 J-0.300591
G03 X355.382408 Y46.869915 Z-0.125000 I-0.276074 J0.229116
G03 X355.082690 Y46.985690 Z-0.125000 I-0.213894 J-0.107888
G02 X354.599926 Y47.184847 Z-0.125000 I-0.136126 J0.354724
G02 X354.497050 Y48.290630 Z-0.125000 I1.567593 J0.703517
G02 X355.011383 Y49.936433 Z-0.125000 I12.599728 J-3.034297
G02 X355.991650 Y52.149990 Z-0.125000 I23.812393 J-9.221411
G03 X356.528738 Y53.921847 Z-0.125000 I-4.892909 J2.450477
G03 X356.228260 Y54.043140 Z-0.125000 I-0.166329 J0.020787
G02 X355.863053 Y54.172703 Z-0.125000 I-0.162415 J0.121687
G02 X356.554270 Y62.438340 Z-0.125000 I92.914311 J-3.608274
G03 X357.046144 Y67.798623 Z-0.125000 I-73.093660 J9.409977
G03 X356.873960 Y68.248890 Z-0.125000 I-0.589925 J0.032466
G03 X356.670989 Y68.189799 Z-0.125000 I-0.085267 J-0.085254
G03 X356.448220 Y66.333500 Z-0.125000 I9.205601 J-2.046256
G02 X356.255160 Y64.849257 Z-0.125000 I-6.853971 J0.136839
G02 X356.084290 Y64.837290 Z-0.125000 I-0.087343 J0.021257
G03 X355.719231 Y65.095754 Z-0.125000 I-0.381427 J-0.151695
G03 X355.292510 Y64.868890 Z-0.125000 I-0.019108 J-0.478813
G03 X355.098342 Y64.093057 Z-0.125000 I1.121017 J-0.692771
G03 X355.410930 Y62.994600 Z-0.125000 I2.681428 J0.169349
G02 X355.787490 Y61.919416 Z-0.125000 I-3.262820 J-1.746265
G02 X355.675600 Y61.559600 Z-0.125000 I-0.398308 J-0.073446
G02 X355.417566 Y61.571794 Z-0.125000 I-0.123471 J0.123450
G02 X354.786380 Y62.635180 Z-0.125000 I3.082811 J2.548860
G03 X354.383197 Y63.024182 Z-0.125000 I-0.633938 J-0.253607
G03 X354.141560 Y62.866730 Z-0.125000 I-0.061152 J-0.170295
G02 X353.948360 Y62.390914 Z-0.125000 I-0.826926 J0.058633
G02 X353.765030 Y62.420170 Z-0.125000 I-0.082850 J0.069871
G02 X353.713451 Y63.135982 Z-0.125000 I1.083106 J0.437809
G02 X354.397200 Y65.000430 Z-0.125000 I8.688391 J-2.128693
G03 X355.212222 Y66.775889 Z-0.125000 I-26.991758 J13.465330
G03 X355.279641 Y67.098594 Z-0.125000 I-0.796278 J0.334753
G03 X355.180031 Y67.144856 Z-0.125000 I-0.060158 J0.000839
G03 X354.416000 Y66.347860 Z-0.125000 I3.968313 J-4.568888
G02 X354.019314 Y66.368668 Z-0.125000 I-0.190907 J0.152163
G02 X353.832930 Y67.261260 Z-0.125000 I1.084360 J0.692184
G03 X353.739766 Y67.861806 Z-0.125000 I-0.982870 J0.155025
G03 X353.535340 Y67.855550 Z-0.125000 I-0.100765 J-0.050458
G03 X353.125586 Y66.383484 Z-0.125000 I5.358008 J-2.284479
G03 X353.184650 Y65.365320 Z-0.125000 I2.568558 J-0.361792
G02 X353.208886 Y64.521401 Z-0.125000 I-1.814428 J-0.474414
G02 X352.977110 Y64.331570 Z-0.125000 I-0.231776 J0.046579
G03 X352.612006 Y64.050727 Z-0.125000 I0.000000 J-0.377744
G03 X351.799894 Y60.324369 Z-0.125000 I41.115121 J-10.912196
G03 X351.297315 Y56.568395 Z-0.125000 I50.867170 J-8.718038
G03 X351.370360 Y54.956570 Z-0.125000 I5.690569 J-0.549681
G03 X351.550094 Y54.947475 Z-0.125000 I0.090968 J0.017196
G03 X351.804240 Y56.421420 Z-0.125000 I-6.131764 J1.816155
G02 X351.936004 Y58.495179 Z-0.125000 I104.328295 J-5.587799
G02 X351.998379 Y58.676256 Z-0.125000 I0.373821 J-0.027487
G01 X352.073709 Y58.663418 Z-0.125000
G02 X352.392820 Y57.300320 Z-0.125000 I-30.124240 J-7.771204
G01 X352.824480 Y55.249540 Z-0.125000
G01 X352.960010 Y57.300320 Z-0.125000
G02 X353.265940 Y57.961144 Z-0.125000 I1.011048 J-0.066839
G02 X353.564690 Y57.886260 Z-0.125000 I0.126133 J-0.130166
G03 X353.874855 Y57.754296 Z-0.125000 I0.212051 J0.067915
G03 X354.161530 Y58.179230 Z-0.125000 I-0.226900 J0.462242
G01 X354.289260 Y59.937040 Z-0.125000
G01 X354.736570 Y58.179230 Z-0.125000
G02 X355.019582 Y54.904004 Z-0.125000 I-9.817785 J-2.498193
G02 X354.443600 Y54.370630 Z-0.125000 I-0.575982 J0.044309
G03 X353.938105 Y53.997229 Z-0.125000 I0.000000 J-0.528859
G03 X353.564690 Y51.512690 Z-0.125000 I8.078802 J-2.484539
G02 X353.238216 Y48.808076 Z-0.125000 I-11.366173 J-0.000000
G02 X352.685790 Y47.925320 Z-0.125000 I-1.612972 J0.395162
G02 X351.977901 Y47.568525 Z-0.125000 I-1.130354 J1.362015
G02 X351.797920 Y47.707100 Z-0.125000 I-0.034685 J0.141118
G03 X351.666485 Y47.783333 Z-0.125000 I-0.088926 J-0.001898
G03 X351.290080 Y47.431230 Z-0.125000 I0.490572 J-0.901675
G03 X350.927535 Y46.079378 Z-0.125000 I1.981796 J-1.256026
G03 X351.344421 Y41.876261 Z-0.125000 I36.395805 J1.487687
G03 X352.262271 Y37.834225 Z-0.125000 I30.842682 J4.878403
G03 X352.877740 Y37.393560 Z-0.125000 I0.591796 J0.176411
G03 X353.167819 Y37.561898 Z-0.125000 I-0.013173 J0.356801
G03 X354.243560 Y39.590830 Z-0.125000 I-14.239612 J8.849495
G01 X354.243630 Y39.590800 Z-0.125000
G00 Z5.000000

(End cutting path id: path99)


(Start cutting path id: path99)
(Change tool to Default tool)

G00 Z5.000000
G00 X353.610990 Y42.993620

G01 Z-0.125000 F100.0(Penetrate)
G02 X353.782653 Y43.385053 Z-0.125000 I0.587236 J-0.024175 F400.000000
G02 X353.965010 Y43.347630 Z-0.125000 I0.078838 J-0.078845
G02 X354.090421 Y42.616028 Z-0.125000 I-1.645772 J-0.658667
G02 X353.918710 Y42.224580 Z-0.125000 I-0.587167 J0.024179
G02 X353.736346 Y42.261992 Z-0.125000 I-0.078844 J0.078844
G02 X353.610920 Y42.993620 Z-0.125000 I1.645768 J0.658707
G01 X353.610990 Y42.993620 Z-0.125000
G00 Z5.000000

(End cutting path id: path99)


(Start cutting path id: path99)
(Change tool to Default tool)

G00 Z5.000000
G00 X352.507080 Y42.944820

G01 Z-0.125000 F100.0(Penetrate)
G02 X352.653960 Y43.675504 Z-0.125000 I2.012037 J-0.024349 F400.000000
G02 X352.798940 Y43.666090 Z-0.125000 I0.070931 J-0.028714
G02 X352.924129 Y42.638953 Z-0.125000 I-3.759051 J-0.979358
G02 X352.777240 Y41.908280 Z-0.125000 I-2.013974 J0.024773
G02 X352.632335 Y41.917677 Z-0.125000 I-0.070897 J0.028682
G02 X352.507120 Y42.944820 Z-0.125000 I3.758457 J0.979382
G01 X352.507080 Y42.944820 Z-0.125000
G00 Z5.000000

(End cutting path id: path99)


(Start cutting path id: path99)
(Change tool to Default tool)

G00 Z5.000000
G00 X348.877260 Y38.291900

G01 Z-0.125000 F100.0(Penetrate)
G03 X348.675990 Y38.934955 Z-0.125000 I-1.127911 J-0.000000 F400.000000
G03 X348.291320 Y39.136230 Z-0.125000 I-0.384670 J-0.266947
G03 X347.930973 Y38.910643 Z-0.125000 I0.000000 J-0.400598
G03 X347.705380 Y37.929770 Z-0.125000 I2.019608 J-0.980873
G03 X347.947228 Y37.157087 Z-0.125000 I1.355253 J-0.000000
G03 X348.291320 Y37.085450 Z-0.125000 I0.209818 J0.145610
G03 X348.705144 Y37.543539 Z-0.125000 I-0.582015 J0.941739
G03 X348.877260 Y38.291900 Z-0.125000 I-1.540883 J0.748361
G01 X348.877260 Y38.291900 Z-0.125000
G00 Z5.000000

(End cutting path id: path99)


(Start cutting path id: path99)
(Change tool to Default tool)

G00 Z5.000000
G00 X351.041130 Y50.697310

G01 Z-0.125000 F100.0(Penetrate)
G03 X350.896186 Y50.706709 Z-0.125000 I-0.074028 J-0.019296 F400.000000
G03 X350.749270 Y49.976040 Z-0.125000 I1.867304 J-0.755565
G03 X350.874514 Y48.948906 Z-0.125000 I3.888510 J-0.047058
G03 X351.019390 Y48.939500 Z-0.125000 I0.073995 J0.019271
G03 X351.166313 Y49.670178 Z-0.125000 I-1.866616 J0.755445
G03 X351.041090 Y50.697310 Z-0.125000 I-3.883291 J0.047767
G01 X351.041130 Y50.697310 Z-0.125000
G00 Z5.000000

(End cutting path id: path99)


(Start cutting path id: path99)
(Change tool to Default tool)

G00 Z5.000000
G00 X360.890330 Y55.097890

G01 Z-0.125000 F100.0(Penetrate)
G03 X360.989487 Y55.134742 Z-0.125000 I0.040011 J0.044169 F400.000000
G03 X360.930730 Y55.424400 Z-0.125000 I-0.461745 J0.057124
G03 X360.412650 Y55.744316 Z-0.125000 I-0.555896 J-0.320777
G03 X359.664930 Y55.499100 Z-0.125000 I-0.063155 J-1.070016
G03 X358.929604 Y54.770019 Z-0.125000 I3.742524 J-4.509931
G03 X358.838170 Y54.520000 Z-0.125000 I0.296110 J-0.250019
G03 X358.943864 Y54.452105 Z-0.125000 I0.074654 J0.000000
G03 X359.624500 Y54.879630 Z-0.125000 I-1.269236 J2.776234
G02 X360.404496 Y55.238980 Z-0.125000 I1.062689 J-1.280450
G02 X360.890300 Y55.097860 Z-0.125000 I0.098100 J-0.569040
G01 X360.890330 Y55.097890 Z-0.125000
G00 Z5.000000

(End cutting path id: path99)


(Start cutting path id: path99)
(Change tool to Default tool)

G00 Z5.000000
G00 X360.010070 Y61.188140

G01 Z-0.125000 F100.0(Penetrate)
G02 X360.182925 Y61.822246 Z-0.125000 I1.249516 J0.000000 F400.000000
G02 X360.686540 Y62.336710 Z-0.125000 I1.291758 J-0.760790
G02 X360.917990 Y62.309765 Z-0.125000 I0.098701 J-0.159702
G02 X360.944940 Y62.078320 Z-0.125000 I-0.132740 J-0.132748
G03 X360.722227 Y61.510787 Z-0.125000 I1.451729 J-0.897156
G03 X360.811810 Y61.401850 Z-0.125000 I0.089583 J-0.017635
G03 X362.875730 Y62.390804 Z-0.125000 I-0.000000 J2.648149
G03 X368.758760 Y71.287370 Z-0.125000 I-44.823751 J36.034009
G02 X369.541244 Y72.205664 Z-0.125000 I2.500840 J-1.338456
G02 X369.993690 Y72.227670 Z-0.125000 I0.242231 J-0.318127
G03 X370.201360 Y72.300908 Z-0.125000 I0.074333 J0.120275
G03 X370.194600 Y72.797200 Z-0.125000 I-0.677406 J0.238965
G02 X370.260733 Y73.421238 Z-0.125000 I0.644270 J0.247246
G02 X370.787220 Y73.706540 Z-0.125000 I0.526487 J-0.343129
G03 X371.495443 Y73.945870 Z-0.125000 I-0.000000 J1.167549
G03 X371.747220 Y74.438960 Z-0.125000 I-0.388521 J0.509208
G02 X371.985552 Y75.053881 Z-0.125000 I0.974886 J-0.024201
G02 X373.358550 Y76.296210 Z-0.125000 I5.810900 J-5.042223
G01 X374.951480 Y77.421030 Z-0.125000
G01 X373.532510 Y75.710270 Z-0.125000
G03 X373.603179 Y75.637499 Z-0.125000 I0.039266 J-0.032567
G03 X374.819990 Y76.715930 Z-0.125000 I-8.067896 J10.328834
G02 X377.526713 Y79.127460 Z-0.125000 I21.615533 J-21.536683
G02 X377.850290 Y79.108510 Z-0.125000 I0.151134 J-0.191412
G03 X378.029413 Y79.134068 Z-0.125000 I0.079973 J0.079978
G03 X378.174140 Y79.698540 Z-0.125000 I-1.028427 J0.564472
G02 X378.759115 Y80.634976 Z-0.125000 I1.042017 J0.000000
G02 X380.930150 Y81.043660 Z-0.125000 I1.829681 J-3.748843
G03 X381.890441 Y81.140286 Z-0.125000 I0.217913 J2.654426
G03 X381.969370 Y81.345340 Z-0.125000 I-0.038464 J0.132523
G02 X381.969404 Y81.717313 Z-0.125000 I0.300927 J0.185959
G02 X382.861640 Y82.788570 Z-0.125000 I4.225733 J-2.612363
G03 X383.666711 Y83.872184 Z-0.125000 I-2.322431 J2.566320
G03 X383.636190 Y84.422260 Z-0.125000 I-0.520958 J0.246979
G02 X383.687104 Y84.599827 Z-0.125000 I0.106203 J0.065631
G02 X383.968650 Y84.586470 Z-0.125000 I0.128726 J-0.260611
G03 X385.555538 Y84.830247 Z-0.125000 I0.650481 J1.052522
G03 X385.758390 Y86.658690 Z-0.125000 I-1.229497 J1.061878
G02 X385.421602 Y87.614827 Z-0.125000 I2.937440 J1.572064
G02 X385.549510 Y87.769040 Z-0.125000 I0.127908 J0.024061
G03 X385.643422 Y87.905882 Z-0.125000 I0.000000 J0.100646
G03 X385.215580 Y88.635640 Z-0.125000 I-2.440967 J-0.940792
G03 X384.410165 Y89.063935 Z-0.125000 I-0.924630 J-0.767336
G03 X383.239560 Y88.832670 Z-0.125000 I-0.203982 J-2.045778
G02 X382.871456 Y88.896984 Z-0.125000 I-0.142827 J0.268110
G02 X382.861630 Y89.250430 Z-0.125000 I0.201700 J0.182467
G03 X383.141126 Y89.816357 Z-0.125000 I-1.119317 J0.904782
G03 X383.020250 Y89.905200 Z-0.125000 I-0.079019 J0.019142
G02 X380.704079 Y89.862147 Z-0.125000 I-1.195492 J1.990867
G02 X380.299040 Y91.404590 Z-0.125000 I0.531083 J0.963863
G03 X380.308246 Y91.660960 Z-0.125000 I-0.220483 J0.136267
G03 X380.141010 Y91.706830 Z-0.125000 I-0.104963 J-0.054884
G02 X379.584197 Y91.589002 Z-0.125000 I-0.442348 J0.715812
G02 X378.732120 Y91.900290 Z-0.125000 I0.290788 J2.117784
G02 X378.545804 Y92.259230 Z-0.125000 I0.214572 J0.339204
G02 X378.760220 Y92.471020 Z-0.125000 I0.222632 J-0.010960
G03 X378.861176 Y92.685926 Z-0.125000 I-0.004939 J0.133486
G03 X378.087090 Y93.346550 Z-0.125000 I-1.945555 J-1.495874
G03 X376.459249 Y93.931232 Z-0.125000 I-2.712133 J-4.992560
G03 X372.055860 Y94.519110 Z-0.125000 I-7.152897 J-36.792129
G02 X367.610407 Y95.000600 Z-0.125000 I4.759415 J64.704778
G02 X366.257370 Y95.350190 Z-0.125000 I0.899063 J6.272853
G03 X365.288958 Y95.299649 Z-0.125000 I-0.426922 J-1.122878
G03 X364.846600 Y94.637800 Z-0.125000 I0.364909 J-0.722647
G02 X364.662760 Y93.443603 Z-0.125000 I-7.790465 J0.588048
G02 X364.208460 Y91.914780 Z-0.125000 I-13.235337 J3.101061
G03 X360.151483 Y77.601707 Z-0.125000 I98.071437 J-35.529414
G03 X357.470060 Y59.478340 Z-0.125000 I154.881667 J-32.175398
G01 X357.220160 Y56.675920 Z-0.125000
G01 X358.615160 Y58.566790 Z-0.125000
G03 X359.841769 Y60.513063 Z-0.125000 I-12.641494 J9.326775
G03 X360.010220 Y61.188140 Z-0.125000 I-1.268482 J0.675077
G01 X360.010070 Y61.188140 Z-0.125000
G00 Z5.000000

(End cutting path id: path99)


(Start cutting path id: path99)
(Change tool to Default tool)

G00 Z5.000000
G00 X364.113800 Y66.849750

G01 Z-0.125000 F100.0(Penetrate)
G02 X365.567961 Y70.437511 Z-0.125000 I5.153009 J0.000000 F400.000000
G02 X367.572590 Y70.409480 Z-0.125000 I0.989095 J-0.959390
G02 X367.596079 Y70.110248 Z-0.125000 I-0.179490 J-0.164628
G02 X367.139760 Y69.752890 Z-0.125000 I-0.765780 J0.507821
G03 X366.488369 Y69.316485 Z-0.125000 I0.534052 J-1.501486
G03 X365.237630 Y67.635830 Z-0.125000 I8.463908 J-7.604543
G02 X364.372979 Y66.715100 Z-0.125000 I-2.630761 J1.604171
G02 X364.113800 Y66.849750 Z-0.125000 I-0.094430 J0.135001
G01 X364.113800 Y66.849750 Z-0.125000
G00 Z5.000000

(End cutting path id: path99)


(Start cutting path id: path99)
(Change tool to Default tool)

G00 Z5.000000
G00 X368.873900 Y65.356760

G01 Z-0.125000 F100.0(Penetrate)
G03 X368.861325 Y65.565421 Z-0.125000 I-0.123993 J0.097237 F400.000000
G03 X368.652650 Y65.577990 Z-0.125000 I-0.111428 J-0.111434
G03 X367.703522 Y64.736710 Z-0.125000 I6.509564 J-8.300098
G03 X367.627260 Y64.552600 Z-0.125000 I0.184106 J-0.184110
G03 X367.855542 Y64.428200 Z-0.125000 I0.148036 J0.000000
G03 X368.873900 Y65.356760 Z-0.125000 I-2.255015 J3.495790
G01 X368.873900 Y65.356760 Z-0.125000
G00 Z5.000000

(End cutting path id: path99)


(Start cutting path id: path99)
(Change tool to Default tool)

G00 Z5.000000
G00 X371.217650 Y70.044420

G01 Z-0.125000 F100.0(Penetrate)
G03 X371.205075 Y70.253081 Z-0.125000 I-0.123993 J0.097237 F400.000000
G03 X370.996400 Y70.265650 Z-0.125000 I-0.111428 J-0.111434
G03 X370.047272 Y69.424370 Z-0.125000 I6.509564 J-8.300098
G03 X369.971010 Y69.240260 Z-0.125000 I0.184106 J-0.184110
G03 X370.199292 Y69.115860 Z-0.125000 I0.148036 J0.000000
G03 X371.217650 Y70.044420 Z-0.125000 I-2.255015 J3.495790
G01 X371.217650 Y70.044420 Z-0.125000
G00 Z5.000000

(End cutting path id: path99)


(Start cutting path id: path99)
(Change tool to Default tool)

G00 Z5.000000
G00 X372.314760 Y69.312000

G01 Z-0.125000 F100.0(Penetrate)
G03 X373.450387 Y70.672789 Z-0.125000 I-11.004149 J10.337611 F400.000000
G03 X373.397920 Y70.776840 Z-0.125000 I-0.052467 J0.038797
G03 X373.145995 Y70.681971 Z-0.125000 I0.000000 J-0.381927
G03 X371.728820 Y69.312000 Z-0.125000 I13.504602 J-15.387914
G03 X370.593196 Y67.951204 Z-0.125000 I11.005934 J-10.339024
G03 X370.645660 Y67.847160 Z-0.125000 I0.052464 J-0.038795
G03 X370.897584 Y67.942028 Z-0.125000 I0.000000 J0.381928
G03 X372.314760 Y69.312000 Z-0.125000 I-13.502821 J15.386069
G01 X372.314760 Y69.312000 Z-0.125000
G00 Z5.000000

(End cutting path id: path99)


(Start cutting path id: path99)
(Change tool to Default tool)

G00 Z5.000000
G00 X374.147340 Y72.974120

G01 Z-0.125000 F100.0(Penetrate)
G03 X374.134762 Y73.182775 Z-0.125000 I-0.123988 J0.097232 F400.000000
G03 X373.926090 Y73.195340 Z-0.125000 I-0.111425 J-0.111437
G03 X372.976960 Y72.354061 Z-0.125000 I6.507433 J-8.297716
G03 X372.900700 Y72.169950 Z-0.125000 I0.184114 J-0.184111
G03 X373.128981 Y72.045551 Z-0.125000 I0.148035 J0.000000
G03 X374.147340 Y72.974120 Z-0.125000 I-2.255031 J3.495786
G01 X374.147340 Y72.974120 Z-0.125000
G00 Z5.000000

(End cutting path id: path99)


(Start cutting path id: path99)
(Change tool to Default tool)

G00 Z5.000000
G00 X369.228800 Y74.951120

G01 Z-0.125000 F100.0(Penetrate)
G02 X369.951983 Y75.421267 Z-0.125000 I1.450360 J-1.439676 F400.000000
G02 X370.279510 Y75.351190 Z-0.125000 I0.109646 J-0.287970
G02 X370.279972 Y75.093274 Z-0.125000 I-0.129226 J-0.129190
G02 X369.556810 Y74.623120 Z-0.125000 I-1.450342 J1.439589
G02 X369.229286 Y74.693199 Z-0.125000 I-0.109647 J0.287955
G02 X369.228800 Y74.951120 Z-0.125000 I0.129205 J0.129205
G01 X369.228800 Y74.951120 Z-0.125000
G00 Z5.000000

(End cutting path id: path99)


(Start cutting path id: path99)
(Change tool to Default tool)

G00 Z5.000000
G00 X373.330370 Y78.466750

G01 Z-0.125000 F100.0(Penetrate)
G02 X374.053545 Y78.936894 Z-0.125000 I1.450426 J-1.439778 F400.000000
G02 X374.381070 Y78.866820 Z-0.125000 I0.109649 J-0.287962
G02 X374.381528 Y78.608896 Z-0.125000 I-0.129235 J-0.129192
G02 X373.658370 Y78.138740 Z-0.125000 I-1.450398 J1.439659
G02 X373.330851 Y78.208822 Z-0.125000 I-0.109644 J0.287943
G02 X373.330370 Y78.466750 Z-0.125000 I0.129214 J0.129206
G01 X373.330370 Y78.466750 Z-0.125000
G00 Z5.000000

(End cutting path id: path99)


(Start cutting path id: path99)
(Change tool to Default tool)

G00 Z5.000000
G00 X381.689760 Y86.232450

G01 Z-0.125000 F100.0(Penetrate)
G02 X381.766022 Y86.416562 Z-0.125000 I0.260373 J-0.000000 F400.000000
G02 X382.715150 Y87.257840 Z-0.125000 I7.457545 J-7.457545
G02 X382.923822 Y87.245274 Z-0.125000 I0.097247 J-0.124004
G02 X382.936400 Y87.036620 Z-0.125000 I-0.111410 J-0.111422
G02 X381.918041 Y86.108051 Z-0.125000 I-3.273390 J2.567218
G02 X381.689760 Y86.232450 Z-0.125000 I-0.080246 J0.124399
G01 X381.689760 Y86.232450 Z-0.125000
G00 Z5.000000

(End cutting path id: path99)


(Start cutting path id: path99)
(Change tool to Default tool)

G00 Z5.000000
G00 X391.650700 Y85.353450

G01 Z-0.125000 F100.0(Penetrate)
G03 X390.840511 Y86.580358 Z-0.125000 I-1.334078 J-0.000000 F400.000000
G03 X389.467850 Y86.285520 Z-0.125000 I-0.477699 J-1.118734
G03 X389.320938 Y85.672933 Z-0.125000 I0.475845 J-0.438028
G03 X389.760810 Y85.240370 Z-0.125000 I0.597252 J0.167410
G03 X391.392488 Y85.079326 Z-0.125000 I1.320758 J5.035264
G03 X391.650700 Y85.353450 Z-0.125000 I-0.016402 J0.274124
G01 X391.650700 Y85.353450 Z-0.125000
G00 Z5.000000

(End cutting path id: path99)


(Start cutting path id: path99)
(Change tool to Default tool)

G00 Z5.000000
G00 X398.323530 Y81.013450

G01 Z-0.125000 F100.0(Penetrate)
G03 X398.566193 Y81.941326 Z-0.125000 I-1.258989 J0.824927 F400.000000
G03 X398.244430 Y82.167200 Z-0.125000 I-0.252304 J-0.017297
G02 X398.175026 Y82.259357 Z-0.125000 I-0.016976 J0.059428
G02 X398.478330 Y82.541870 Z-0.125000 I0.676705 J-0.422438
G03 X399.438525 Y83.422574 Z-0.125000 I-1.208311 J2.281153
G03 X399.983670 Y84.872800 Z-0.125000 I-3.066122 J1.980141
G03 X399.998178 Y86.186392 Z-0.125000 I-4.839627 J0.710328
G03 X399.809170 Y86.276950 Z-0.125000 I-0.123555 J-0.015355
G02 X399.160283 Y86.440310 Z-0.125000 I-0.245149 J0.396650
G02 X398.438960 Y88.648280 Z-0.125000 I4.865188 J2.811221
G03 X398.289523 Y89.207263 Z-0.125000 I-1.872020 J-0.200993
G03 X397.333000 Y91.155720 Z-0.125000 I-24.311801 J-10.725974
G02 X396.592656 Y93.068702 Z-0.125000 I7.067682 J3.835018
G02 X396.697730 Y93.736490 Z-0.125000 I0.847965 J0.208736
G03 X396.683694 Y93.974239 Z-0.125000 I-0.176168 J0.108888
G03 X396.480580 Y94.009700 Z-0.125000 I-0.121513 J-0.096578
G02 X395.538466 Y94.217400 Z-0.125000 I-0.364080 J0.589092
G02 X389.538450 Y104.531170 Z-0.125000 I88.420338 J58.340500
G03 X384.778468 Y112.197825 Z-0.125000 I-47.327228 J-24.072979
G03 X383.250110 Y112.964680 Z-0.125000 I-1.528358 J-1.139598
G02 X382.231691 Y113.273256 Z-0.125000 I-0.000000 J1.834875
G02 X379.991130 Y115.139240 Z-0.125000 I7.645987 J11.458997
G02 X378.671200 Y116.686309 Z-0.125000 I11.415525 J11.076117
G02 X378.760070 Y116.784580 Z-0.125000 I0.054049 J0.040441
G03 X378.938695 Y116.864290 Z-0.125000 I0.061511 J0.102156
G03 X378.846070 Y117.233240 Z-0.125000 I-0.442956 J0.084898
G03 X377.956182 Y117.539828 Z-0.125000 I-0.690727 J-0.560105
G03 X375.521340 Y116.469230 Z-0.125000 I1.590448 J-6.921185
G03 X371.058958 Y112.416752 Z-0.125000 I12.725240 J-18.495500
G03 X370.795290 Y110.845080 Z-0.125000 I1.201323 J-1.009490
G02 X370.845469 Y110.213399 Z-0.125000 I-1.044570 J-0.400811
G02 X370.601520 Y109.926370 Z-0.125000 I-0.386813 J0.081574
G03 X370.257866 Y109.622407 Z-0.125000 I0.238928 J-0.616373
G03 X369.717160 Y108.277180 Z-0.125000 I5.817152 J-3.119449
G03 X369.762289 Y107.716774 Z-0.125000 I0.784190 J-0.218871
G03 X369.987920 Y107.691250 Z-0.125000 I0.120562 J0.055714
G02 X370.227755 Y107.737623 Z-0.125000 I0.146270 J-0.113103
G02 X370.319270 Y107.496840 Z-0.125000 I-0.104038 J-0.177324
G03 X370.034329 Y106.413093 Z-0.125000 I9.412916 J-3.054191
G03 X369.962090 Y105.739020 Z-0.125000 I3.550571 J-0.721417
G02 X369.790688 Y105.617912 Z-0.125000 I-0.129889 J0.001985
G02 X369.385110 Y105.933430 Z-0.125000 I0.249112 J0.738648
G03 X368.888520 Y106.551551 Z-0.125000 I-3.237248 J-2.092224
G01 X368.805620 Y106.519370 Z-0.125000
G02 X368.753955 Y106.234173 Z-0.125000 I-1.023354 J0.038107
G02 X367.344120 Y102.124840 Z-0.125000 I-221.705860 J73.766629
G03 X365.943067 Y98.014010 Z-0.125000 I180.842316 J-63.928840
G03 X365.881850 Y97.669910 Z-0.125000 I1.180735 J-0.387554
G03 X366.045986 Y97.477242 Z-0.125000 I0.187232 J-0.006744
G03 X371.366110 Y96.988610 Z-0.125000 I10.292314 J82.853987
G02 X377.924750 Y95.717133 Z-0.125000 I-1.512629 J-25.353962
G02 X382.702180 Y93.189330 Z-0.125000 I-5.283041 J-15.763166
G03 X390.323138 Y88.245847 Z-0.125000 I36.919196 J48.569218
G03 X391.928820 Y88.137700 Z-0.125000 I0.919612 J1.679654
G02 X392.582457 Y88.027215 Z-0.125000 I0.233361 J-0.608142
G02 X393.661910 Y86.674080 Z-0.125000 I-2.865409 J-3.392988
G02 X394.231614 Y84.811185 Z-0.125000 I-4.820402 J-2.492720
G02 X393.903960 Y84.602660 Z-0.125000 I-0.214249 J-0.025035
G03 X393.675608 Y84.572635 Z-0.125000 I-0.095775 J-0.154953
G03 X393.651480 Y84.334720 Z-0.125000 I0.142921 J-0.134675
G03 X394.140236 Y83.923081 Z-0.125000 I0.871236 J0.538476
G03 X394.580420 Y83.960780 Z-0.125000 I0.182813 J0.454125
G02 X395.024353 Y84.014226 Z-0.125000 I0.279666 J-0.452543
G02 X395.453410 Y83.677360 Z-0.125000 I-0.244474 J-0.753052
G02 X395.479327 Y83.272602 Z-0.125000 I-0.366757 J-0.226693
G02 X395.183410 Y83.081870 Z-0.125000 I-0.295917 J0.134189
G03 X395.018323 Y82.843364 Z-0.125000 I0.000000 J-0.176387
G03 X395.844940 Y81.324060 Z-0.125000 I5.867462 J2.207821
G03 X397.166978 Y79.610747 Z-0.125000 I42.311394 J31.281897
G03 X397.259920 Y79.566250 Z-0.125000 I0.092942 J0.074815
G03 X397.350580 Y79.612132 Z-0.125000 I0.000000 J0.112511
G03 X398.323570 Y81.013450 Z-0.125000 I-25.582468 J18.801355
G01 X398.323530 Y81.013450 Z-0.125000
G00 Z5.000000

(End cutting path id: path99)


(Start cutting path id: path99)
(Change tool to Default tool)

G00 Z5.000000
G00 X400.537440 Y79.850190

G01 Z-0.125000 F100.0(Penetrate)
G03 X400.885286 Y79.953249 Z-0.125000 I-0.016131 J0.693005 F400.000000
G03 X401.416340 Y80.392560 Z-0.125000 I-1.312224 J2.126894
G03 X401.391608 Y80.514613 Z-0.125000 I-0.056830 J0.052016
G03 X401.172180 Y80.504460 Z-0.125000 I-0.099866 J-0.217906
G02 X400.706118 Y80.543564 Z-0.125000 I-0.204809 J0.355917
G02 X400.439760 Y81.108450 Z-0.125000 I0.465821 J0.564886
G03 X400.173963 Y81.341911 Z-0.125000 I-0.235428 J-0.000000
G03 X399.579490 Y80.996540 Z-0.125000 I0.114700 J-0.881736
G03 X399.034687 Y79.610670 Z-0.125000 I2.202247 J-1.665751
G03 X399.414370 Y79.376160 Z-0.125000 I0.246737 J-0.025139
G02 X400.168060 Y79.771005 Z-0.125000 I2.745456 J-4.323840
G02 X400.537440 Y79.850190 Z-0.125000 I0.392534 J-0.929951
G01 X400.537440 Y79.850190 Z-0.125000
G00 Z5.000000

(End cutting path id: path99)


(Start cutting path id: path99)
(Change tool to Default tool)

G00 Z5.000000
G00 X399.616520 Y77.891170

G01 Z-0.125000 F100.0(Penetrate)
G03 X399.671978 Y78.257395 Z-0.125000 I-0.253794 J0.225744 F400.000000
G03 X399.414370 Y78.336170 Z-0.125000 I-0.163570 J-0.074304
G03 X398.249890 Y77.440207 Z-0.125000 I3.671440 J-5.976476
G03 X398.096010 Y77.081290 Z-0.125000 I0.341638 J-0.358917
G03 X398.374567 Y76.914053 Z-0.125000 I0.189480 J0.000000
G03 X399.616520 Y77.891170 Z-0.125000 I-2.107246 J3.956233
G01 X399.616520 Y77.891170 Z-0.125000
G00 Z5.000000

(End cutting path id: path99)


(Start cutting path id: path99)
(Change tool to Default tool)

G00 Z5.000000
G00 X397.754120 Y73.915690

G01 Z-0.125000 F100.0(Penetrate)
G03 X396.861468 Y74.781352 Z-0.125000 I-1.379364 J-0.529298 F400.000000
G03 X396.338200 Y74.409720 Z-0.125000 I-0.129665 J-0.371632
G03 X396.999333 Y72.763566 Z-0.125000 I2.379944 J0.000000
G03 X397.924270 Y72.753590 Z-0.125000 I0.467350 J0.447594
G03 X397.999059 Y72.979402 Z-0.125000 I-0.187337 J0.187337
G03 X397.754120 Y73.915690 Z-0.125000 I-4.356077 J-0.639395
G01 X397.754120 Y73.915690 Z-0.125000
G00 Z5.000000

(End cutting path id: path99)


(Start cutting path id: path99)
(Change tool to Default tool)

G00 Z5.000000
G00 X404.968590 Y71.130860

G01 Z-0.125000 F100.0(Penetrate)
G03 X404.577171 Y71.302501 Z-0.125000 I-0.415594 J-0.415615 F400.000000
G03 X403.845520 Y71.177060 Z-0.125000 I-0.072911 J-1.771181
G03 X403.808108 Y70.994718 Z-0.125000 I0.041421 J-0.103508
G03 X404.199550 Y70.823060 Z-0.125000 I0.415627 J0.415636
G03 X404.931171 Y70.948451 Z-0.125000 I0.072870 J1.771920
G03 X404.968590 Y71.130800 Z-0.125000 I-0.041414 J0.103512
G01 X404.968590 Y71.130860 Z-0.125000
G00 Z5.000000

(End cutting path id: path99)


(Start cutting path id: path99)
(Change tool to Default tool)

G00 Z5.000000
G00 X408.056950 Y63.417880

G01 Z-0.125000 F100.0(Penetrate)
G03 X407.492280 Y64.127899 Z-0.125000 I-0.728726 J0.000000 F400.000000
G03 X406.598020 Y63.754990 Z-0.125000 I-0.187140 J-0.809926
G03 X406.632929 Y63.384257 Z-0.125000 I0.262558 J-0.162287
G03 X407.143470 Y63.159500 Z-0.125000 I0.510541 J0.467474
G03 X407.945672 Y63.270763 Z-0.125000 I0.000000 J2.947549
G03 X408.056950 Y63.417880 Z-0.125000 I-0.041610 J0.147117
G01 X408.056950 Y63.417880 Z-0.125000
G00 Z5.000000

(End cutting path id: path99)


(Start cutting path id: path99)
(Change tool to Default tool)

G00 Z5.000000
G00 X414.306970 Y49.364330

G01 Z-0.125000 F100.0(Penetrate)
G03 X414.111842 Y49.867524 Z-0.125000 I-0.746380 J-0.000000 F400.000000
G03 X413.809100 Y49.909780 Z-0.125000 I-0.176852 J-0.161435
G03 X413.557862 Y49.543882 Z-0.125000 I0.289049 J-0.467674
G03 X413.648370 Y49.056650 Z-0.125000 I0.673614 J-0.126892
G03 X414.037215 Y48.940571 Z-0.125000 I0.259652 J0.160469
G03 X414.306970 Y49.364330 Z-0.125000 I-0.197964 J0.423759
G01 X414.306970 Y49.364330 Z-0.125000
G00 Z5.000000

(End cutting path id: path99)


(Start cutting path id: path99)
(Change tool to Default tool)

G00 Z5.000000
G00 X423.198390 Y44.697910

G01 Z-0.125000 F100.0(Penetrate)
G03 X422.712290 Y44.715560 Z-0.125000 I-0.252540 J-0.252550 F400.000000
G03 X419.536244 Y41.725020 Z-0.125000 I33.546797 J-38.809546
G03 X416.569356 Y38.437777 Z-0.125000 I40.944937 J-39.937183
G03 X416.260070 Y37.584530 Z-0.125000 I1.022311 J-0.853247
G03 X416.410084 Y37.516639 Z-0.125000 I0.090370 J0.000000
G03 X419.885910 Y40.769890 Z-0.125000 I-49.871532 J56.766981
G03 X423.211665 Y44.384784 Z-0.125000 I-40.160780 J40.285824
G03 X423.198390 Y44.697920 Z-0.125000 I-0.177098 J0.149342
G01 X423.198390 Y44.697910 Z-0.125000
G00 Z5.000000

(End cutting path id: path99)


(Start cutting path id: path99)
(Change tool to Default tool)

G00 Z5.000000
G00 X430.317830 Y38.260220

G01 Z-0.125000 F100.0(Penetrate)
G03 X430.465330 Y38.370027 Z-0.125000 I0.051992 J0.084130 F400.000000
G03 X430.022980 Y39.357030 Z-0.125000 I-3.304668 J-0.888444
G03 X428.915655 Y40.708418 Z-0.125000 I-6.878701 J-4.507033
G03 X428.462810 Y40.894010 Z-0.125000 I-0.452845 J-0.459675
G02 X428.210911 Y41.061969 Z-0.125000 I0.000000 J0.272875
G02 X428.240090 Y41.428700 Z-0.125000 I0.371979 J0.154930
G03 X428.273617 Y42.796856 Z-0.125000 I-1.153139 J0.712747
G03 X420.860850 Y54.789570 Z-0.125000 I-125.956836 J-69.567369
G02 X419.062064 Y57.575139 Z-0.125000 I46.715141 J32.139940
G02 X417.943940 Y59.610330 Z-0.125000 I23.793949 J14.397029
G01 X416.909640 Y61.694790 Z-0.125000
G01 X416.505170 Y59.758380 Z-0.125000
G02 X415.839232 Y58.301508 Z-0.125000 I-3.547642 J0.740996
G02 X415.271070 Y58.140340 Z-0.125000 I-0.391680 J0.298734
G03 X414.872703 Y58.101408 Z-0.125000 I-0.160267 J-0.417674
G03 X414.815270 Y57.853820 Z-0.125000 I0.096014 J-0.152728
G02 X414.910903 Y57.261831 Z-0.125000 I-0.665398 J-0.411211
G02 X414.434470 Y56.249210 Z-0.125000 I-2.654584 J0.630579
G03 X414.387161 Y56.017042 Z-0.125000 I0.219412 J-0.165614
G03 X414.501170 Y55.981900 Z-0.125000 I0.067622 J0.016873
G02 X417.030901 Y56.915336 Z-0.125000 I2.451470 J-2.749131
G02 X418.017840 Y55.907200 Z-0.125000 I-0.021425 J-1.008136
G02 X417.354193 Y54.391786 Z-0.125000 I-2.062021 J0.000000
G02 X415.326050 Y53.423350 Z-0.125000 I-2.580710 J2.796707
G03 X412.670807 Y52.315568 Z-0.125000 I0.845986 J-5.763812
G03 X408.874060 Y48.571580 Z-0.125000 I12.026257 J-15.992844
G02 X408.135945 Y48.057951 Z-0.125000 I-1.187456 J0.919273
G02 X407.317810 Y48.083550 Z-0.125000 I-0.372319 J1.187287
