%
(Header)
(Generated by gcodetools from Inkscape.)
(Using default header. To add your own header create file "header" in the output dir.)
M3
(Header end.)
G21 (All units in mm)

(Start cutting path id: path112)
(Change tool to Default tool)

G00 Z5.000000
G00 X-374.493418 Y273.337799

G01 Z-0.125000 F100.0(Penetrate)
G01 X-371.384647 Y271.004945 Z-0.125000 F400.000000
G01 X-374.493418 Y273.337799 Z-0.125000
G00 Z5.000000

(End cutting path id: path112)


(Start cutting path id: path112)
(Change tool to Default tool)

G00 Z5.000000
G00 X-372.263501 Y274.744085

G01 Z-0.125000 F100.0(Penetrate)
G02 X-370.563206 Y273.510467 Z-0.125000 I-181.285259 J-251.654039 F400.000000
G02 X-369.612830 Y272.018430 Z-0.125000 I-1.433509 J-1.961793
G01 X-372.892151 Y274.001136 Z-0.125000
G01 X-372.263501 Y274.744085 Z-0.125000
G00 Z5.000000

(End cutting path id: path112)


(Start cutting path id: path112)
(Change tool to Default tool)

G00 Z5.000000
G00 X-376.910902 Y275.459517

G01 Z-0.125000 F100.0(Penetrate)
G01 X-375.809329 Y274.393009 Z-0.125000 F400.000000
G01 X-376.910902 Y275.459517 Z-0.125000
G00 Z5.000000

(End cutting path id: path112)


(Start cutting path id: path112)
(Change tool to Default tool)

G00 Z5.000000
G00 X-378.544059 Y276.684166

G01 Z-0.125000 F100.0(Penetrate)
G01 X-377.442486 Y275.617976 Z-0.125000 F400.000000
G01 X-378.544059 Y276.684166 Z-0.125000
G00 Z5.000000

(End cutting path id: path112)


(Start cutting path id: path112)
(Change tool to Default tool)

G00 Z5.000000
G00 X-380.176914 Y277.909106

G01 Z-0.125000 F100.0(Penetrate)
G01 X-379.075643 Y276.842598 Z-0.125000 F400.000000
G01 X-380.176914 Y277.909106 Z-0.125000
G00 Z5.000000

(End cutting path id: path112)


(Start cutting path id: path112)
(Change tool to Default tool)

G00 Z5.000000
G00 X-380.193017 Y278.585512

G01 Z-0.125000 F100.0(Penetrate)
G02 X-381.376737 Y279.325030 Z-0.125000 I0.552572 J2.201612 F400.000000
G02 X-382.094083 Y280.895110 Z-0.125000 I2.463468 J2.074433
G01 X-380.193017 Y278.585512 Z-0.125000
G00 Z5.000000

(End cutting path id: path112)


(Start cutting path id: path112)
(Change tool to Default tool)

G00 Z5.000000
G00 X-382.404629 Y281.541275

G01 Z-0.125000 F100.0(Penetrate)
G02 X-382.313593 Y281.517560 Z-0.125000 I0.038038 J-0.040573 F400.000000
G02 X-382.607527 Y281.338684 Z-0.125000 I-0.168732 J-0.053674
G01 X-382.404629 Y281.541275 Z-0.125000
G00 Z5.000000

(End cutting path id: path112)


(Start cutting path id: path112)
(Change tool to Default tool)

G00 Z5.000000
G00 X-382.945588 Y282.190191

G01 Z-0.125000 F100.0(Penetrate)
G01 X-382.945588 Y282.936474 Z-0.125000 F400.000000
G01 X-382.945588 Y282.190191 Z-0.125000
G00 Z5.000000

(End cutting path id: path112)


(Start cutting path id: path112)
(Change tool to Default tool)

G00 Z5.000000
G00 X-383.306630 Y284.979346

G01 Z-0.125000 F100.0(Penetrate)
G01 X-383.317821 Y283.416348 Z-0.125000 F400.000000
G01 X-383.306630 Y284.979346 Z-0.125000
G00 Z5.000000

(End cutting path id: path112)


(Start cutting path id: path112)
(Change tool to Default tool)

G00 Z5.000000
G00 X-383.832091 Y286.646086

G01 Z-0.125000 F100.0(Penetrate)
G02 X-383.450448 Y289.822294 Z-0.125000 I13.407741 J0.000000 F400.000000
G02 X-382.198934 Y292.361688 Z-0.125000 I6.337590 J-1.545321
G02 X-382.963105 Y289.611820 Z-0.125000 I-37.314497 J8.888351
G03 X-383.423877 Y286.646086 Z-0.125000 I9.314013 J-2.965734
G01 X-383.423877 Y285.421146 Z-0.125000
G01 X-383.832091 Y285.421146 Z-0.125000
G01 X-383.832091 Y286.646086 Z-0.125000
G00 Z5.000000

(End cutting path id: path112)


(Start cutting path id: path112)
(Change tool to Default tool)

G00 Z5.000000
G00 X-382.199135 Y287.462510

G01 Z-0.125000 F100.0(Penetrate)
G02 X-381.702277 Y290.295972 Z-0.125000 I8.327694 J-0.000000 F400.000000
G02 X-380.246362 Y292.344146 Z-0.125000 I4.417014 J-1.598226
G02 X-380.693405 Y290.059352 Z-0.125000 I-5.709156 J-0.069077
G03 X-381.382709 Y286.646086 Z-0.125000 I8.106177 J-3.413266
G03 X-377.378425 Y279.233565 Z-0.125000 I8.862977 J-0.000000
G02 X-373.270436 Y275.356092 Z-0.125000 I-8.826901 J-13.466501
G02 X-375.145959 Y275.305675 Z-0.125000 I-0.974800 J1.352650
G02 X-378.626618 Y278.397017 Z-0.125000 I8.118114 J12.645667
G02 X-381.338757 Y282.578202 Z-0.125000 I16.964620 J13.974367
G02 X-382.199133 Y286.237861 Z-0.125000 I7.353099 J3.659659
G01 X-382.199133 Y287.462510 Z-0.125000
G01 X-382.199135 Y287.462510 Z-0.125000
G00 Z5.000000

(End cutting path id: path112)


(Start cutting path id: path112)
(Change tool to Default tool)

G00 Z5.000000
G00 X-380.158065 Y287.054311

G01 Z-0.125000 F100.0(Penetrate)
G02 X-379.736785 Y289.661999 Z-0.125000 I8.281310 J0.000000 F400.000000
G02 X-378.454757 Y291.848555 Z-0.125000 I5.771275 J-1.914710
G01 X-374.033945 Y291.963146 Z-0.125000
G01 X-375.419754 Y288.708934 Z-0.125000
G01 X-374.121332 Y287.375145 Z-0.125000
G01 X-373.619381 Y287.132019 Z-0.125000
G01 X-370.417477 Y292.003363 Z-0.125000
G01 X-364.242877 Y291.433081 Z-0.125000
G02 X-365.094726 Y289.307930 Z-0.125000 I-10.466201 J2.961989
G02 X-368.367388 Y283.645378 Z-0.125000 I-77.351739 J40.928300
G02 X-372.048521 Y278.344995 Z-0.125000 I-59.913223 J37.681465
G02 X-373.660523 Y277.220899 Z-0.125000 I-2.565246 J1.960785
G02 X-377.901961 Y280.877884 Z-0.125000 I27.122027 J35.744764
G02 X-380.158073 Y286.237888 Z-0.125000 I5.239013 J5.360004
G01 X-380.158073 Y287.054311 Z-0.125000
G01 X-380.158065 Y287.054311 Z-0.125000
G00 Z5.000000

(End cutting path id: path112)


(Start cutting path id: path112)
(Change tool to Default tool)

G00 Z5.000000
G00 X-383.830036 Y292.362190

G01 Z-0.125000 F100.0(Penetrate)
G03 X-383.717660 Y282.865367 Z-0.125000 I19.533418 J-4.517938 F400.000000
G03 X-382.705858 Y280.193264 Z-0.125000 I12.491879 J3.202487
G02 X-382.534378 Y277.962600 Z-0.125000 I-2.580045 J-1.320262
G02 X-386.352798 Y271.627958 Z-0.125000 I-15.880745 J5.254496
G02 X-394.027810 Y264.337040 Z-0.125000 I-83.562307 J80.279334
G02 X-402.434602 Y257.892026 Z-0.125000 I-57.867718 J66.776538
G02 X-423.446726 Y247.440378 Z-0.125000 I-49.719794 J73.609954
G02 X-446.185518 Y242.033688 Z-0.125000 I-39.545975 J115.798251
G02 X-492.140536 Y248.033540 Z-0.125000 I-12.037166 J86.795939
G02 X-529.377028 Y275.419565 Z-0.125000 I38.152611 J90.883752
G02 X-541.610218 Y294.048179 Z-0.125000 I71.832188 J60.502352
G02 X-549.316003 Y315.087436 Z-0.125000 I90.486319 J45.072067
G02 X-551.399301 Y328.764462 Z-0.125000 I75.713600 J18.529949
G02 X-551.630726 Y342.582126 Z-0.125000 I151.449307 J9.447314
G02 X-550.983683 Y348.999867 Z-0.125000 I45.025437 J-1.298019
G02 X-549.651343 Y355.300551 Z-0.125000 I87.540245 J-15.220008
G03 X-548.651718 Y360.634787 Z-0.125000 I-44.326514 J11.067489
G02 X-548.270521 Y361.430678 Z-0.125000 I1.388031 J-0.175570
G02 X-547.490649 Y361.825759 Z-0.125000 I0.958546 J-0.924870
G03 X-542.519085 Y362.866117 Z-0.125000 I-4.752827 J35.111368
G03 X-534.376941 Y369.986118 Z-0.125000 I-3.480468 J12.195635
G02 X-529.329252 Y379.479522 Z-0.125000 I64.089932 J-27.988290
G02 X-523.028346 Y388.104480 Z-0.125000 I69.081237 J-43.852811
G02 X-516.012101 Y395.965609 Z-0.125000 I124.700710 J-104.236710
G02 X-508.101764 Y403.101387 Z-0.125000 I50.939190 J-48.516055
G02 X-499.218780 Y408.975843 Z-0.125000 I44.124390 J-57.068758
G02 X-494.387159 Y411.613567 Z-0.125000 I125.377630 J-223.915101
G02 X-489.465801 Y413.849303 Z-0.125000 I20.303451 J-38.158080
G03 X-485.302678 Y415.605086 Z-0.125000 I-22.777535 J59.821088
G02 X-484.289427 Y415.691635 Z-0.125000 I0.625471 J-1.348081
G02 X-483.571744 Y415.080131 Z-0.125000 I-0.287772 J-1.064641
G02 X-481.814061 Y411.168099 Z-0.125000 I-1708.305511 J-769.895435
G02 X-487.413489 Y407.129488 Z-0.125000 I-8.996354 J6.572175
G03 X-497.941532 Y402.391192 Z-0.125000 I15.597990 J-48.722559
G03 X-505.138823 Y397.449281 Z-0.125000 I33.973933 J-57.190828
G03 X-511.699557 Y391.653065 Z-0.125000 I48.198745 J-61.167292
G03 X-523.030636 Y377.804685 Z-0.125000 I59.895960 J-60.568188
G03 X-530.653384 Y361.614957 Z-0.125000 I53.430423 J-35.046509
G03 X-534.163202 Y322.094792 Z-0.125000 I90.509439 J-27.954155
G03 X-516.619611 Y286.136023 Z-0.125000 I61.006339 J7.504845
G03 X-485.597411 Y264.567696 Z-0.125000 I75.501839 J75.501839
G03 X-447.176892 Y258.542397 Z-0.125000 I29.924187 J65.305067
G03 X-428.496852 Y262.912146 Z-0.125000 I-10.218776 J85.795891
G03 X-411.444164 Y271.801472 Z-0.125000 I-23.130350 J65.172744
G03 X-404.529685 Y277.089007 Z-0.125000 I-77.192152 J108.108513
G03 X-398.241313 Y283.094483 Z-0.125000 I-35.889352 J43.874999
G03 X-395.298969 Y286.395345 Z-0.125000 I-449.554851 J403.689051
G03 X-392.721662 Y289.809150 Z-0.125000 I-20.633585 J18.257448
G02 X-388.639901 Y292.177387 Z-0.125000 I4.337203 J-2.773695
G02 X-383.829848 Y292.362772 Z-0.125000 I10.743959 J-216.270692
G01 X-383.830036 Y292.362190 Z-0.125000
G00 Z5.000000

(End cutting path id: path112)


(Start cutting path id: path112)
(Change tool to Default tool)

G00 Z5.000000
G00 X-380.158502 Y298.077289

G01 Z-0.125000 F100.0(Penetrate)
G01 X-387.507268 Y298.077289 Z-0.125000 F400.000000
G02 X-386.195726 Y298.687329 Z-0.125000 I1.064738 J-0.574229
G03 X-384.240965 Y298.485805 Z-0.125000 I1.954761 J9.379748
G01 X-380.158528 Y298.485805 Z-0.125000
G01 X-380.158528 Y298.077289 Z-0.125000
G01 X-380.158502 Y298.077289 Z-0.125000
G00 Z5.000000

(End cutting path id: path112)


(Start cutting path id: path112)
(Change tool to Default tool)

G00 Z5.000000
G00 X-379.150364 Y297.599240

G01 Z-0.125000 F100.0(Penetrate)
G01 X-379.150364 Y298.555655 Z-0.125000 F400.000000
G01 X-378.702237 Y298.555655 Z-0.125000
G01 X-379.150364 Y297.599240 Z-0.125000
G00 Z5.000000

(End cutting path id: path112)


(Start cutting path id: path112)
(Change tool to Default tool)

G00 Z5.000000
G00 X-377.517207 Y297.599240

G01 Z-0.125000 F100.0(Penetrate)
G01 X-377.517207 Y298.555655 Z-0.125000 F400.000000
G01 X-377.069382 Y298.555655 Z-0.125000
G01 X-377.517207 Y297.599240 Z-0.125000
G00 Z5.000000

(End cutting path id: path112)


(Start cutting path id: path112)
(Change tool to Default tool)

G00 Z5.000000
G00 X-371.176290 Y297.669381

G01 Z-0.125000 F100.0(Penetrate)
G01 X-376.483666 Y297.669381 Z-0.125000 F400.000000
G02 X-375.403634 Y298.210408 Z-0.125000 I0.923883 J-0.495787
G03 X-373.625879 Y298.077289 Z-0.125000 I1.777755 J11.804081
G01 X-368.726701 Y298.077289 Z-0.125000
G02 X-369.599950 Y297.642908 Z-0.125000 I-0.838789 J0.591293
G03 X-371.176288 Y297.669381 Z-0.125000 I-1.576338 J-46.918494
G01 X-371.176290 Y297.669381 Z-0.125000
G00 Z5.000000

(End cutting path id: path112)


(Start cutting path id: path112)
(Change tool to Default tool)

G00 Z5.000000
G00 X-367.909987 Y297.260865

G01 Z-0.125000 F100.0(Penetrate)
G01 X-367.909987 Y298.077289 Z-0.125000 F400.000000
G01 X-365.052199 Y298.077289 Z-0.125000
G01 X-360.983971 Y297.562331 Z-0.125000
G01 X-360.969763 Y297.260865 Z-0.125000
G01 X-367.910013 Y297.260865 Z-0.125000
G01 X-367.909987 Y297.260865 Z-0.125000
G00 Z5.000000

(End cutting path id: path112)


(Start cutting path id: path112)
(Change tool to Default tool)

G00 Z5.000000
G00 X-362.568429 Y291.462396

G01 Z-0.125000 F100.0(Penetrate)
G01 X-358.118910 Y291.042397 Z-0.125000 F400.000000
G01 X-368.609388 Y273.494962 Z-0.125000
G01 X-372.061376 Y276.016808 Z-0.125000
G01 X-362.568429 Y291.462396 Z-0.125000
G00 Z5.000000

(End cutting path id: path112)


(Start cutting path id: path112)
(Change tool to Default tool)

G00 Z5.000000
G00 X-358.938665 Y297.737432

G01 Z-0.125000 F100.0(Penetrate)
G01 X-356.887012 Y297.669381 Z-0.125000 F400.000000
G01 X-355.286512 Y297.623423 Z-0.125000
G01 X-356.485150 Y296.794300 Z-0.125000
G01 X-360.595420 Y297.486131 Z-0.125000
G01 X-358.938678 Y297.737432 Z-0.125000
G01 X-358.938665 Y297.737432 Z-0.125000
G00 Z5.000000

(End cutting path id: path112)


(Start cutting path id: path112)
(Change tool to Default tool)

G00 Z5.000000
G00 X-353.212480 Y296.852667

G01 Z-0.125000 F100.0(Penetrate)
G01 X-354.810562 Y296.957574 Z-0.125000 F400.000000
G02 X-353.776257 Y297.497215 Z-0.125000 I0.925514 J-0.512867
G02 X-352.804266 Y297.191015 Z-0.125000 I-0.260887 J-2.523986
G01 X-350.354984 Y297.256632 Z-0.125000
G01 X-345.863714 Y297.260865 Z-0.125000
G01 X-345.863714 Y296.852667 Z-0.125000
G01 X-353.212480 Y296.852667 Z-0.125000
G00 Z5.000000

(End cutting path id: path112)


(Start cutting path id: path112)
(Change tool to Default tool)

G00 Z5.000000
G00 X-344.942066 Y297.365799

G01 Z-0.125000 F100.0(Penetrate)
G02 X-342.785570 Y299.176913 Z-0.125000 I3.545546 J-2.032259 F400.000000
G02 X-339.739596 Y299.710454 Z-0.125000 I3.045974 J-8.427921
G01 X-338.923170 Y299.710454 Z-0.125000
G02 X-335.473588 Y299.215503 Z-0.125000 I0.000000 J-12.268470
G02 X-333.884002 Y296.304451 Z-0.125000 I-0.659066 J-2.249409
G01 X-344.942063 Y297.365799 Z-0.125000
G01 X-344.942066 Y297.365799 Z-0.125000
G00 Z5.000000

(End cutting path id: path112)


(Start cutting path id: path112)
(Change tool to Default tool)

G00 Z5.000000
G00 X-341.415968 Y292.803171

G01 Z-0.125000 F100.0(Penetrate)
G01 X-342.576807 Y293.509819 Z-0.125000 F400.000000
G01 X-341.510916 Y294.057453 Z-0.125000
G01 X-341.415971 Y292.803171 Z-0.125000
G01 X-341.415968 Y292.803171 Z-0.125000
G00 Z5.000000

(End cutting path id: path112)


(Start cutting path id: path112)
(Change tool to Default tool)

G00 Z5.000000
G00 X-339.243662 Y295.230376

G01 Z-0.125000 F100.0(Penetrate)
G01 X-336.099199 Y295.191958 Z-0.125000 F400.000000
G01 X-337.717841 Y293.533420 Z-0.125000
G01 X-336.847590 Y292.017888 Z-0.125000
G01 X-334.691011 Y292.078055 Z-0.125000
G01 X-334.419777 Y294.290260 Z-0.125000
G01 X-335.654700 Y295.061043 Z-0.125000
G01 X-334.024567 Y295.238843 Z-0.125000
G01 X-334.024037 Y293.994853 Z-0.125000
G01 X-334.066672 Y292.464187 Z-0.125000
G01 X-334.936015 Y291.640805 Z-0.125000
G01 X-336.473015 Y291.527722 Z-0.125000
G01 X-337.290047 Y291.545184 Z-0.125000
G01 X-338.807695 Y291.620485 Z-0.125000
G01 X-339.243728 Y295.230296 Z-0.125000
G01 X-339.243662 Y295.230376 Z-0.125000
G00 Z5.000000

(End cutting path id: path112)


(Start cutting path id: path112)
(Change tool to Default tool)

G00 Z5.000000
G00 X-336.030566 Y292.792587

G01 Z-0.125000 F100.0(Penetrate)
G01 X-336.518306 Y293.872986 Z-0.125000 F400.000000
G01 X-335.270080 Y293.546728 Z-0.125000
G01 X-336.030569 Y292.792587 Z-0.125000
G01 X-336.030566 Y292.792587 Z-0.125000
G00 Z5.000000

(End cutting path id: path112)


(Start cutting path id: path112)
(Change tool to Default tool)

G00 Z5.000000
G00 X-342.828950 Y289.083848

G01 Z-0.125000 F100.0(Penetrate)
G01 X-342.119566 Y288.008292 Z-0.125000 F400.000000
G01 X-343.495095 Y288.037026 Z-0.125000
G01 X-342.828952 Y289.083848 Z-0.125000
G01 X-342.828950 Y289.083848 Z-0.125000
G00 Z5.000000

(End cutting path id: path112)


(Start cutting path id: path112)
(Change tool to Default tool)

G00 Z5.000000
G00 X-344.125340 Y309.806703

G01 Z-0.125000 F100.0(Penetrate)
G01 X-342.599225 Y309.935820 Z-0.125000 F400.000000
G01 X-337.699148 Y309.917299 Z-0.125000
G01 X-337.699148 Y305.426346 Z-0.125000
G01 X-340.965452 Y305.426346 Z-0.125000
G01 X-343.963257 Y305.692755 Z-0.125000
G01 X-344.665082 Y306.368262 Z-0.125000
G01 X-344.125332 Y309.806624 Z-0.125000
G01 X-344.125340 Y309.806703 Z-0.125000
G00 Z5.000000

(End cutting path id: path112)


(Start cutting path id: path112)
(Change tool to Default tool)

G00 Z5.000000
G00 X-345.454907 Y309.904070

G01 Z-0.125000 F100.0(Penetrate)
G01 X-345.456494 Y305.834624 Z-0.125000 F400.000000
G01 X-351.172096 Y305.834624 Z-0.125000
G01 X-350.247719 Y309.378819 Z-0.125000
G01 X-345.454983 Y309.904070 Z-0.125000
G01 X-345.454907 Y309.904070 Z-0.125000
G00 Z5.000000

(End cutting path id: path112)


(Start cutting path id: path112)
(Change tool to Default tool)

G00 Z5.000000
G00 X-355.693332 Y309.480552

G01 Z-0.125000 F100.0(Penetrate)
G01 X-354.029936 Y309.521086 Z-0.125000 F400.000000
G01 X-353.213205 Y309.508915 Z-0.125000
G01 X-351.612706 Y309.462957 Z-0.125000
G01 X-352.727582 Y305.883387 Z-0.125000
G01 X-356.976943 Y306.378977 Z-0.125000
G01 X-355.693338 Y309.480499 Z-0.125000
G01 X-355.693332 Y309.480552 Z-0.125000
G00 Z5.000000

(End cutting path id: path112)


(Start cutting path id: path112)
(Change tool to Default tool)

G00 Z5.000000
G00 X-363.490011 Y309.040894

G01 Z-0.125000 F100.0(Penetrate)
G01 X-361.787607 Y309.119211 Z-0.125000 F400.000000
G01 X-358.929211 Y309.100690 Z-0.125000
G01 X-357.364997 Y309.076084 Z-0.125000
G01 X-357.796495 Y306.317171 Z-0.125000
G01 X-359.337124 Y306.230996 Z-0.125000
G01 X-362.603428 Y306.242902 Z-0.125000
G01 X-364.348768 Y306.371410 Z-0.125000
G01 X-363.490009 Y309.040815 Z-0.125000
G01 X-363.490011 Y309.040894 Z-0.125000
G00 Z5.000000

(End cutting path id: path112)


(Start cutting path id: path112)
(Change tool to Default tool)

G00 Z5.000000
G00 X-365.869459 Y306.173132

G01 Z-0.125000 F100.0(Penetrate)
G02 X-365.992727 Y307.785142 Z-0.125000 I1.847420 J0.951987 F400.000000
G02 X-364.679894 Y308.995862 Z-0.125000 I1.757543 J-0.588637
G01 X-365.869459 Y306.173132 Z-0.125000
G00 Z5.000000

(End cutting path id: path112)


(Start cutting path id: path112)
(Change tool to Default tool)

G00 Z5.000000
G00 X-370.674577 Y308.943845

G01 Z-0.125000 F100.0(Penetrate)
G01 X-369.543977 Y308.692571 Z-0.125000 F400.000000
G01 X-368.319336 Y308.692571 Z-0.125000
G01 X-366.755121 Y308.667964 Z-0.125000
G01 X-367.206273 Y306.321801 Z-0.125000
G01 X-368.727246 Y306.231076 Z-0.125000
G01 X-370.360705 Y306.242982 Z-0.125000
G01 X-372.430197 Y306.748256 Z-0.125000
G01 X-370.674575 Y308.943845 Z-0.125000
G01 X-370.674577 Y308.943845 Z-0.125000
G00 Z5.000000

(End cutting path id: path112)


(Start cutting path id: path112)
(Change tool to Default tool)

G00 Z5.000000
G00 X-375.633021 Y306.756114

G01 Z-0.125000 F100.0(Penetrate)
G02 X-374.890829 Y308.006884 Z-0.125000 I13.909058 J-7.407887 F400.000000
G02 X-374.070016 Y308.587637 Z-0.125000 I1.151740 J-0.757395
G01 X-374.328855 Y307.011939 Z-0.125000
G03 X-373.302517 Y308.074300 Z-0.125000 I-20.281578 J20.620800
G02 X-372.436859 Y308.587637 Z-0.125000 I1.283851 J-1.178441
G01 X-373.028617 Y306.499098 Z-0.125000
G01 X-375.633021 Y306.756114 Z-0.125000
G00 Z5.000000

(End cutting path id: path112)


(Start cutting path id: path112)
(Change tool to Default tool)

G00 Z5.000000
G00 X-381.995713 Y308.462145

G01 Z-0.125000 F100.0(Penetrate)
G01 X-380.975481 Y308.284345 Z-0.125000 F400.000000
G01 X-377.709469 Y308.284345 Z-0.125000
G01 X-376.145254 Y308.259739 Z-0.125000
G01 X-376.838914 Y306.268276 Z-0.125000
G01 X-378.525289 Y306.225334 Z-0.125000
G01 X-383.443199 Y306.802284 Z-0.125000
G01 X-381.995703 Y308.462039 Z-0.125000
G01 X-381.995713 Y308.462145 Z-0.125000
G00 Z5.000000

(End cutting path id: path112)


(Start cutting path id: path112)
(Change tool to Default tool)

G00 Z5.000000
G00 X-379.750430 Y312.775192

G01 Z-0.125000 F100.0(Penetrate)
G03 X-366.221912 Y312.977091 Z-0.125000 I0.000000 J453.348825 F400.000000
G02 X-352.396782 Y313.183417 Z-0.125000 I13.825131 J-463.082183
G02 X-345.241563 Y313.174516 Z-0.125000 I-0.001858 J-2875.761756
G03 X-338.092657 Y313.168601 Z-0.125000 I5.356414 J2152.377002
G03 X-334.805897 Y313.332306 Z-0.125000 I-0.042881 J33.937423
G02 X-331.143358 Y313.568359 Z-0.125000 I5.310769 J-53.868978
G03 X-328.620596 Y314.583283 Z-0.125000 I-0.119968 J3.941035
G02 X-326.823247 Y315.850414 Z-0.125000 I6.131829 J-6.789349
G03 X-327.817679 Y313.567300 Z-0.125000 I5.686731 J-3.835035
G03 X-327.659028 Y310.909512 Z-0.125000 I4.567598 J-1.060976
G03 X-329.602988 Y311.390873 Z-0.125000 I-1.912398 J-3.557163
G03 X-345.144307 Y311.100653 Z-0.125000 I5.594667 J-715.859924
G03 X-360.413958 Y310.531383 Z-0.125000 I29.161964 J-987.293354
G02 X-364.662548 Y310.343145 Z-0.125000 I-132.488376 J2942.262318
G02 X-374.055446 Y310.003066 Z-0.125000 I-27.948534 J642.047064
G03 X-382.997991 Y309.449622 Z-0.125000 I3.928356 J-135.997788
G03 X-386.458243 Y308.844940 Z-0.125000 I2.126596 J-22.372160
G02 X-391.413093 Y307.925508 Z-0.125000 I-9.251288 J36.044873
G02 X-395.245206 Y308.248785 Z-0.125000 I-1.118150 J9.619982
G02 X-396.792899 Y310.290546 Z-0.125000 I0.602615 J2.064264
G01 X-393.910002 Y307.567617 Z-0.125000
G01 X-393.631510 Y307.876041 Z-0.125000
G03 X-391.257768 Y309.348207 Z-0.125000 I-1.053673 J4.348771
G03 X-390.394231 Y311.929744 Z-0.125000 I-2.843168 J2.386250
G03 X-393.667670 Y313.642103 Z-0.125000 I-2.998201 J-1.746503
G03 X-395.984950 Y313.429559 Z-0.125000 I7.654153 J-96.188557
G02 X-394.736199 Y314.381549 Z-0.125000 I1.252741 J-0.348250
G02 X-390.248297 Y314.025049 Z-0.125000 I0.084001 J-27.369415
G02 X-385.362750 Y313.107807 Z-0.125000 I-16.680358 J-102.314998
G03 X-382.200017 Y312.775192 Z-0.125000 I3.162733 J14.870421
G01 X-379.750430 Y312.775192 Z-0.125000
G00 Z5.000000

(End cutting path id: path112)


(Start cutting path id: path112)
(Change tool to Default tool)

G00 Z5.000000
G00 X-380.270804 Y314.275827

G01 Z-0.125000 F100.0(Penetrate)
G02 X-380.247857 Y314.846520 Z-0.125000 I1.478847 J0.226344 F400.000000
G03 X-378.012324 Y324.921139 Z-0.125000 I-361.460443 J85.492520
G03 X-377.528648 Y327.767736 Z-0.125000 I-39.222460 J8.128826
G03 X-377.282982 Y330.724138 Z-0.125000 I-29.805760 J3.965151
G02 X-376.790207 Y333.429453 Z-0.125000 I9.404649 J-0.315524
G02 X-374.848213 Y334.821708 Z-0.125000 I1.941995 J-0.658274
G01 X-373.215357 Y334.821708 Z-0.125000
G01 X-371.226601 Y334.807183 Z-0.125000
G01 X-371.167636 Y332.780628 Z-0.125000
G01 X-371.173986 Y331.147470 Z-0.125000
G01 X-373.809838 Y314.006456 Z-0.125000
G01 X-376.073158 Y313.993756 Z-0.125000
G01 X-378.117554 Y314.000370 Z-0.125000
G01 X-380.270807 Y314.275827 Z-0.125000
G01 X-380.270804 Y314.275827 Z-0.125000
G00 Z5.000000

(End cutting path id: path112)


(Start cutting path id: path112)
(Change tool to Default tool)

G00 Z5.000000
G00 X-373.146526 Y314.070273

G01 Z-0.125000 F100.0(Penetrate)
G02 X-371.836031 Y319.261923 Z-0.125000 I31.017748 J-5.068385 F400.000000
G03 X-370.764070 Y324.612159 Z-0.125000 I-19.187892 J6.626949
G03 X-370.730591 Y330.736610 Z-0.125000 I-53.082672 J3.352490
G02 X-369.915288 Y334.856816 Z-0.125000 I8.560814 J0.446761
G01 X-369.477440 Y333.197957 Z-0.125000
G01 X-369.542149 Y330.739301 Z-0.125000
G01 X-372.076402 Y314.760596 Z-0.125000
G03 X-371.088123 Y315.803438 Z-0.125000 I-0.527178 J1.489302
G03 X-369.739869 Y321.410402 Z-0.125000 I-54.772646 J16.136243
G03 X-368.855462 Y327.256783 Z-0.125000 I-82.272971 J15.435875
G03 X-368.725722 Y329.514361 Z-0.125000 I-19.577077 J2.257578
G01 X-368.725722 Y334.821737 Z-0.125000
G01 X-367.908992 Y334.821737 Z-0.125000
G01 X-367.908992 Y332.372151 Z-0.125000
G01 X-370.542728 Y314.024606 Z-0.125000
G01 X-373.146526 Y314.070273 Z-0.125000
G00 Z5.000000

(End cutting path id: path112)


(Start cutting path id: path112)
(Change tool to Default tool)

G00 Z5.000000
G00 X-362.194454 Y314.408542

G01 Z-0.125000 F100.0(Penetrate)
G03 X-360.983951 Y320.678219 Z-0.125000 I-67.944683 J16.369950 F400.000000
G02 X-359.988589 Y326.900194 Z-0.125000 I229.158309 J-33.469093
G03 X-359.822134 Y332.309306 Z-0.125000 I-18.904447 J3.288863
G02 X-359.700266 Y333.752887 Z-0.125000 I3.716477 J0.413188
G02 X-358.914824 Y334.438966 Z-0.125000 I0.923628 J-0.264758
G02 X-353.620764 Y334.821650 Z-0.125000 I5.294060 J-36.427744
G01 X-353.620764 Y328.289625 Z-0.125000
G01 X-355.650343 Y314.406717 Z-0.125000
G01 X-362.194459 Y314.409363 Z-0.125000
G01 X-362.194454 Y314.408542 Z-0.125000
G00 Z5.000000

(End cutting path id: path112)


(Start cutting path id: path112)
(Change tool to Default tool)

G00 Z5.000000
G00 X-361.375265 Y334.821682

G01 Z-0.125000 F100.0(Penetrate)
G02 X-360.558042 Y333.697904 Z-0.125000 I-0.490809 J-1.215957 F400.000000
G02 X-360.595577 Y329.891965 Z-0.125000 I-23.690650 J-1.669517
G02 X-361.128575 Y325.797492 Z-0.125000 I-52.241615 J4.718624
G03 X-361.381615 Y323.804731 Z-0.125000 I23.297297 J-3.970737
G03 X-361.688245 Y317.523958 Z-0.125000 I89.419101 J-7.513343
G02 X-363.825153 Y314.408569 Z-0.125000 I-3.407656 J0.046811
G01 X-361.375265 Y331.147444 Z-0.125000
G01 X-361.375265 Y334.821682 Z-0.125000
G00 Z5.000000

(End cutting path id: path112)


(Start cutting path id: path112)
(Change tool to Default tool)

G00 Z5.000000
G00 X-365.065219 Y334.899395

G01 Z-0.125000 F100.0(Penetrate)
G01 X-362.194414 Y334.821682 Z-0.125000 F400.000000
G01 X-362.194414 Y332.780310 Z-0.125000
G01 X-364.887102 Y313.881837 Z-0.125000
G01 X-365.423526 Y314.137054 Z-0.125000
G01 X-369.472095 Y314.181504 Z-0.125000
G01 X-366.822640 Y334.608811 Z-0.125000
G01 X-365.065203 Y334.899400 Z-0.125000
G01 X-365.065219 Y334.899395 Z-0.125000
G00 Z5.000000

(End cutting path id: path112)


(Start cutting path id: path112)
(Change tool to Default tool)

G00 Z5.000000
G00 X-362.255051 Y339.843292

G01 Z-0.125000 F100.0(Penetrate)
G01 X-366.845196 Y339.794913 Z-0.125000 F400.000000
G02 X-367.590655 Y345.013816 Z-0.125000 I22.732063 J5.909698
G03 X-368.358611 Y353.151672 Z-0.125000 I-63.210166 J-1.859877
G03 X-369.524968 Y358.806529 Z-0.125000 I-63.908182 J-10.233828
G03 X-371.340091 Y364.459182 Z-0.125000 I-45.936567 J-11.632936
G03 X-375.860807 Y374.446774 Z-0.125000 I-98.821060 J-38.712781
G03 X-380.901062 Y384.046500 Z-0.125000 I-711.758633 J-367.579899
G01 X-376.578834 Y385.615855 Z-0.125000
G02 X-371.341956 Y377.790707 Z-0.125000 I-18.256609 J-17.882927
G02 X-366.433472 Y363.803302 Z-0.125000 I-101.764541 J-43.566338
G02 X-363.184248 Y349.072324 Z-0.125000 I-136.186383 J-37.762573
G02 X-362.255078 Y339.843261 Z-0.125000 I-72.269885 J-11.937343
G01 X-362.255051 Y339.843292 Z-0.125000
G00 Z5.000000

(End cutting path id: path112)


(Start cutting path id: path112)
(Change tool to Default tool)

G00 Z5.000000
G00 X-360.558794 Y339.721246

G01 Z-0.125000 F100.0(Penetrate)
G02 X-362.477396 Y344.112889 Z-0.125000 I2.718538 J3.802580 F400.000000
G03 X-362.599864 Y352.786195 Z-0.125000 I-30.729453 J3.903613
G03 X-363.884172 Y359.205928 Z-0.125000 I-75.214152 J-11.708731
G03 X-365.633043 Y365.266946 Z-0.125000 I-75.758888 J-18.576966
G03 X-369.901924 Y375.953806 Z-0.125000 I-93.117876 J-31.000026
G03 X-375.664814 Y386.263353 Z-0.125000 I-75.341162 J-35.349173
G02 X-373.680754 Y384.981802 Z-0.125000 I-0.281761 J-2.612821
G02 X-369.588136 Y377.154519 Z-0.125000 I-77.051705 J-45.271278
G02 X-366.037184 Y368.723371 Z-0.125000 I-123.225381 J-56.862272
G02 X-365.049744 Y365.849955 Z-0.125000 I-41.861381 J-15.991894
G02 X-361.925041 Y353.483375 Z-0.125000 I-123.025240 J-37.663230
G02 X-360.558791 Y339.721246 Z-0.125000 I-68.629317 J-13.762130
G01 X-360.558794 Y339.721246 Z-0.125000
G00 Z5.000000

(End cutting path id: path112)


(Start cutting path id: path112)
(Change tool to Default tool)

G00 Z5.000000
G00 X-368.724011 Y339.721190

G01 Z-0.125000 F100.0(Penetrate)
G03 X-372.596099 Y363.054538 Z-0.125000 I-72.239855 J-0.000000 F400.000000
G03 X-382.605093 Y383.405431 Z-0.125000 I-83.948889 J-28.651055
G02 X-380.731667 Y381.990253 Z-0.125000 I-0.810993 J-3.021218
G02 X-376.789149 Y374.692108 Z-0.125000 I-81.171812 J-48.563655
G02 X-373.318898 Y366.930850 Z-0.125000 I-123.514127 J-59.882671
G02 X-372.335039 Y364.280154 Z-0.125000 I-38.384220 J-15.755007
G02 X-369.212510 Y352.607307 Z-0.125000 I-95.626079 J-31.834397
G02 X-367.907269 Y339.721111 Z-0.125000 I-63.269439 J-12.917751
G01 X-368.724000 Y339.721111 Z-0.125000
G01 X-368.724011 Y339.721190 Z-0.125000
G00 Z5.000000

(End cutting path id: path112)


(Start cutting path id: path112)
(Change tool to Default tool)

G00 Z5.000000
G00 X-369.541255 Y339.721179

G01 Z-0.125000 F100.0(Penetrate)
G02 X-370.704782 Y343.642961 Z-0.125000 I6.289896 J3.999599 F400.000000
G03 X-371.484654 Y352.474980 Z-0.125000 I-57.159486 J-0.596769
G03 X-372.759452 Y358.382430 Z-0.125000 I-63.779029 J-10.671922
G03 X-374.388717 Y363.860515 Z-0.125000 I-92.694206 J-24.587323
G03 X-378.827740 Y373.779003 Z-0.125000 I-50.706364 J-16.741070
G02 X-383.830546 Y382.997274 Z-0.125000 I178.101686 J102.623407
G02 X-381.995707 Y381.443463 Z-0.125000 I-1.230624 J-3.313453
G02 X-378.264319 Y374.274999 Z-0.125000 I-85.158605 J-48.882840
G02 X-374.975159 Y366.722924 Z-0.125000 I-133.103808 J-62.463076
G02 X-373.904609 Y363.936424 Z-0.125000 I-86.885371 J-34.979536
G02 X-370.747926 Y352.509785 Z-0.125000 I-68.469984 J-25.064627
G02 X-369.541265 Y339.721179 Z-0.125000 I-67.165713 J-12.788606
G01 X-369.541255 Y339.721179 Z-0.125000
G00 Z5.000000

(End cutting path id: path112)


(Start cutting path id: path112)
(Change tool to Default tool)

G00 Z5.000000
G00 X-378.386193 Y334.666030

G01 Z-0.125000 F100.0(Penetrate)
G02 X-378.170051 Y332.358750 Z-0.125000 I-5.771975 J-1.704472 F400.000000
G02 X-379.264723 Y324.271850 Z-0.125000 I-118.673733 J11.946572
G02 X-380.906894 Y316.285711 Z-0.125000 I-118.086247 J20.119888
G02 X-381.891097 Y314.099007 Z-0.125000 I-6.299667 J1.520546
G02 X-391.527107 Y315.223957 Z-0.125000 I-2.401899 J21.258167
G03 X-397.714378 Y312.366967 Z-0.125000 I-1.642486 J-4.571193
G01 X-397.714378 Y311.550252 Z-0.125000
G01 X-397.714378 Y310.325603 Z-0.125000
G01 X-397.671743 Y308.794964 Z-0.125000
G03 X-393.939343 Y307.142107 Z-0.125000 I4.029231 J4.058021
G03 X-390.365627 Y307.467816 Z-0.125000 I0.654333 J12.589059
G01 X-393.644948 Y305.796260 Z-0.125000
G01 X-398.596434 Y309.006340 Z-0.125000
G02 X-396.407875 Y314.379173 Z-0.125000 I7.876655 J-0.076302
G03 X-394.620439 Y317.438229 Z-0.125000 I-5.490627 J5.259962
G01 X-392.414574 Y317.993404 Z-0.125000
G03 X-388.347634 Y316.790085 Z-0.125000 I7.864556 J19.106059
G02 X-385.367908 Y314.869816 Z-0.125000 I-0.861911 J-4.609438
G03 X-382.487489 Y324.861972 Z-0.125000 I-10.180158 J8.345859
G02 X-381.536138 Y334.711702 Z-0.125000 I22.326930 J2.814329
G01 X-378.386251 Y334.666043 Z-0.125000
G01 X-378.386193 Y334.666030 Z-0.125000
G00 Z5.000000

(End cutting path id: path112)


(Start cutting path id: path112)
(Change tool to Default tool)

G00 Z5.000000
G00 X-384.640498 Y334.696799

G01 Z-0.125000 F100.0(Penetrate)
G01 X-383.013691 Y334.821682 Z-0.125000 F400.000000
G01 X-383.013691 Y330.739245 Z-0.125000
G02 X-383.657777 Y323.627300 Z-0.125000 I-39.586839 J-0.000000
G02 X-385.568203 Y316.893241 Z-0.125000 I-35.994876 J6.573587
G01 X-389.792165 Y318.042299 Z-0.125000
G01 X-393.916643 Y318.884123 Z-0.125000
G01 X-392.910019 Y320.012595 Z-0.125000
G01 X-394.060275 Y321.730136 Z-0.125000
G01 X-392.398392 Y334.304327 Z-0.125000
G01 X-384.640527 Y334.696817 Z-0.125000
G01 X-384.640498 Y334.696799 Z-0.125000
G00 Z5.000000

(End cutting path id: path112)


(Start cutting path id: path112)
(Change tool to Default tool)

G00 Z5.000000
G00 X-394.853508 Y334.413457

G01 Z-0.125000 F100.0(Penetrate)
G01 X-393.628565 Y334.413457 Z-0.125000 F400.000000
G01 X-393.628565 Y331.555669 Z-0.125000
G01 X-395.216063 Y321.772152 Z-0.125000
G01 X-396.399580 Y322.273193 Z-0.125000
G01 X-394.853508 Y332.780321 Z-0.125000
G01 X-394.853508 Y334.413478 Z-0.125000
G01 X-394.853508 Y334.413457 Z-0.125000
G00 Z5.000000

(End cutting path id: path112)


(Start cutting path id: path112)
(Change tool to Default tool)

G00 Z5.000000
G00 X-401.385665 Y334.413457

G01 Z-0.125000 F100.0(Penetrate)
G01 X-397.711137 Y334.413457 Z-0.125000 F400.000000
G01 X-397.711137 Y330.330703 Z-0.125000
G02 X-399.740501 Y318.253621 Z-0.125000 I-36.951037 J-0.000000
G02 X-405.841534 Y307.024719 Z-0.125000 I-36.819813 J12.733522
G01 X-409.510004 Y307.615876 Z-0.125000
G03 X-403.968098 Y318.862804 Z-0.125000 I-187.111014 J99.187512
G03 X-401.385639 Y330.739216 Z-0.125000 I-26.017856 J11.876412
G01 X-401.385639 Y334.413454 Z-0.125000
G01 X-401.385665 Y334.413457 Z-0.125000
G00 Z5.000000

(End cutting path id: path112)


(Start cutting path id: path112)
(Change tool to Default tool)

G00 Z5.000000
G00 X-396.966341 Y346.731555

G01 Z-0.125000 F100.0(Penetrate)
G02 X-398.733633 Y351.319209 Z-0.125000 I9.848911 J6.428308 F400.000000
G03 X-401.931135 Y361.223454 Z-0.125000 I-33.264824 J-5.271001
G03 X-405.966396 Y367.906718 Z-0.125000 I-46.029768 J-23.232279
G02 X-409.144435 Y373.198930 Z-0.125000 I32.187291 J22.929197
G02 X-406.380607 Y370.865947 Z-0.125000 I-1.963939 J-5.130241
G02 X-401.394878 Y361.148842 Z-0.125000 I-78.108465 J-46.214120
G02 X-397.478861 Y350.779766 Z-0.125000 I-96.228987 J-42.266139
G02 X-396.966367 Y346.731634 Z-0.125000 I-10.716068 J-3.413162
G01 X-396.966341 Y346.731555 Z-0.125000
G00 Z5.000000

(End cutting path id: path112)


(Start cutting path id: path112)
(Change tool to Default tool)

G00 Z5.000000
G00 X-398.992076 Y358.444996

G01 Z-0.125000 F100.0(Penetrate)
G03 X-402.775795 Y366.317049 Z-0.125000 I-56.305491 J-22.218004 F400.000000
G03 X-407.613539 Y373.691935 Z-0.125000 I-63.491322 J-36.374582
G01 X-406.568815 Y374.292766 Z-0.125000
G02 X-397.221530 Y358.462220 Z-0.125000 I-45.980262 J-37.824316
G02 X-393.628430 Y339.721029 Z-0.125000 I-47.206807 J-18.765618
G02 X-396.149927 Y343.119234 Z-0.125000 I0.309947 J2.864571
G03 X-396.165101 Y349.432283 Z-0.125000 I-16.537562 J3.116791
G03 X-397.347246 Y353.929582 Z-0.125000 I-34.694680 J-6.715705
G03 X-398.992065 Y358.445038 Z-0.125000 I-86.183017 J-28.836090
G01 X-398.992076 Y358.444996 Z-0.125000
G00 Z5.000000

(End cutting path id: path112)


(Start cutting path id: path112)
(Change tool to Default tool)

G00 Z5.000000
G00 X-410.319829 Y372.750184

G01 Z-0.125000 F100.0(Penetrate)
G02 X-406.296805 Y366.875948 Z-0.125000 I-43.704097 J-34.245870 F400.000000
G02 X-402.746696 Y360.407017 Z-0.125000 I-92.169685 J-54.790745
G02 X-401.089023 Y356.721855 Z-0.125000 I-40.302685 J-20.344516
G02 X-399.916108 Y353.031051 Z-0.125000 I-25.643320 J-10.181066
G02 X-399.034404 Y348.119577 Z-0.125000 I-40.397706 J-9.787044
G03 X-398.448958 Y345.445536 Z-0.125000 I13.896402 J1.641324
G01 X-397.913744 Y346.241703 Z-0.125000
G01 X-396.547890 Y345.758498 Z-0.125000
G01 X-395.830340 Y339.294814 Z-0.125000
G01 X-396.826988 Y339.343193 Z-0.125000
G03 X-396.474918 Y342.905342 Z-0.125000 I-28.275169 J4.593089
G03 X-398.119968 Y345.436778 Z-0.125000 I-2.624781 J0.094525
G01 X-397.680911 Y341.358258 Z-0.125000
G01 X-397.711753 Y340.945810 Z-0.125000
G01 X-397.736545 Y339.381595 Z-0.125000
G02 X-398.857551 Y339.586926 Z-0.125000 I3.707977 J23.406511
G03 X-400.161334 Y339.721169 Z-0.125000 I-1.303783 J-6.264116
G01 X-401.386277 Y339.721169 Z-0.125000
G01 X-401.386277 Y342.170451 Z-0.125000
G03 X-405.172113 Y357.696441 Z-0.125000 I-33.729527 J0.000000
G03 X-413.590353 Y371.439151 Z-0.125000 I-100.470819 J-52.094748
G01 X-410.319816 Y372.750274 Z-0.125000
G01 X-410.319829 Y372.750184 Z-0.125000
G00 Z5.000000

(End cutting path id: path112)


(Start cutting path id: path112)
(Change tool to Default tool)

G00 Z5.000000
G00 X-415.472138 Y380.342282

G01 Z-0.125000 F100.0(Penetrate)
G02 X-415.381351 Y380.318382 Z-0.125000 I0.037814 J-0.040742 F400.000000
G02 X-415.675037 Y380.139688 Z-0.125000 I-0.168592 J-0.053601
G01 X-415.472138 Y380.342282 Z-0.125000
G00 Z5.000000

(End cutting path id: path112)


(Start cutting path id: path112)
(Change tool to Default tool)

G00 Z5.000000
G00 X-418.502672 Y382.467727

G01 Z-0.125000 F100.0(Penetrate)
G01 X-416.586485 Y380.993622 Z-0.125000 F400.000000
G01 X-418.502672 Y382.467727 Z-0.125000
G00 Z5.000000

(End cutting path id: path112)


(Start cutting path id: path112)
(Change tool to Default tool)

G00 Z5.000000
G00 X-424.254323 Y388.299142

G01 Z-0.125000 F100.0(Penetrate)
G03 X-431.977994 Y391.749403 Z-0.125000 I-20.288892 J-35.048082 F400.000000
G02 X-437.756523 Y394.393626 Z-0.125000 I8.691847 J26.630786
G02 X-435.907458 Y395.276587 Z-0.125000 I1.322009 J-0.390901
G02 X-425.842157 Y390.314130 Z-0.125000 I-32.648938 J-78.910414
G02 X-415.551778 Y383.728660 Z-0.125000 I-67.201003 J-116.340056
G02 X-412.852145 Y381.060760 Z-0.125000 I-6.675270 J-9.454489
G02 X-413.907913 Y381.078403 Z-0.125000 I-0.513085 J0.894389
G02 X-418.194798 Y383.939384 Z-0.125000 I39.615809 J64.002413
G02 X-422.408373 Y387.065170 Z-0.125000 I98.602270 J137.319227
G03 X-424.254323 Y388.299142 Z-0.125000 I-10.472409 J-13.668405
G01 X-424.254323 Y388.299142 Z-0.125000
G00 Z5.000000

(End cutting path id: path112)


(Start cutting path id: path112)
(Change tool to Default tool)

G00 Z5.000000
G00 X-426.532195 Y386.429241

G01 Z-0.125000 F100.0(Penetrate)
G03 X-421.416455 Y383.347200 Z-0.125000 I205.356575 J335.075241 F400.000000
G02 X-416.879598 Y379.400700 Z-0.125000 I-8.496529 J-14.348538
G01 X-419.937887 Y378.268285 Z-0.125000
G03 X-424.529852 Y381.405392 Z-0.125000 I-47.542265 J-64.661048
G03 X-429.284784 Y384.084877 Z-0.125000 I-28.354563 J-44.758409
G03 X-435.907170 Y386.861617 Z-0.125000 I-24.736201 J-49.709201
G02 X-439.843312 Y388.880629 Z-0.125000 I5.112033 J14.812444
G01 X-438.503464 Y391.604485 Z-0.125000
G03 X-433.112206 Y389.360732 Z-0.125000 I13.238695 J24.210859
G02 X-426.532221 Y386.429241 Z-0.125000 I-7.856367 J-26.484715
G01 X-426.532195 Y386.429241 Z-0.125000
G00 Z5.000000

(End cutting path id: path112)


(Start cutting path id: path112)
(Change tool to Default tool)

G00 Z5.000000
G00 X-428.807730 Y389.597895

G01 Z-0.125000 F100.0(Penetrate)
G01 X-418.886026 Y383.495262 Z-0.125000 F400.000000
G01 X-419.281237 Y382.929507 Z-0.125000
G03 X-421.527887 Y384.842664 Z-0.125000 I-5.084338 J-3.694900
G02 X-424.159856 Y386.352444 Z-0.125000 I13.086118 J25.861795
G03 X-425.434846 Y387.151428 Z-0.125000 I-31.003128 J-48.056876
G03 X-426.694109 Y387.900934 Z-0.125000 I-39.034047 J-64.149392
G03 X-428.499009 Y388.685445 Z-0.125000 I-4.239219 J-7.284546
G02 X-429.215963 Y389.189681 Z-0.125000 I0.402476 J1.334089
G01 X-428.807749 Y389.597895 Z-0.125000
G01 X-428.807730 Y389.597895 Z-0.125000
G00 Z5.000000

(End cutting path id: path112)


(Start cutting path id: path112)
(Change tool to Default tool)

G00 Z5.000000
G00 X-429.590856 Y389.634469

G01 Z-0.125000 F100.0(Penetrate)
G02 X-430.996479 Y389.960355 Z-0.125000 I0.706532 J6.241763 F400.000000
G02 X-431.900438 Y390.719108 Z-0.125000 I0.570273 J1.597264
G01 X-429.590856 Y389.634469 Z-0.125000
G00 Z5.000000

(End cutting path id: path112)


(Start cutting path id: path112)
(Change tool to Default tool)

G00 Z5.000000
G00 X-437.695298 Y392.604759

G01 Z-0.125000 F100.0(Penetrate)
G01 X-432.504021 Y390.707321 Z-0.125000 F400.000000
G01 X-437.695298 Y392.604759 Z-0.125000
G00 Z5.000000

(End cutting path id: path112)


(Start cutting path id: path112)
(Change tool to Default tool)

G00 Z5.000000
G00 X-440.315239 Y387.163433

G01 Z-0.125000 F100.0(Penetrate)
G02 X-429.935866 Y383.813043 Z-0.125000 I-1.349094 J-21.932073 F400.000000
G02 X-421.798953 Y377.690144 Z-0.125000 I-33.157468 J-52.532151
G02 X-427.504651 Y375.213629 Z-0.125000 I-9.099964 J13.154610
G02 X-434.863612 Y374.423841 Z-0.125000 I-7.358960 J33.889162
G01 X-441.395928 Y374.423841 Z-0.125000
G01 X-441.395928 Y380.956157 Z-0.125000
G01 X-441.209661 Y382.750786 Z-0.125000
G01 X-441.805653 Y383.784020 Z-0.125000
G01 X-440.315220 Y387.163433 Z-0.125000
G01 X-440.315239 Y387.163433 Z-0.125000
G00 Z5.000000

(End cutting path id: path112)


(Start cutting path id: path112)
(Change tool to Default tool)

G00 Z5.000000
G00 X-446.247586 Y383.400118

G01 Z-0.125000 F100.0(Penetrate)
G01 X-442.690982 Y382.108045 Z-0.125000 F400.000000
G02 X-443.360076 Y379.186320 Z-0.125000 I-23.326926 J3.804539
G02 X-445.442936 Y377.386668 Z-0.125000 I-2.446404 J0.726246
G01 X-444.320803 Y378.142015 Z-0.125000
G01 X-444.232811 Y379.321603 Z-0.125000
G01 X-444.283610 Y380.479418 Z-0.125000
G01 X-447.621590 Y380.705599 Z-0.125000
G01 X-446.247573 Y383.400113 Z-0.125000
G01 X-446.247586 Y383.400118 Z-0.125000
G00 Z5.000000

(End cutting path id: path112)


(Start cutting path id: path112)
(Change tool to Default tool)

G00 Z5.000000
G00 X-447.687712 Y380.141051

G01 Z-0.125000 F100.0(Penetrate)
G01 X-447.267705 Y377.746196 Z-0.125000 F400.000000
G01 X-448.394071 Y378.907943 Z-0.125000
G01 X-447.687712 Y380.141051 Z-0.125000
G00 Z5.000000

(End cutting path id: path112)


(Start cutting path id: path112)
(Change tool to Default tool)

G00 Z5.000000
G00 X-446.010837 Y378.356116

G01 Z-0.125000 F100.0(Penetrate)
G01 X-446.787955 Y379.561103 Z-0.125000 F400.000000
G01 X-445.086763 Y379.354879 Z-0.125000
G01 X-446.010837 Y378.356116 Z-0.125000
G00 Z5.000000

(End cutting path id: path112)


(Start cutting path id: path112)
(Change tool to Default tool)

G00 Z5.000000
G00 X-442.766928 Y378.494731

G01 Z-0.125000 F100.0(Penetrate)
G01 X-442.601225 Y376.873972 Z-0.125000 F400.000000
G01 X-442.620275 Y375.240209 Z-0.125000
G01 X-447.519453 Y375.240209 Z-0.125000
G01 X-449.083667 Y375.264709 Z-0.125000
G01 X-448.841460 Y377.260118 Z-0.125000
G01 X-446.334121 Y376.012797 Z-0.125000
G01 X-443.873348 Y376.526540 Z-0.125000
G01 X-442.766939 Y378.494736 Z-0.125000
G01 X-442.766928 Y378.494731 Z-0.125000
G00 Z5.000000

(End cutting path id: path112)


(Start cutting path id: path112)
(Change tool to Default tool)

G00 Z5.000000
G00 X-447.432418 Y370.662177

G01 Z-0.125000 F100.0(Penetrate)
G01 X-447.269133 Y368.474454 Z-0.125000 F400.000000
G01 X-445.888462 Y368.299377 Z-0.125000
G03 X-445.046633 Y368.360925 Z-0.125000 I0.296096 J1.737992
G02 X-444.379887 Y368.557911 Z-0.125000 I3.921891 J-12.047683
G01 X-444.338160 Y370.668527 Z-0.125000
G01 X-445.445175 Y371.588670 Z-0.125000
G01 X-446.348384 Y371.619211 Z-0.125000
G01 X-447.432418 Y370.662177 Z-0.125000
G00 Z5.000000

(End cutting path id: path112)


(Start cutting path id: path112)
(Change tool to Default tool)

G00 Z5.000000
G00 X-445.141886 Y369.185653

G01 Z-0.125000 F100.0(Penetrate)
G02 X-446.111608 Y369.490847 Z-0.125000 I0.018250 J1.751179 F400.000000
G02 X-446.635042 Y370.270594 Z-0.125000 I0.713819 J1.044737
G01 X-445.141886 Y370.326535 Z-0.125000
G01 X-445.141886 Y369.185653 Z-0.125000
G00 Z5.000000

(End cutting path id: path112)


(Start cutting path id: path112)
(Change tool to Default tool)

G00 Z5.000000
G00 X-441.092848 Y365.138427

G01 Z-0.125000 F100.0(Penetrate)
G02 X-436.709186 Y365.915889 Z-0.125000 I4.096846 J-10.352568 F400.000000
G03 X-426.938107 Y366.906143 Z-0.125000 I1.000600 J38.828745
G03 X-420.626813 Y368.840196 Z-0.125000 I-10.692231 J46.156097
G02 X-414.858597 Y370.749397 Z-0.125000 I22.991505 J-59.795329
G02 X-410.857105 Y366.473980 Z-0.125000 I-6.482567 J-10.077498
G02 X-406.200198 Y356.333245 Z-0.125000 I-65.182699 J-36.073365
G02 X-402.915070 Y345.444617 Z-0.125000 I-85.325539 J-31.682819
G02 X-402.202454 Y339.312703 Z-0.125000 I-26.232464 J-6.155950
G01 X-406.285208 Y339.407045 Z-0.125000
G01 X-414.042173 Y339.312703 Z-0.125000
G01 X-420.467465 Y339.514995 Z-0.125000
G01 X-422.493719 Y341.074371 Z-0.125000
G01 X-422.592294 Y347.785095 Z-0.125000
G03 X-425.351932 Y349.518885 Z-0.125000 I-12.054657 J-16.124029
G03 X-428.226563 Y350.032691 Z-0.125000 I-2.258947 J-4.339944
G02 X-430.754731 Y353.388100 Z-0.125000 I10.547951 J10.577605
G03 X-434.352189 Y358.196664 Z-0.125000 I-19.150504 J-10.577198
G03 X-439.550622 Y361.728141 Z-0.125000 I-11.583656 J-11.459606
G02 X-441.092864 Y365.138422 Z-0.125000 I1.083523 J2.543872
G01 X-441.092848 Y365.138427 Z-0.125000
G00 Z5.000000

(End cutting path id: path112)


(Start cutting path id: path112)
(Change tool to Default tool)

G00 Z5.000000
G00 X-440.239499 Y361.835476

G01 Z-0.125000 F100.0(Penetrate)
G01 X-434.910030 Y357.625141 Z-0.125000 F400.000000
G01 X-435.204246 Y357.208459 Z-0.125000
G01 X-440.648015 Y361.427262 Z-0.125000
G01 X-440.239499 Y361.835476 Z-0.125000
G00 Z5.000000

(End cutting path id: path112)


(Start cutting path id: path112)
(Change tool to Default tool)

G00 Z5.000000
G00 X-433.708318 Y356.119888

G01 Z-0.125000 F100.0(Penetrate)
G01 X-429.738964 Y350.489562 Z-0.125000 F400.000000
G01 X-434.116517 Y355.711372 Z-0.125000
G01 X-433.708302 Y356.119888 Z-0.125000
G01 X-433.708318 Y356.119888 Z-0.125000
G00 Z5.000000

(End cutting path id: path112)


(Start cutting path id: path112)
(Change tool to Default tool)

G00 Z5.000000
G00 X-429.762862 Y349.722126

G01 Z-0.125000 F100.0(Penetrate)
G02 X-429.672530 Y349.699574 Z-0.125000 I0.038088 J-0.039627 F400.000000
G02 X-429.965757 Y349.519529 Z-0.125000 I-0.168144 J-0.054957
G01 X-429.762862 Y349.722126 Z-0.125000
G00 Z5.000000

(End cutting path id: path112)


(Start cutting path id: path112)
(Change tool to Default tool)

G00 Z5.000000
G00 X-429.353665 Y348.905691

G01 Z-0.125000 F100.0(Penetrate)
G02 X-429.263061 Y348.881843 Z-0.125000 I0.037738 J-0.040661 F400.000000
G02 X-429.556561 Y348.702796 Z-0.125000 I-0.168645 J-0.053633
G01 X-429.353665 Y348.905691 Z-0.125000
G00 Z5.000000

(End cutting path id: path112)


(Start cutting path id: path112)
(Change tool to Default tool)

G00 Z5.000000
G00 X-427.304840 Y349.218939

G01 Z-0.125000 F100.0(Penetrate)
G01 X-428.263991 Y348.250716 Z-0.125000 F400.000000
G01 X-428.371941 Y346.626933 Z-0.125000
G01 X-427.533136 Y345.548644 Z-0.125000
G01 X-429.134241 Y347.819523 Z-0.125000
G01 X-427.304838 Y349.218939 Z-0.125000
G01 X-427.304840 Y349.218939 Z-0.125000
G00 Z5.000000

(End cutting path id: path112)


(Start cutting path id: path112)
(Change tool to Default tool)

G00 Z5.000000
G00 X-426.087653 Y348.905691

G01 Z-0.125000 F100.0(Penetrate)
G02 X-425.996338 Y348.881661 Z-0.125000 I0.038035 J-0.040980 F400.000000
G02 X-426.290247 Y348.702796 Z-0.125000 I-0.168717 J-0.053673
G01 X-426.087653 Y348.905691 Z-0.125000
G00 Z5.000000

(End cutting path id: path112)


(Start cutting path id: path112)
(Change tool to Default tool)

G00 Z5.000000
G00 X-425.716443 Y347.280398

G01 Z-0.125000 F100.0(Penetrate)
G01 X-426.911149 Y346.087808 Z-0.125000 F400.000000
G01 X-427.647142 Y347.725500 Z-0.125000
G01 X-427.350809 Y348.023950 Z-0.125000
G01 X-425.716443 Y347.280395 Z-0.125000
G01 X-425.716443 Y347.280398 Z-0.125000
G00 Z5.000000

(End cutting path id: path112)


(Start cutting path id: path112)
(Change tool to Default tool)

G00 Z5.000000
G00 X-424.658719 Y346.905108

G01 Z-0.125000 F100.0(Penetrate)
G02 X-425.452902 Y345.629559 Z-0.125000 I-2.319483 J0.559146 F400.000000
G02 X-426.994609 Y345.036699 Z-0.125000 I-1.646375 J1.980328
G01 X-424.658719 Y346.905108 Z-0.125000
G00 Z5.000000

(End cutting path id: path112)


(Start cutting path id: path112)
(Change tool to Default tool)

G00 Z5.000000
G00 X-422.208469 Y339.382817

G01 Z-0.125000 F100.0(Penetrate)
G01 X-421.727079 Y337.690997 Z-0.125000 F400.000000
G01 X-421.799950 Y336.454865 Z-0.125000
G01 X-422.103239 Y334.856784 Z-0.125000
G03 X-422.503673 Y337.424348 Z-0.125000 I-27.100544 J-2.911554
G02 X-422.208469 Y339.382820 Z-0.125000 I2.813622 J0.577382
G01 X-422.208469 Y339.382817 Z-0.125000
G00 Z5.000000

(End cutting path id: path112)


(Start cutting path id: path112)
(Change tool to Default tool)

G00 Z5.000000
G00 X-420.152643 Y334.370840

G01 Z-0.125000 F100.0(Penetrate)
G01 X-402.203941 Y334.411964 Z-0.125000 F400.000000
G02 X-404.486789 Y319.842104 Z-0.125000 I-47.340873 J-0.046268
G02 X-410.868664 Y307.559176 Z-0.125000 I-39.542236 J12.745684
G01 X-413.226929 Y307.457868 Z-0.125000
G01 X-416.085034 Y307.468186 Z-0.125000
G01 X-440.986687 Y308.361710 Z-0.125000
G02 X-438.645837 Y312.142158 Z-0.125000 I4.355255 J-0.081819
G03 X-433.742854 Y315.735876 Z-0.125000 I-9.297386 J17.826096
G03 X-430.158461 Y319.931049 Z-0.125000 I-24.477326 J24.542498
G03 X-427.896019 Y324.586257 Z-0.125000 I-12.034734 J8.726288
G03 X-424.490840 Y325.825200 Z-0.125000 I-0.163189 J5.747477
G02 X-422.175576 Y327.439811 Z-0.125000 I14.473121 J-18.286386
G01 X-422.268709 Y333.273051 Z-0.125000
G01 X-420.152651 Y334.370994 Z-0.125000
G01 X-420.152643 Y334.370840 Z-0.125000
G00 Z5.000000

(End cutting path id: path112)


(Start cutting path id: path112)
(Change tool to Default tool)

G00 Z5.000000
G00 X-425.446843 Y329.425085

G01 Z-0.125000 F100.0(Penetrate)
G01 X-424.389721 Y327.891110 Z-0.125000 F400.000000
G01 X-425.446843 Y329.425085 Z-0.125000
G00 Z5.000000

(End cutting path id: path112)


(Start cutting path id: path112)
(Change tool to Default tool)

G00 Z5.000000
G00 X-425.544647 Y328.275417

G01 Z-0.125000 F100.0(Penetrate)
G01 X-426.022711 Y326.726310 Z-0.125000 F400.000000
G02 X-426.779828 Y327.405492 Z-0.125000 I0.861784 J1.722260
G02 X-427.037501 Y328.219484 Z-0.125000 I1.366192 J0.880253
G01 X-425.544647 Y328.275417 Z-0.125000
G00 Z5.000000

(End cutting path id: path112)


(Start cutting path id: path112)
(Change tool to Default tool)

G00 Z5.000000
G00 X-424.393843 Y327.463517

G01 Z-0.125000 F100.0(Penetrate)
G01 X-425.434940 Y325.929862 Z-0.125000 F400.000000
G01 X-424.393843 Y327.463517 Z-0.125000
G00 Z5.000000

(End cutting path id: path112)


(Start cutting path id: path112)
(Change tool to Default tool)

G00 Z5.000000
G00 X-425.961497 Y325.857869

G01 Z-0.125000 F100.0(Penetrate)
G01 X-426.753431 Y325.584819 Z-0.125000 F400.000000
G01 X-425.961497 Y325.857869 Z-0.125000
G00 Z5.000000

(End cutting path id: path112)


(Start cutting path id: path112)
(Change tool to Default tool)

G00 Z5.000000
G00 X-428.132771 Y328.300817

G01 Z-0.125000 F100.0(Penetrate)
G01 X-427.863955 Y326.757769 Z-0.125000 F400.000000
G01 X-427.120704 Y325.959495 Z-0.125000
G01 X-428.875117 Y326.666144 Z-0.125000
G01 X-428.132774 Y328.300817 Z-0.125000
G01 X-428.132771 Y328.300817 Z-0.125000
G00 Z5.000000

(End cutting path id: path112)


(Start cutting path id: path112)
(Change tool to Default tool)

G00 Z5.000000
G00 X-426.847916 Y329.588071

G01 Z-0.125000 F100.0(Penetrate)
G01 X-427.932556 Y328.892001 Z-0.125000 F400.000000
G01 X-426.847916 Y329.588071 Z-0.125000
G00 Z5.000000

(End cutting path id: path112)


(Start cutting path id: path112)
(Change tool to Default tool)

G00 Z5.000000
G00 X-440.173779 Y311.958795

G01 Z-0.125000 F100.0(Penetrate)
G02 X-437.769494 Y314.266786 Z-0.125000 I7.310895 J-5.209623 F400.000000
G03 X-433.332113 Y318.181496 Z-0.125000 I-11.219240 J17.189450
G03 X-430.557676 Y322.895198 Z-0.125000 I-12.245120 J10.380706
G02 X-428.334060 Y325.839586 Z-0.125000 I6.117650 J-2.308240
G02 X-432.642827 Y317.671073 Z-0.125000 I-163.994580 J81.283992
G02 X-440.173779 Y311.958795 Z-0.125000 I-10.314496 J5.777955
G01 X-440.173779 Y311.958795 Z-0.125000
G00 Z5.000000

(End cutting path id: path112)


(Start cutting path id: path112)
(Change tool to Default tool)

G00 Z5.000000
G00 X-441.024498 Y307.058691

G01 Z-0.125000 F100.0(Penetrate)
G02 X-425.349485 Y306.646892 Z-0.125000 I-0.003617 J-298.537987 F400.000000
G03 X-409.961660 Y306.242876 Z-0.125000 I15.382295 J292.491472
G02 X-406.089932 Y306.113506 Z-0.125000 I-0.000000 J-58.000533
G03 X-402.481079 Y306.047534 Z-0.125000 I2.483674 J37.123765
G02 X-399.933072 Y305.400398 Z-0.125000 I0.144148 J-4.772212
G03 X-396.873427 Y304.225087 Z-0.125000 I5.151017 J8.839265
G03 X-389.876109 Y304.472205 Z-0.125000 I2.996180 J14.351565
G02 X-383.015919 Y305.426426 Z-0.125000 I6.860190 J-24.182913
G01 X-377.708543 Y305.426426 Z-0.125000
G01 X-312.796808 Y303.689862 Z-0.125000
G01 X-313.832463 Y298.521577 Z-0.125000
G01 X-313.456905 Y298.264852 Z-0.125000
G01 X-316.111202 Y296.419121 Z-0.125000
G01 X-332.326674 Y297.392495 Z-0.125000
G03 X-341.161590 Y300.202869 Z-0.125000 I-5.928245 J-3.344243
G02 X-349.538169 Y298.485911 Z-0.125000 I-7.710811 J16.326954
G01 X-440.912701 Y302.000182 Z-0.125000
G01 X-441.024583 Y307.058718 Z-0.125000
G01 X-441.024498 Y307.058691 Z-0.125000
G00 Z5.000000

(End cutting path id: path112)


(Start cutting path id: path112)
(Change tool to Default tool)

G00 Z5.000000
G00 X-445.058992 Y306.090132

G01 Z-0.125000 F100.0(Penetrate)
G01 X-443.528342 Y305.061142 Z-0.125000 F400.000000
G01 X-445.058992 Y306.090132 Z-0.125000
G00 Z5.000000

(End cutting path id: path112)


(Start cutting path id: path112)
(Change tool to Default tool)

G00 Z5.000000
G00 X-444.734111 Y305.000685

G01 Z-0.125000 F100.0(Penetrate)
G01 X-445.393602 Y303.381437 Z-0.125000 F400.000000
G01 X-445.999876 Y304.874585 Z-0.125000
G01 X-444.734111 Y305.000685 Z-0.125000
G00 Z5.000000

(End cutting path id: path112)


(Start cutting path id: path112)
(Change tool to Default tool)

G00 Z5.000000
G00 X-447.521863 Y304.201486

G01 Z-0.125000 F100.0(Penetrate)
G02 X-446.793355 Y305.574813 Z-0.125000 I3.046220 J-0.736036 F400.000000
G02 X-445.515567 Y306.137942 Z-0.125000 I1.273948 J-1.159428
G01 X-447.233089 Y304.749120 Z-0.125000
G01 X-447.056803 Y303.485762 Z-0.125000
G01 X-445.095864 Y302.414439 Z-0.125000
G01 X-443.579124 Y303.796621 Z-0.125000
G02 X-444.049117 Y302.870709 Z-0.125000 I-1.563084 J0.211181
G02 X-445.037505 Y302.125356 Z-0.125000 I-3.596800 J3.741591
G01 X-447.032009 Y302.678705 Z-0.125000
G01 X-447.521866 Y304.201512 Z-0.125000
G01 X-447.521863 Y304.201486 Z-0.125000
G00 Z5.000000

(End cutting path id: path112)


(Start cutting path id: path112)
(Change tool to Default tool)

G00 Z5.000000
G00 X-442.419814 Y302.469737

G01 Z-0.125000 F100.0(Penetrate)
G01 X-442.938095 Y306.176307 Z-0.125000 F400.000000
G01 X-441.879157 Y306.225308 Z-0.125000
G01 X-441.795398 Y304.609975 Z-0.125000
G01 X-441.807198 Y304.201459 Z-0.125000
G01 X-442.419822 Y302.469737 Z-0.125000
G01 X-442.419814 Y302.469737 Z-0.125000
G00 Z5.000000

(End cutting path id: path112)


(Start cutting path id: path112)
(Change tool to Default tool)

G00 Z5.000000
G00 X-465.908926 Y303.454912

G01 Z-0.125000 F100.0(Penetrate)
G01 X-467.526359 Y304.606986 Z-0.125000 F400.000000
G01 X-466.014759 Y305.100750 Z-0.125000
G01 X-465.908926 Y303.454912 Z-0.125000
G00 Z5.000000

(End cutting path id: path112)


(Start cutting path id: path112)
(Change tool to Default tool)

G00 Z5.000000
G00 X-469.541519 Y306.208401

G01 Z-0.125000 F100.0(Penetrate)
G01 X-468.984836 Y305.059052 Z-0.125000 F400.000000
G01 X-467.841837 Y306.149134 Z-0.125000
G01 X-466.711840 Y306.263117 Z-0.125000
G01 X-465.587286 Y306.191758 Z-0.125000
G01 X-464.677120 Y305.141602 Z-0.125000
G01 X-465.843101 Y305.889393 Z-0.125000
G01 X-467.425458 Y305.785968 Z-0.125000
G01 X-468.273634 Y303.933278 Z-0.125000
G01 X-467.485629 Y302.635763 Z-0.125000
G01 X-465.594239 Y302.591922 Z-0.125000
G01 X-464.827705 Y303.790853 Z-0.125000
G01 X-465.501106 Y302.206689 Z-0.125000
G01 X-469.556343 Y303.012238 Z-0.125000
G01 X-469.541527 Y306.208401 Z-0.125000
G01 X-469.541519 Y306.208401 Z-0.125000
G00 Z5.000000

(End cutting path id: path112)


(Start cutting path id: path112)
(Change tool to Default tool)

G00 Z5.000000
G00 X-471.610473 Y311.142054

G01 Z-0.125000 F100.0(Penetrate)
G03 X-475.236795 Y314.072569 Z-0.125000 I-7.067912 J-5.037154 F400.000000
G02 X-479.775663 Y319.307535 Z-0.125000 I3.166355 J7.330470
G01 X-471.403040 Y311.333162 Z-0.125000
G01 X-471.610473 Y311.142054 Z-0.125000
G00 Z5.000000

(End cutting path id: path112)


(Start cutting path id: path112)
(Change tool to Default tool)

G00 Z5.000000
G00 X-482.452828 Y324.195150

G01 Z-0.125000 F100.0(Penetrate)
G01 X-480.214003 Y320.231855 Z-0.125000 F400.000000
G02 X-482.317340 Y320.849704 Z-0.125000 I-0.270276 J2.969011
G02 X-483.514173 Y322.627602 Z-0.125000 I2.119529 J2.718598
G01 X-482.452817 Y324.195150 Z-0.125000
G01 X-482.452828 Y324.195150 Z-0.125000
G00 Z5.000000

(End cutting path id: path112)


(Start cutting path id: path112)
(Change tool to Default tool)

G00 Z5.000000
G00 X-485.491085 Y338.087959

G01 Z-0.125000 F100.0(Penetrate)
G02 X-485.101651 Y343.608389 Z-0.125000 I39.322285 J0.000000 F400.000000
G02 X-482.633297 Y347.886288 Z-0.125000 I6.551055 J-0.928898
G02 X-483.873033 Y343.958707 Z-0.125000 I-29.439232 J7.133009
G03 X-484.674367 Y339.721097 Z-0.125000 I10.803987 J-4.237610
G01 X-484.674367 Y333.188781 Z-0.125000
G03 X-484.443980 Y331.075362 Z-0.125000 I9.808730 J0.000000
G03 X-483.915392 Y329.048581 Z-0.125000 I26.952996 J5.947060
G02 X-483.630972 Y327.995777 Z-0.125000 I-17.690046 J-5.343877
G03 X-483.390158 Y327.124243 Z-0.125000 I12.481463 J2.979719
G03 X-483.231638 Y326.697710 Z-0.125000 I4.280848 J1.348240
G03 X-483.024581 Y326.264559 Z-0.125000 I5.601341 J2.411527
G03 X-482.726830 Y326.077628 Z-0.125000 I0.310068 J0.163287
G02 X-482.633300 Y325.839719 Z-0.125000 I-0.004898 J-0.139265
G01 X-482.973477 Y325.363469 Z-0.125000
G02 X-484.854422 Y330.260582 Z-0.125000 I20.857245 J10.820900
G02 X-485.491098 Y335.229857 Z-0.125000 I19.074335 J4.969274
G01 X-485.491098 Y338.087961 Z-0.125000
G01 X-485.491085 Y338.087959 Z-0.125000
G00 Z5.000000

(End cutting path id: path112)


(Start cutting path id: path112)
(Change tool to Default tool)

G00 Z5.000000
G00 X-480.965567 Y353.561130

G01 Z-0.125000 F100.0(Penetrate)
G01 X-479.831641 Y353.046175 Z-0.125000 F400.000000
G01 X-482.149388 Y348.999404 Z-0.125000
G01 X-483.697577 Y351.493136 Z-0.125000
G01 X-482.546718 Y353.071561 Z-0.125000
G01 X-480.965570 Y353.561117 Z-0.125000
G01 X-480.965567 Y353.561130 Z-0.125000
G00 Z5.000000

(End cutting path id: path112)


(Start cutting path id: path112)
(Change tool to Default tool)

G00 Z5.000000
G00 X-479.774496 Y354.010466

G01 Z-0.125000 F100.0(Penetrate)
G02 X-475.769727 Y358.610779 Z-0.125000 I19.348870 J-12.800701 F400.000000
G02 X-471.201108 Y361.767431 Z-0.125000 I15.592840 J-17.683098
G02 X-477.255565 Y355.295850 Z-0.125000 I-25.541886 J17.827694
G02 X-479.774496 Y354.010466 Z-0.125000 I-4.364542 J5.442238
G01 X-479.774496 Y354.010466 Z-0.125000
G00 Z5.000000

(End cutting path id: path112)


(Start cutting path id: path112)
(Change tool to Default tool)

G00 Z5.000000
G00 X-469.905085 Y372.452359

G01 Z-0.125000 F100.0(Penetrate)
G02 X-469.310747 Y373.622918 Z-0.125000 I1.260915 J0.095949 F400.000000
G02 X-467.933563 Y374.015364 Z-0.125000 I1.377184 J-2.220202
G01 X-442.620987 Y374.015364 Z-0.125000
G01 X-442.660598 Y372.007256 Z-0.125000
G01 X-445.436444 Y373.654322 Z-0.125000
G01 X-449.105522 Y371.983668 Z-0.125000
G01 X-449.163278 Y367.891548 Z-0.125000
G01 X-446.711273 Y366.268067 Z-0.125000
G03 X-444.464510 Y366.671984 Z-0.125000 I-0.188591 J7.499725
G03 X-443.099345 Y368.229609 Z-0.125000 I-0.675946 J1.969482
G01 X-447.631731 Y367.754267 Z-0.125000
G01 X-447.970397 Y368.159156 Z-0.125000
G01 X-447.976456 Y371.705176 Z-0.125000
G01 X-445.074219 Y372.556983 Z-0.125000
G01 X-442.321048 Y371.045383 Z-0.125000
G01 X-442.652456 Y367.077538 Z-0.125000
G01 X-442.621011 Y366.666603 Z-0.125000
G01 X-442.345844 Y363.014141 Z-0.125000
G03 X-437.696339 Y357.400079 Z-0.125000 I16.604510 J9.019309
G02 X-430.373093 Y348.294568 Z-0.125000 I-17.861302 J-21.862897
G03 X-433.917388 Y348.180673 Z-0.125000 I-0.000000 J-55.204118
G03 X-442.330125 Y347.244249 Z-0.125000 I5.832467 J-90.656072
G03 X-450.072216 Y345.415273 Z-0.125000 I8.377181 J-52.761463
G03 X-452.011141 Y343.395391 Z-0.125000 I0.882145 J-2.787336
G03 X-447.545415 Y344.479456 Z-0.125000 I-0.225156 J10.667655
G02 X-441.413613 Y346.270429 Z-0.125000 I8.251094 J-16.857196
G03 X-435.445610 Y347.098810 Z-0.125000 I-13.732106 J120.844054
G02 X-429.626519 Y347.407985 Z-0.125000 I4.314185 J-26.282587
G01 X-427.781696 Y344.018597 Z-0.125000
G03 X-425.072941 Y345.277392 Z-0.125000 I-0.451109 J4.514557
G03 X-423.537493 Y347.034844 Z-0.125000 I-9.890000 J10.190151
G01 X-423.449498 Y344.211214 Z-0.125000
G01 X-423.432565 Y330.739256 Z-0.125000
G01 X-423.478528 Y329.138751 Z-0.125000
G01 X-425.800509 Y330.837228 Z-0.125000
G03 X-428.294168 Y329.075766 Z-0.125000 I1.232950 J-4.391294
G02 X-429.661595 Y327.169645 Z-0.125000 I-123.410059 J87.089267
G02 X-435.339680 Y327.604653 Z-0.125000 I-0.782386 J27.062697
G02 X-441.034431 Y329.059826 Z-0.125000 I7.781264 J42.322266
G02 X-447.038121 Y331.395286 Z-0.125000 I19.257502 J58.389106
G03 X-450.786510 Y332.372127 Z-0.125000 I-4.745860 J-10.530886
G03 X-449.059596 Y330.457701 Z-0.125000 I2.769223 J0.761889
G03 X-441.457009 Y328.069249 Z-0.125000 I21.602833 J55.469150
G03 X-433.277699 Y326.488083 Z-0.125000 I21.095043 J87.177659
G03 X-429.964887 Y326.248314 Z-0.125000 I3.312812 J22.766135
G02 X-435.693865 Y317.421204 Z-0.125000 I-11.222928 J1.011246
G03 X-442.282971 Y307.129705 Z-0.125000 I6.305942 J-11.292443
G01 X-445.057018 Y308.275138 Z-0.125000
G01 X-448.320306 Y306.703965 Z-0.125000
G01 X-448.354474 Y305.019100 Z-0.125000
G01 X-448.336932 Y303.793552 Z-0.125000
G01 X-448.294295 Y302.262913 Z-0.125000
G03 X-445.228661 Y301.253029 Z-0.125000 I2.569967 J2.643462
G03 X-442.317735 Y302.125620 Z-0.125000 I-1.311566 J9.666980
G01 X-441.812458 Y300.932113 Z-0.125000
G03 X-443.173396 Y300.707393 Z-0.125000 I0.780282 J-8.958882
G02 X-444.662388 Y300.527539 Z-0.125000 I-1.488991 J6.073681
G01 X-446.295545 Y300.527539 Z-0.125000
G01 X-449.548857 Y301.010430 Z-0.125000
G01 X-454.461026 Y300.935764 Z-0.125000
G01 X-460.588768 Y300.593156 Z-0.125000
G01 X-467.525367 Y300.527539 Z-0.125000
G01 X-469.281291 Y300.692348 Z-0.125000
G01 X-469.583368 Y302.079953 Z-0.125000
G02 X-467.319505 Y301.563575 Z-0.125000 I-5.684222 J-30.140983
G03 X-463.547859 Y302.265320 Z-0.125000 I1.152123 J4.294264
G01 X-463.269669 Y306.370431 Z-0.125000
G01 X-465.893123 Y308.407562 Z-0.125000
G01 X-469.049968 Y306.699414 Z-0.125000
G03 X-472.808426 Y313.695212 Z-0.125000 I-10.037725 J-0.885212
G02 X-478.392923 Y319.463506 Z-0.125000 I19.471916 J24.438901
G02 X-482.453737 Y327.179723 Z-0.125000 I22.521137 J16.778851
G02 X-483.856033 Y335.638449 Z-0.125000 I24.810605 J8.458726
G01 X-483.856033 Y336.863090 Z-0.125000
G02 X-482.391351 Y345.749229 Z-0.125000 I27.688176 J0.000000
G02 X-478.210599 Y353.672128 Z-0.125000 I26.822139 J-9.088996
G02 X-475.603122 Y356.701937 Z-0.125000 I24.126511 J-18.126549
G02 X-472.505581 Y359.398921 Z-0.125000 I18.910387 J-18.591677
G03 X-470.282346 Y363.333912 Z-0.125000 I-3.322681 J4.472836
G02 X-469.865799 Y366.998644 Z-0.125000 I111.251521 J-10.789194
G01 X-467.529002 Y365.810590 Z-0.125000
G01 X-464.166232 Y367.301327 Z-0.125000
G01 X-463.871410 Y371.860013 Z-0.125000
G01 X-466.661173 Y373.661900 Z-0.125000
G01 X-469.905119 Y372.452377 Z-0.125000
G01 X-469.905085 Y372.452359 Z-0.125000
G00 Z5.000000

(End cutting path id: path112)


(Start cutting path id: path112)
(Change tool to Default tool)

G00 Z5.000000
G00 X-466.808993 Y372.742770

G01 Z-0.125000 F100.0(Penetrate)
G01 X-466.656593 Y371.633638 Z-0.125000 F400.000000
G01 X-465.552300 Y371.897012 Z-0.125000
G01 X-465.679604 Y370.410812 Z-0.125000
G01 X-466.658712 Y371.212121 Z-0.125000
G03 X-467.993542 Y370.874935 Z-0.125000 I0.233205 J-3.733911
G03 X-468.680732 Y370.002598 Z-0.125000 I0.512769 J-1.110775
G01 X-467.099283 Y370.425325 Z-0.125000
G01 X-466.318234 Y369.231225 Z-0.125000
G01 X-468.677708 Y369.471919 Z-0.125000
G01 X-467.709787 Y367.733836 Z-0.125000
G01 X-465.138342 Y369.444402 Z-0.125000
G01 X-466.946880 Y367.313829 Z-0.125000
G01 X-469.718493 Y368.115137 Z-0.125000
G01 X-470.030550 Y369.926094 Z-0.125000
G01 X-469.864543 Y371.402618 Z-0.125000
G01 X-466.808979 Y372.742768 Z-0.125000
G01 X-466.808993 Y372.742770 Z-0.125000
G00 Z5.000000

(End cutting path id: path112)


(Start cutting path id: path112)
(Change tool to Default tool)

G00 Z5.000000
G00 X-464.872113 Y377.484333

G01 Z-0.125000 F100.0(Penetrate)
G02 X-464.780799 Y377.460302 Z-0.125000 I0.038034 J-0.040980 F400.000000
G02 X-465.074709 Y377.281438 Z-0.125000 I-0.168718 J-0.053672
G01 X-464.872113 Y377.484333 Z-0.125000
G00 Z5.000000

(End cutting path id: path112)


(Start cutting path id: path112)
(Change tool to Default tool)

G00 Z5.000000
G00 X-463.547118 Y377.246505

G01 Z-0.125000 F100.0(Penetrate)
G01 X-463.064820 Y375.139517 Z-0.125000 F400.000000
G01 X-465.068695 Y374.776659 Z-0.125000
G01 X-467.116417 Y374.831693 Z-0.125000
G01 X-469.049839 Y375.092950 Z-0.125000
G01 X-469.160210 Y377.615106 Z-0.125000
G03 X-468.003926 Y376.599309 Z-0.125000 I5.436676 J5.022580
G03 X-466.299988 Y376.056635 Z-0.125000 I1.703938 J2.403756
G03 X-464.777823 Y376.459488 Z-0.125000 I-0.000000 J3.077148
G03 X-463.547108 Y377.246502 Z-0.125000 I-7.020318 J12.334014
G01 X-463.547118 Y377.246505 Z-0.125000
G00 Z5.000000

(End cutting path id: path112)


(Start cutting path id: path112)
(Change tool to Default tool)

G00 Z5.000000
G00 X-464.490293 Y379.357594

G01 Z-0.125000 F100.0(Penetrate)
G01 X-464.671419 Y378.149585 Z-0.125000 F400.000000
G01 X-464.490293 Y379.357594 Z-0.125000
G00 Z5.000000

(End cutting path id: path112)


(Start cutting path id: path112)
(Change tool to Default tool)

G00 Z5.000000
G00 X-466.264851 Y378.120557

G01 Z-0.125000 F100.0(Penetrate)
G01 X-466.752592 Y379.201265 Z-0.125000 F400.000000
G01 X-465.553049 Y379.305588 Z-0.125000
G01 X-466.264854 Y378.120557 Z-0.125000
G01 X-466.264851 Y378.120557 Z-0.125000
G00 Z5.000000

(End cutting path id: path112)


(Start cutting path id: path112)
(Change tool to Default tool)

G00 Z5.000000
G00 X-466.307714 Y383.840688

G01 Z-0.125000 F100.0(Penetrate)
G01 X-465.001430 Y380.673868 Z-0.125000 F400.000000
G01 X-467.013470 Y380.500907 Z-0.125000
G01 X-467.836853 Y379.635493 Z-0.125000
G01 X-467.677500 Y377.746522 Z-0.125000
G01 X-468.542914 Y378.809994 Z-0.125000
G01 X-469.177611 Y378.680878 Z-0.125000
G01 X-468.626371 Y380.135934 Z-0.125000
G01 X-469.478177 Y382.870373 Z-0.125000
G01 X-466.307706 Y383.840712 Z-0.125000
G01 X-466.307714 Y383.840688 Z-0.125000
G00 Z5.000000

(End cutting path id: path112)


(Start cutting path id: path112)
(Change tool to Default tool)

G00 Z5.000000
G00 X-467.116581 Y388.712812

G01 Z-0.125000 F100.0(Penetrate)
G03 X-456.579904 Y389.472808 Z-0.125000 I-0.066401 J74.341460 F400.000000
G02 X-444.930000 Y388.444602 Z-0.125000 I3.640549 J-25.264074
G02 X-446.065167 Y385.288538 Z-0.125000 I-3.882098 J-0.385874
G03 X-450.377685 Y375.240243 Z-0.125000 I10.270481 J-10.357444
G01 X-458.542875 Y375.240243 Z-0.125000
G01 X-461.921970 Y374.866501 Z-0.125000
G01 X-461.540063 Y375.272901 Z-0.125000
G01 X-467.116573 Y388.712818 Z-0.125000
G01 X-467.116581 Y388.712812 Z-0.125000
G00 Z5.000000

(End cutting path id: path112)


(Start cutting path id: path112)
(Change tool to Default tool)

G00 Z5.000000
G00 X-474.057122 Y391.162703

G01 Z-0.125000 F100.0(Penetrate)
G02 X-475.517904 Y386.888199 Z-0.125000 I-2.055846 J-1.684287 F400.000000
G03 X-481.394697 Y384.627661 Z-0.125000 I5.002156 J-21.773583
G03 X-486.750811 Y381.464101 Z-0.125000 I60.630112 J-108.766656
G03 X-491.798100 Y377.875212 Z-0.125000 I27.542179 J-44.077977
G03 X-500.241177 Y368.847802 Z-0.125000 I27.569342 J-34.246801
G03 X-506.228298 Y358.011220 Z-0.125000 I47.848097 J-33.507882
G03 X-510.750377 Y330.708534 Z-0.125000 I54.890636 J-23.117239
G03 X-500.848030 Y304.764677 Z-0.125000 I47.750504 J3.363879
G03 X-480.825958 Y287.970215 Z-0.125000 I48.661525 J37.681221
G03 X-455.309326 Y281.811573 Z-0.125000 I24.960863 J47.478561
G03 X-441.431185 Y283.784618 Z-0.125000 I-0.556744 J53.711105
G03 X-428.521621 Y289.286413 Z-0.125000 I-14.458259 J51.821836
G03 X-423.141895 Y292.648732 Z-0.125000 I-64.645210 J109.417570
G03 X-418.630159 Y296.556545 Z-0.125000 I-12.662477 J19.177771
G02 X-414.733319 Y299.478390 Z-0.125000 I9.129884 J-8.116935
G02 X-412.644236 Y299.922610 Z-0.125000 I1.979810 J-4.176284
G02 X-412.062912 Y299.243544 Z-0.125000 I-0.014202 J-0.600517
G02 X-413.436474 Y296.770646 Z-0.125000 I-3.819927 J0.503845
G02 X-422.716072 Y289.262340 Z-0.125000 I-495.310530 J602.671266
G02 X-433.764015 Y282.688771 Z-0.125000 I-29.562303 J37.113509
G02 X-448.095853 Y278.718245 Z-0.125000 I-22.281921 J52.576795
G02 X-462.939318 Y278.576993 Z-0.125000 I-7.961273 J56.626914
G02 X-487.037885 Y286.943540 Z-0.125000 I7.245582 J59.759197
G02 X-505.321281 Y304.782510 Z-0.125000 I29.752045 J48.782198
G02 X-514.321778 Y331.273861 Z-0.125000 I48.534599 J31.264386
G02 X-509.934101 Y358.858769 Z-0.125000 I58.430871 J4.847347
G02 X-495.962347 Y379.317789 Z-0.125000 I57.213311 J-24.071515
G02 X-474.057175 Y391.162766 Z-0.125000 I31.942567 J-32.894735
G01 X-474.057122 Y391.162703 Z-0.125000
G00 Z5.000000

(End cutting path id: path112)


(Start cutting path id: path112)
(Change tool to Default tool)

G00 Z5.000000
G00 X-460.992440 Y394.020506

G01 Z-0.125000 F100.0(Penetrate)
G03 X-452.957453 Y394.137273 Z-0.125000 I-0.000000 J276.510426 F400.000000
G02 X-443.011088 Y392.719967 Z-0.125000 I0.859787 J-29.575615
G01 X-444.250546 Y389.521979 Z-0.125000
G03 X-456.064483 Y391.048299 Z-0.125000 I-8.067693 J-15.961154
G02 X-467.904266 Y389.966780 Z-0.125000 I-10.406786 J48.578892
G01 X-468.772704 Y392.676718 Z-0.125000
G01 X-461.425155 Y394.176224 Z-0.125000
G01 X-460.992448 Y394.020495 Z-0.125000
G01 X-460.992440 Y394.020506 Z-0.125000
G00 Z5.000000

(End cutting path id: path112)


(Start cutting path id: path112)
(Change tool to Default tool)

G00 Z5.000000
G00 X-457.305714 Y395.925183

G01 Z-0.125000 F100.0(Penetrate)
G02 X-458.122246 Y395.403516 Z-0.125000 I-1.211655 J0.996660 F400.000000
G02 X-459.359785 Y395.245128 Z-0.125000 I-1.237539 J4.755462
G01 X-460.992641 Y395.245128 Z-0.125000
G01 X-469.553938 Y393.944288 Z-0.125000
G02 X-466.015508 Y395.216311 Z-0.125000 I4.253612 J-6.274922
G02 X-461.391791 Y395.551743 Z-0.125000 I9.912287 J-104.599250
G01 X-457.305730 Y395.925183 Z-0.125000
G01 X-457.305714 Y395.925183 Z-0.125000
G00 Z5.000000

(End cutting path id: path112)


(Start cutting path id: path112)
(Change tool to Default tool)

G00 Z5.000000
G00 X-456.501987 Y395.245128

G01 Z-0.125000 F100.0(Penetrate)
G03 X-456.241777 Y395.581555 Z-0.125000 I-2.376608 J2.107041 F400.000000
G02 X-455.475405 Y395.948467 Z-0.125000 I0.694193 J-0.466148
G02 X-455.014878 Y395.858888 Z-0.125000 I-0.192632 J-2.218913
G03 X-453.643885 Y395.653343 Z-0.125000 I1.370993 J4.469510
G01 X-450.786098 Y395.653343 Z-0.125000
G01 X-444.213856 Y394.680887 Z-0.125000
G01 X-450.779139 Y395.291695 Z-0.125000
G01 X-456.501990 Y395.245128 Z-0.125000
G01 X-456.501987 Y395.245128 Z-0.125000
G00 Z5.000000

(End cutting path id: path112)


(Start cutting path id: path112)
(Change tool to Default tool)

G00 Z5.000000
G00 X-460.191632 Y398.204656

G01 Z-0.125000 F100.0(Penetrate)
G01 X-451.602500 Y398.103358 Z-0.125000 F400.000000
G03 X-445.445499 Y398.156603 Z-0.125000 I-0.000000 J356.008594
G02 X-441.804171 Y395.653470 Z-0.125000 I0.065805 J-3.804374
G02 X-448.406524 Y396.128740 Z-0.125000 I-0.083767 J44.933225
G03 X-456.259769 Y397.126668 Z-0.125000 I-29.922582 J-204.077521
G03 X-462.921956 Y397.099018 Z-0.125000 I-3.207656 J-29.755848
G03 X-469.426319 Y395.315410 Z-0.125000 I2.571511 J-22.129317
G01 X-470.408451 Y396.638023 Z-0.125000
G01 X-460.191605 Y398.204656 Z-0.125000
G01 X-460.191632 Y398.204656 Z-0.125000
G00 Z5.000000

(End cutting path id: path112)


(Start cutting path id: path112)
(Change tool to Default tool)

G00 Z5.000000
G00 X-460.606492 Y408.856236

G01 Z-0.125000 F100.0(Penetrate)
G01 X-450.377872 Y408.718047 Z-0.125000 F400.000000
G01 X-437.720222 Y406.684840 Z-0.125000
G01 X-441.256876 Y397.639118 Z-0.125000
G01 X-451.174347 Y399.446749 Z-0.125000
G01 X-459.768002 Y399.327914 Z-0.125000
G01 X-470.799764 Y397.752208 Z-0.125000
G01 X-474.126260 Y406.702072 Z-0.125000
G01 X-460.606519 Y408.856230 Z-0.125000
G01 X-460.606492 Y408.856236 Z-0.125000
G00 Z5.000000

(End cutting path id: path112)


(Start cutting path id: path112)
(Change tool to Default tool)

G00 Z5.000000
G00 X-459.776469 Y413.298600

G01 Z-0.125000 F100.0(Penetrate)
G01 X-452.010429 Y413.209094 Z-0.125000 F400.000000
G01 X-436.108223 Y410.979946 Z-0.125000
G01 X-437.412996 Y407.558199 Z-0.125000
G01 X-452.374477 Y410.220063 Z-0.125000
G01 X-457.726303 Y409.942780 Z-0.125000
G01 X-474.375982 Y407.840025 Z-0.125000
G01 X-475.788403 Y410.764355 Z-0.125000
G01 X-475.456388 Y411.063107 Z-0.125000
G01 X-463.050620 Y412.970827 Z-0.125000
G01 X-459.776432 Y413.298608 Z-0.125000
G01 X-459.776469 Y413.298600 Z-0.125000
G00 Z5.000000

(End cutting path id: path112)


(Start cutting path id: path112)
(Change tool to Default tool)

G00 Z5.000000
G00 X-458.988313 Y420.805966

G01 Z-0.125000 F100.0(Penetrate)
G01 X-455.684492 Y420.558012 Z-0.125000 F400.000000
G02 X-443.180457 Y420.391417 Z-0.125000 I-0.000000 J-469.338792
G02 X-433.647003 Y417.300757 Z-0.125000 I-0.471840 J-17.704217
G01 X-435.536883 Y411.909322 Z-0.125000
G01 X-451.974604 Y414.664928 Z-0.125000
G01 X-459.359037 Y414.434212 Z-0.125000
G01 X-476.177440 Y412.203248 Z-0.125000
G01 X-478.522704 Y417.832357 Z-0.125000
G01 X-458.988303 Y420.805979 Z-0.125000
G01 X-458.988313 Y420.805966 Z-0.125000
G00 Z5.000000

(End cutting path id: path112)


(Start cutting path id: path112)
(Change tool to Default tool)

G00 Z5.000000
G00 X-461.844161 Y423.639282

G01 Z-0.125000 F100.0(Penetrate)
G01 X-450.375467 Y423.415823 Z-0.125000 F400.000000
G01 X-432.310349 Y420.567693 Z-0.125000
G01 X-432.388967 Y420.109586 Z-0.125000
G01 X-451.147134 Y423.272490 Z-0.125000
G01 X-459.344683 Y423.007606 Z-0.125000
G01 X-480.149982 Y420.594910 Z-0.125000
G01 X-461.844172 Y423.639282 Z-0.125000
G01 X-461.844161 Y423.639282 Z-0.125000
G00 Z5.000000

(End cutting path id: path112)


(Start cutting path id: path112)
(Change tool to Default tool)

G00 Z5.000000
G00 X-459.019129 Y429.578784

G01 Z-0.125000 F100.0(Penetrate)
G01 X-458.948975 Y429.131562 Z-0.125000 F400.000000
G01 X-454.049798 Y429.131562 Z-0.125000
G01 X-453.966645 Y429.655889 Z-0.125000
G01 X-430.069217 Y425.859202 Z-0.125000
G01 X-429.993017 Y425.286795 Z-0.125000
G01 X-431.829675 Y421.260292 Z-0.125000
G01 X-431.987518 Y421.775548 Z-0.125000
G01 X-454.796398 Y425.118369 Z-0.125000
G01 X-454.866549 Y424.640609 Z-0.125000
G01 X-457.316136 Y424.640609 Z-0.125000
G01 X-457.378125 Y425.068781 Z-0.125000
G01 X-480.126812 Y421.766785 Z-0.125000
G01 X-481.947143 Y425.988631 Z-0.125000
G01 X-459.019148 Y429.578784 Z-0.125000
G01 X-459.019129 Y429.578784 Z-0.125000
G00 Z5.000000

(End cutting path id: path112)


(Start cutting path id: path112)
(Change tool to Default tool)

G00 Z5.000000
G00 X-479.399569 Y418.889477

G01 Z-0.125000 F100.0(Penetrate)
G02 X-473.475919 Y420.808499 Z-0.125000 I7.563212 J-13.244080 F400.000000
G02 X-456.227515 Y421.750566 Z-0.125000 I17.478776 J-161.648385
G02 X-439.115513 Y420.828573 Z-0.125000 I0.219870 J-155.177981
G02 X-432.866034 Y418.560788 Z-0.125000 I-1.528363 J-13.956743
G01 X-437.121746 Y419.267452 Z-0.125000
G01 X-450.345445 Y421.578850 Z-0.125000
G01 X-460.992265 Y421.374441 Z-0.125000
G01 X-479.399675 Y418.889477 Z-0.125000
G01 X-479.399569 Y418.889477 Z-0.125000
G00 Z5.000000

(End cutting path id: path112)


(Start cutting path id: path112)
(Change tool to Default tool)

G00 Z5.000000
G00 X-484.345684 Y417.250010

G01 Z-0.125000 F100.0(Penetrate)
G01 X-487.561505 Y415.984546 Z-0.125000 F400.000000
G01 X-484.345684 Y417.250010 Z-0.125000
G00 Z5.000000

(End cutting path id: path112)


(Start cutting path id: path112)
(Change tool to Default tool)

G00 Z5.000000
G00 X-488.016468 Y415.676722

G01 Z-0.125000 F100.0(Penetrate)
G01 X-488.808402 Y415.403673 Z-0.125000 F400.000000
G01 X-488.016468 Y415.676722 Z-0.125000
G00 Z5.000000

(End cutting path id: path112)


(Start cutting path id: path112)
(Change tool to Default tool)

G00 Z5.000000
G00 X-481.406050 Y409.126261

G01 Z-0.125000 F100.0(Penetrate)
G02 X-483.455080 Y403.785092 Z-0.125000 I-2.853971 J-1.968751 F400.000000
G03 X-492.275728 Y400.406214 Z-0.125000 I8.360817 J-35.028838
G03 X-499.392159 Y395.997512 Z-0.125000 I34.880575 J-64.251415
G03 X-505.925803 Y390.778118 Z-0.125000 I38.694809 J-55.137319
G03 X-517.226856 Y378.111464 Z-0.125000 I53.791385 J-59.366764
G03 X-525.201971 Y363.103530 Z-0.125000 I51.722357 J-37.107841
G03 X-529.816339 Y325.798209 Z-0.125000 I76.831994 J-28.441539
G03 X-514.929192 Y291.091980 Z-0.125000 I64.182690 J6.984982
G03 X-486.049292 Y269.217925 Z-0.125000 I63.224330 J53.472064
G03 X-450.187320 Y262.796680 Z-0.125000 I30.478199 J66.864233
G03 X-431.939598 Y266.502756 Z-0.125000 I-5.387497 J73.303070
G03 X-415.228497 Y274.767924 Z-0.125000 I-22.786454 J67.097693
G03 X-408.604916 Y279.728923 Z-0.125000 I-44.719763 J66.608887
G03 X-402.506447 Y285.309810 Z-0.125000 I-56.712238 J68.094311
G03 X-399.518199 Y288.978972 Z-0.125000 I-16.861531 J16.783838
G02 X-397.016429 Y291.776509 Z-0.125000 I10.777508 J-7.120660
G02 X-394.477840 Y292.650818 Z-0.125000 I2.418227 J-2.898814
G02 X-393.272341 Y290.701535 Z-0.125000 I-0.043847 J-1.374517
G02 X-396.507927 Y286.016452 Z-0.125000 I-15.011652 J6.907451
G02 X-404.584852 Y278.591945 Z-0.125000 I-78.346055 J77.125011
G02 X-413.377911 Y271.864839 Z-0.125000 I-87.696485 J105.518534
G02 X-418.540785 Y268.690346 Z-0.125000 I-28.389674 J40.386295
G02 X-436.705015 Y261.629268 Z-0.125000 I-38.588143 J72.372069
G02 X-456.096225 Y259.253650 Z-0.125000 I-18.797590 J73.108012
G02 X-490.929075 Y267.547989 Z-0.125000 I0.626747 J79.921148
G02 X-518.741013 Y290.137894 Z-0.125000 I36.024241 J72.767364
G02 X-533.490746 Y325.402298 Z-0.125000 I56.328886 J44.277011
G02 X-529.067926 Y363.294834 Z-0.125000 I78.862336 J9.999565
G02 X-510.376763 Y391.562856 Z-0.125000 I70.902939 J-26.568469
G02 X-481.406209 Y409.126166 Z-0.125000 I54.529037 J-57.270240
G01 X-481.406050 Y409.126261 Z-0.125000
G00 Z5.000000

(End cutting path id: path112)


(Start cutting path id: path112)
(Change tool to Default tool)

G00 Z5.000000
G00 X-482.626169 Y427.090034

G01 Z-0.125000 F100.0(Penetrate)
G02 X-479.381843 Y428.446445 Z-0.125000 I4.846099 J-7.032951 F400.000000
G02 X-469.852472 Y429.919522 Z-0.125000 I25.627282 J-134.224120
G02 X-460.228971 Y430.812830 Z-0.125000 I22.310856 J-188.069163
G02 X-455.681301 Y430.984405 Z-0.125000 I5.197763 J-77.414253
G02 X-451.855577 Y430.865470 Z-0.125000 I0.405177 J-48.556608
G02 X-441.424127 Y429.783652 Z-0.125000 I-11.250642 J-159.318088
G02 X-431.405368 Y427.911935 Z-0.125000 I-14.264927 J-104.105676
G02 X-429.551375 Y426.273319 Z-0.125000 I-0.606828 J-2.554735
G03 X-440.967499 Y429.536839 Z-0.125000 I-15.776245 J-33.587765
G03 X-454.863951 Y430.356073 Z-0.125000 I-13.896452 J-117.451356
G01 X-456.905021 Y430.356073 Z-0.125000
G01 X-482.626114 Y427.090061 Z-0.125000
G01 X-482.626169 Y427.090034 Z-0.125000
G00 Z5.000000

(End cutting path id: path112)


(Start cutting path id: path112)
(Change tool to Default tool)

G00 Z5.000000
G00 X-484.709602 Y433.571690

G01 Z-0.125000 F100.0(Penetrate)
G02 X-481.105027 Y435.185892 Z-0.125000 I5.205074 J-6.791452 F400.000000
G02 X-470.721793 Y436.770575 Z-0.125000 I26.769016 J-140.588118
G02 X-460.129905 Y437.719243 Z-0.125000 I23.952391 J-207.825194
G02 X-455.814228 Y437.939268 Z-0.125000 I10.639950 J-166.261969
G02 X-451.368377 Y437.843710 Z-0.125000 I1.420057 J-37.401187
G02 X-441.277780 Y436.735832 Z-0.125000 I-14.437872 J-178.007508
G02 X-431.326224 Y435.010077 Z-0.125000 I-20.446397 J-147.459676
G02 X-427.321284 Y433.512424 Z-0.125000 I-2.879034 J-13.802672
G01 X-428.998590 Y428.218647 Z-0.125000
G02 X-440.937466 Y430.518890 Z-0.125000 I22.631389 J149.596051
G03 X-453.638067 Y431.989325 Z-0.125000 I-12.700601 J-54.114288
G01 X-458.135369 Y431.989325 Z-0.125000
G01 X-458.204312 Y432.492790 Z-0.125000
G01 X-482.914856 Y428.793152 Z-0.125000
G01 X-482.998916 Y428.373751 Z-0.125000
G01 X-484.709787 Y433.571669 Z-0.125000
G01 X-484.709602 Y433.571690 Z-0.125000
G00 Z5.000000

(End cutting path id: path112)


(Start cutting path id: path112)
(Change tool to Default tool)

G00 Z5.000000
G00 X-486.587726 Y438.772591

G01 Z-0.125000 F100.0(Penetrate)
G02 X-480.814874 Y440.603693 Z-0.125000 I7.812797 J-14.615647 F400.000000
G02 X-474.866249 Y440.971199 Z-0.125000 I5.948626 J-47.959881
G01 X-474.049822 Y440.971199 Z-0.125000
G01 X-438.122361 Y440.971199 Z-0.125000
G01 X-437.713845 Y440.971199 Z-0.125000
G02 X-431.369069 Y440.544030 Z-0.125000 I0.000000 J-47.333345
G02 X-425.539402 Y438.439063 Z-0.125000 I-1.973668 J-14.591095
G01 X-426.661234 Y434.838009 Z-0.125000
G02 X-438.714955 Y437.007443 Z-0.125000 I5.623513 J65.816036
G03 X-452.819868 Y438.929811 Z-0.125000 I-14.104912 J-50.784514
G01 X-457.719045 Y438.929811 Z-0.125000
G03 X-471.708027 Y437.545443 Z-0.125000 I0.000000 J-71.371201
G03 X-485.054967 Y434.855841 Z-0.125000 I849.361028 J-4249.350554
G01 X-486.587733 Y438.772569 Z-0.125000
G01 X-486.587726 Y438.772591 Z-0.125000
G00 Z5.000000

(End cutting path id: path112)


(Start cutting path id: path112)
(Change tool to Default tool)

G00 Z5.000000
G00 X-486.671492 Y440.259698

G01 Z-0.125000 F100.0(Penetrate)
G02 X-485.907582 Y440.916971 Z-0.125000 I0.908307 J-0.283111 F400.000000
G02 X-484.664895 Y440.971199 Z-0.125000 I0.869681 J-5.663804
G01 X-483.472004 Y440.915559 Z-0.125000
G01 X-486.671500 Y440.259695 Z-0.125000
G01 X-486.671492 Y440.259698 Z-0.125000
G00 Z5.000000

(End cutting path id: path112)


(Start cutting path id: path112)
(Change tool to Default tool)

G00 Z5.000000
G00 X-489.961468 Y442.148786

G01 Z-0.125000 F100.0(Penetrate)
G01 X-487.171996 Y441.225921 Z-0.125000 F400.000000
G03 X-488.251792 Y442.609634 Z-0.125000 I-1.978902 J-0.431085
G03 X-489.973242 Y443.012687 Z-0.125000 I-1.721451 J-3.474658
G03 X-491.661133 Y442.521586 Z-0.125000 I0.000000 J-3.146152
G03 X-492.627539 Y441.492922 Z-0.125000 I1.528422 J-2.404206
G01 X-489.961442 Y442.148786 Z-0.125000
G01 X-489.961468 Y442.148786 Z-0.125000
G00 Z5.000000

(End cutting path id: path112)


(Start cutting path id: path112)
(Change tool to Default tool)

G00 Z5.000000
G00 X-493.316487 Y439.881723

G01 Z-0.125000 F100.0(Penetrate)
G01 X-492.301999 Y437.844886 Z-0.125000 F400.000000
G01 X-496.070560 Y436.587286 Z-0.125000
G01 X-493.316489 Y439.881715 Z-0.125000
G01 X-493.316487 Y439.881723 Z-0.125000
G00 Z5.000000

(End cutting path id: path112)


(Start cutting path id: path112)
(Change tool to Default tool)

G00 Z5.000000
G00 X-494.115927 Y438.265771

G01 Z-0.125000 F100.0(Penetrate)
G01 X-493.323993 Y438.538821 Z-0.125000 F400.000000
G01 X-494.115927 Y438.265771 Z-0.125000
G00 Z5.000000

(End cutting path id: path112)


(Start cutting path id: path112)
(Change tool to Default tool)

G00 Z5.000000
G00 X-498.954883 Y443.829116

G01 Z-0.125000 F100.0(Penetrate)
G02 X-488.231344 Y445.354801 Z-0.125000 I8.297095 J-19.868594 F400.000000
G03 X-475.683988 Y444.645542 Z-0.125000 I12.547357 J110.631751
G01 X-469.968095 Y444.645542 Z-0.125000
G03 X-454.872308 Y444.646822 Z-0.125000 I-1.370831 J89042.443071
G02 X-439.756685 Y444.645807 Z-0.125000 I5.589590 J-31931.682293
G03 X-437.139576 Y444.721087 Z-0.125000 I0.012678 J45.088835
G02 X-426.367572 Y445.064532 Z-0.125000 I12.009116 J-207.558916
G02 X-416.318415 Y444.693119 Z-0.125000 I0.697722 J-117.255406
G02 X-415.127474 Y443.383367 Z-0.125000 I-0.103223 J-1.290190
G02 X-417.577935 Y441.433515 Z-0.125000 I-6.471998 J5.618906
G03 X-421.326283 Y437.238692 Z-0.125000 I3.816026 J-7.181977
G02 X-423.164372 Y432.839745 Z-0.125000 I-113.181138 J44.708942
G03 X-424.796104 Y428.460595 Z-0.125000 I36.436487 J-16.070325
G02 X-428.129021 Y420.005145 Z-0.125000 I-56.086791 J17.223344
G03 X-431.884203 Y411.461058 Z-0.125000 I107.856815 J-52.501035
G02 X-435.417181 Y402.728263 Z-0.125000 I-474.568516 J186.912462
G03 X-438.872528 Y393.952913 Z-0.125000 I234.678398 J-97.473995
G03 X-440.542929 Y389.316921 Z-0.125000 I216.782336 J-80.728076
G02 X-442.271600 Y385.056574 Z-0.125000 I-43.194419 J15.045604
G02 X-443.633163 Y383.626377 Z-0.125000 I-2.803004 J1.305280
G02 X-444.176109 Y383.851320 Z-0.125000 I-0.178067 J0.337925
G02 X-444.301113 Y385.263623 Z-0.125000 I3.218394 J0.996547
G02 X-443.318139 Y389.077019 Z-0.125000 I15.240772 J-1.895207
G03 X-436.457380 Y406.432059 Z-0.125000 I-1998.334605 J800.011214
G02 X-429.558315 Y423.832377 Z-0.125000 I1629.996379 J-636.210681
G03 X-424.524351 Y438.903991 Z-0.125000 I-121.906734 J49.093697
G03 X-425.591723 Y441.774660 Z-0.125000 I-2.553421 J0.684357
G03 X-429.482611 Y442.819280 Z-0.125000 I-3.447351 J-5.071826
G02 X-446.696943 Y442.195945 Z-0.125000 I-17.214332 J237.388101
G01 X-452.821061 Y442.195945 Z-0.125000
G03 X-467.143731 Y441.945623 Z-0.125000 I0.000000 J-409.873823
G02 X-481.063973 Y442.107651 Z-0.125000 I-5.222518 J149.362236
G03 X-486.516579 Y439.918374 Z-0.125000 I-0.401359 J-6.885136
G03 X-487.443444 Y436.634222 Z-0.125000 I2.738358 J-2.545697
G03 X-485.525758 Y431.167776 Z-0.125000 I20.555214 J4.141389
G02 X-482.700456 Y424.972965 Z-0.125000 I-62.954694 J-32.453781
G03 X-478.486097 Y414.443917 Z-0.125000 I5639.173966 J2251.028815
G02 X-474.398291 Y403.879800 Z-0.125000 I-421.963304 J-169.352488
G03 X-472.300714 Y398.695396 Z-0.125000 I94.373132 J35.166236
G02 X-470.144405 Y393.436180 Z-0.125000 I-112.604068 J-49.239977
G03 X-467.863757 Y388.055354 Z-0.125000 I78.282838 J30.006233
G02 X-469.562323 Y384.160958 Z-0.125000 I-2.570099 J-1.196653
G01 X-492.530535 Y440.699170 Z-0.125000
G01 X-492.034630 Y441.182979 Z-0.125000
G01 X-498.379489 Y442.946766 Z-0.125000
G01 X-498.954920 Y443.829113 Z-0.125000
G01 X-498.954883 Y443.829116 Z-0.125000
G00 Z5.000000

(End cutting path id: path112)


(Start cutting path id: path112)
(Change tool to Default tool)

G00 Z5.000000
G00 X-430.163443 Y441.173771

G01 Z-0.125000 F100.0(Penetrate)
G02 X-430.071943 Y441.149688 Z-0.125000 I0.038111 J-0.041063 F400.000000
G02 X-430.366037 Y440.971177 Z-0.125000 I-0.168665 J-0.053640
G01 X-430.163443 Y441.173771 Z-0.125000
G00 Z5.000000

(End cutting path id: path112)


(Start cutting path id: path112)
(Change tool to Default tool)

G00 Z5.000000
G00 X-429.106698 Y440.697847

G01 Z-0.125000 F100.0(Penetrate)
G01 X-427.916527 Y440.986015 Z-0.125000 F400.000000
G02 X-426.999532 Y440.644634 Z-0.125000 I0.038300 J-1.299395
G02 X-426.673744 Y440.266651 Z-0.125000 I-1.442457 J-1.572665
G01 X-429.106698 Y440.697845 Z-0.125000
G01 X-429.106698 Y440.697847 Z-0.125000
G00 Z5.000000

(End cutting path id: path112)


(Start cutting path id: path112)
(Change tool to Default tool)

G00 Z5.000000
G00 X-425.671961 Y440.765581

G01 Z-0.125000 F100.0(Penetrate)
G02 X-425.580648 Y440.741550 Z-0.125000 I0.038034 J-0.040980 F400.000000
G02 X-425.874555 Y440.562682 Z-0.125000 I-0.168717 J-0.053673
G01 X-425.671961 Y440.765581 Z-0.125000
G00 Z5.000000

(End cutting path id: path112)


(Start cutting path id: path112)
(Change tool to Default tool)

G00 Z5.000000
G00 X-422.597816 Y442.566375

G01 Z-0.125000 F100.0(Penetrate)
G01 X-419.346620 Y441.776557 Z-0.125000 F400.000000
G03 X-421.888116 Y443.684712 Z-0.125000 I-2.488041 J-0.667251
G03 X-424.957288 Y441.858200 Z-0.125000 I0.075096 J-3.618079
G01 X-422.597814 Y442.566375 Z-0.125000
G01 X-422.597816 Y442.566375 Z-0.125000
G00 Z5.000000

(End cutting path id: path112)


(Start cutting path id: path112)
(Change tool to Default tool)

G00 Z5.000000
G00 X-419.290775 Y440.121207

G01 Z-0.125000 F100.0(Penetrate)
G01 X-418.147776 Y438.629565 Z-0.125000 F400.000000
G01 X-419.336132 Y438.593582 Z-0.125000
G01 X-419.290775 Y440.121207 Z-0.125000
G00 Z5.000000

(End cutting path id: path112)


(Start cutting path id: path112)
(Change tool to Default tool)

G00 Z5.000000
G00 X-418.322552 Y437.499568

G01 Z-0.125000 F100.0(Penetrate)
G02 X-418.232408 Y437.477068 Z-0.125000 I0.038009 J-0.039545 F400.000000
G02 X-418.525447 Y437.296670 Z-0.125000 I-0.168194 J-0.054990
G01 X-418.322552 Y437.499568 Z-0.125000
G00 Z5.000000

(End cutting path id: path112)


(Start cutting path id: path112)
(Change tool to Default tool)

G00 Z5.000000
G00 X-422.261407 Y431.973337

G01 Z-0.125000 F100.0(Penetrate)
G02 X-407.301817 Y426.424976 Z-0.125000 I-5.806499 J-38.596926 F400.000000
G02 X-394.330173 Y417.404338 Z-0.125000 I-90.159377 J-143.485758
G02 X-382.899524 Y407.594952 Z-0.125000 I-83.495078 J-108.859502
G02 X-373.270584 Y396.168748 Z-0.125000 I-48.670930 J-50.785613
G01 X-378.452468 Y394.211135 Z-0.125000
G02 X-382.814920 Y398.433432 Z-0.125000 I20.908981 J25.967812
G03 X-388.144064 Y404.401973 Z-0.125000 I-165.567247 J-142.466998
G03 X-393.276213 Y409.310330 Z-0.125000 I-43.060509 J-39.886557
G03 X-398.688676 Y413.454336 Z-0.125000 I-44.833327 J-52.949957
G03 X-404.586202 Y417.307387 Z-0.125000 I-78.005271 J-112.955898
G03 X-410.909394 Y420.830302 Z-0.125000 I-42.503699 J-68.852693
G03 X-418.853414 Y424.146821 Z-0.125000 I-28.287301 J-56.583871
G02 X-424.495043 Y426.742753 Z-0.125000 I9.631882 J28.360889
G01 X-422.261357 Y431.973321 Z-0.125000
G01 X-422.261407 Y431.973337 Z-0.125000
G00 Z5.000000

(End cutting path id: path112)


(Start cutting path id: path112)
(Change tool to Default tool)

G00 Z5.000000
G00 X-425.062952 Y425.048977

G01 Z-0.125000 F100.0(Penetrate)
G02 X-422.680085 Y425.244308 Z-0.125000 I1.381552 J-2.221616 F400.000000
G02 X-412.726698 Y420.592526 Z-0.125000 I-47.338235 J-114.263800
G02 X-403.008008 Y415.118056 Z-0.125000 I-82.374318 J-157.600968
G02 X-399.453143 Y412.690067 Z-0.125000 I-20.325814 J-33.575783
G02 X-396.119948 Y410.025455 Z-0.125000 I-63.887755 J-83.335019
G02 X-388.730954 Y403.533643 Z-0.125000 I-120.418006 J-144.511041
G02 X-381.828051 Y396.642148 Z-0.125000 I-88.218107 J-95.267044
G02 X-380.153692 Y393.612284 Z-0.125000 I-5.252980 J-4.880467
G01 X-391.703719 Y405.524260 Z-0.125000
G01 X-392.496560 Y404.655822 Z-0.125000
G01 X-381.625374 Y393.355852 Z-0.125000
G01 X-385.738661 Y391.230116 Z-0.125000
G03 X-394.439536 Y399.933539 Z-0.125000 I-274.474540 J-265.693319
G03 X-404.078046 Y408.065162 Z-0.125000 I-63.965045 J-66.040403
G03 X-409.503621 Y411.674451 Z-0.125000 I-42.672788 J-58.264231
G03 X-414.992174 Y414.706354 Z-0.125000 I-43.483853 J-72.233566
G03 X-422.443220 Y417.699158 Z-0.125000 I-21.186033 J-41.974211
G02 X-427.119759 Y420.103238 Z-0.125000 I4.328119 J14.169840
G01 X-425.591830 Y423.883891 Z-0.125000
G02 X-416.260336 Y420.535831 Z-0.125000 I-13.558448 J-52.467303
G02 X-407.424794 Y415.741693 Z-0.125000 I-34.793737 J-74.663448
G02 X-393.530400 Y405.633573 Z-0.125000 I-64.311234 J-103.004288
G03 X-392.401612 Y405.043783 Z-0.125000 I1.893958 J2.249728
G03 X-393.451347 Y407.095107 Z-0.125000 I-3.200351 J-0.343478
G03 X-398.766230 Y411.373134 Z-0.125000 I-42.231788 J-47.026875
G03 X-404.587352 Y415.247174 Z-0.125000 I-55.915109 J-77.707465
G03 X-407.232468 Y416.750443 Z-0.125000 I-23.500677 J-38.272471
G02 X-411.511051 Y419.010812 Z-0.125000 I366.402325 J698.731065
G03 X-415.808291 Y421.238670 Z-0.125000 I-105.227511 J-197.711499
G03 X-421.134660 Y423.251279 Z-0.125000 I-12.096533 J-23.959045
G02 X-425.062955 Y425.048956 Z-0.125000 I3.144123 J12.061463
G01 X-425.062952 Y425.048977 Z-0.125000
G00 Z5.000000

(End cutting path id: path112)


(Start cutting path id: path112)
(Change tool to Default tool)

G00 Z5.000000
G00 X-428.763108 Y416.083839

G01 Z-0.125000 F100.0(Penetrate)
G03 X-423.363650 Y413.805735 Z-0.125000 I15.663849 J29.587907 F400.000000
G02 X-417.162572 Y411.313169 Z-0.125000 I-14.528992 J-45.105554
G02 X-412.100637 Y408.455792 Z-0.125000 I-20.804121 J-42.767541
G02 X-407.018619 Y405.126452 Z-0.125000 I-335.532955 J-517.712267
G02 X-404.385839 Y403.200034 Z-0.125000 I-19.255471 J-29.078183
G02 X-397.806213 Y397.615053 Z-0.125000 I-106.897566 J-132.603453
G02 X-391.584564 Y391.673570 Z-0.125000 I-86.292421 J-96.589731
G02 X-390.362299 Y389.529654 Z-0.125000 I-3.466657 J-3.396741
G01 X-395.702351 Y387.383658 Z-0.125000
G02 X-399.104876 Y390.209309 Z-0.125000 I11.619849 J17.453527
G03 X-403.326866 Y394.528908 Z-0.125000 I-1152.624894 J-1122.356182
G03 X-407.342965 Y397.785256 Z-0.125000 I-16.274567 J-15.966920
G02 X-411.703405 Y400.849557 Z-0.125000 I31.922317 J50.059377
G03 X-422.592865 Y406.686105 Z-0.125000 I-22.923172 J-29.691890
G02 X-431.225397 Y410.730753 Z-0.125000 I13.732535 J40.544059
G01 X-428.763111 Y416.083797 Z-0.125000
G01 X-428.763108 Y416.083839 Z-0.125000
G00 Z5.000000

(End cutting path id: path112)


(Start cutting path id: path112)
(Change tool to Default tool)

G00 Z5.000000
G00 X-433.404455 Y405.101348

G01 Z-0.125000 F100.0(Penetrate)
G02 X-426.962107 Y402.855873 Z-0.125000 I-6.794040 J-29.856753 F400.000000
G02 X-416.292219 Y397.015500 Z-0.125000 I-48.888397 J-101.981832
G02 X-406.400373 Y390.060406 Z-0.125000 I-54.750110 J-88.379904
G02 X-401.794195 Y385.038707 Z-0.125000 I-13.503905 J-17.009895
G01 X-411.528441 Y381.453978 Z-0.125000
G03 X-422.990648 Y390.556362 Z-0.125000 I-25.916914 J-20.867856
G03 X-436.894543 Y396.456892 Z-0.125000 I-68.312068 J-141.637528
G01 X-433.404455 Y405.101348 Z-0.125000
G00 Z5.000000

(End cutting path id: path112)


(Start cutting path id: path112)
(Change tool to Default tool)

G00 Z5.000000
G00 X-443.849181 Y394.158677

G01 Z-0.125000 F100.0(Penetrate)
G01 X-442.658105 Y394.142960 Z-0.125000 F400.000000
G01 X-443.849181 Y394.158677 Z-0.125000
G00 Z5.000000

(End cutting path id: path112)


(Start cutting path id: path112)
(Change tool to Default tool)

G00 Z5.000000
G00 X-404.278201 Y405.965143

G01 Z-0.125000 F100.0(Penetrate)
G03 X-407.975074 Y409.166086 Z-0.125000 I-8.537260 J-6.124668 F400.000000
G03 X-417.117954 Y413.596361 Z-0.125000 I-84.968511 J-163.702492
G03 X-426.852538 Y417.847659 Z-0.125000 I-183.219969 J-406.264737
G02 X-427.922554 Y418.924577 Z-0.125000 I0.779517 J1.844560
G03 X-416.858328 Y413.913026 Z-0.125000 I207.623237 J443.659937
G02 X-405.059567 Y407.493374 Z-0.125000 I-31.598450 J-72.127570
G02 X-402.179916 Y405.381518 Z-0.125000 I-20.087375 J-30.409645
G02 X-395.321143 Y399.494009 Z-0.125000 I-103.357351 J-127.347119
G02 X-388.885504 Y393.215668 Z-0.125000 I-83.649879 J-92.183260
G02 X-387.504247 Y390.754187 Z-0.125000 I-4.123609 J-3.932245
G03 X-389.647991 Y393.077044 Z-0.125000 I-69.715861 J-62.189491
G03 X-395.210564 Y398.638277 Z-0.125000 I-122.193888 J-116.660763
G03 X-401.034165 Y403.838097 Z-0.125000 I-81.371974 J-85.272511
G03 X-403.426693 Y405.043494 Z-0.125000 I-3.781384 J-4.528366
G03 X-402.678283 Y403.857093 Z-0.125000 I2.303191 J0.623650
G02 X-396.283368 Y398.250252 Z-0.125000 I-272.992793 J-317.813795
G02 X-390.309166 Y392.642387 Z-0.125000 I-114.802877 J-128.288595
G02 X-388.728869 Y389.937763 Z-0.125000 I-4.204239 J-4.270505
G02 X-396.048731 Y396.715448 Z-0.125000 I22.650441 J31.803895
G03 X-406.284480 Y405.860209 Z-0.125000 I-36.236278 J-30.258511
G03 X-411.629427 Y409.177625 Z-0.125000 I-62.344081 J-94.482862
G02 X-416.729926 Y412.153660 Z-0.125000 I2984.481760 J5120.834715
G03 X-424.204222 Y415.158546 Z-0.125000 I-13.917386 J-23.819683
G02 X-428.330753 Y417.291703 Z-0.125000 I2.269305 J9.447813
G02 X-421.898751 Y415.132125 Z-0.125000 I-8.721066 J-36.632691
G02 X-415.260353 Y411.990068 Z-0.125000 I-52.908262 J-120.365886
G02 X-413.467135 Y410.943349 Z-0.125000 I-8.067346 J-15.880224
G03 X-409.402558 Y408.330582 Z-0.125000 I87.036928 J130.931937
G03 X-405.270611 Y405.949600 Z-0.125000 I37.936738 J61.059503
G03 X-404.278201 Y405.965143 Z-0.125000 I0.482155 J0.904847
G01 X-404.278201 Y405.965143 Z-0.125000
G00 Z5.000000

(End cutting path id: path112)


(Start cutting path id: path112)
(Change tool to Default tool)

G00 Z5.000000
G00 X-400.488102 Y385.548733

G01 Z-0.125000 F100.0(Penetrate)
G03 X-407.375192 Y392.042129 Z-0.125000 I-146.921080 J-148.929876 F400.000000
G03 X-414.991484 Y397.562018 Z-0.125000 I-29.694597 J-32.957937
G02 X-419.166423 Y400.115507 Z-0.125000 I43.381298 J75.617910
G03 X-423.555215 Y402.470853 Z-0.125000 I-16.108015 J-24.748023
G03 X-429.080801 Y404.615215 Z-0.125000 I-30.940343 J-71.535649
G02 X-432.885179 Y406.416315 Z-0.125000 I6.250810 J18.121745
G01 X-431.781791 Y409.198511 Z-0.125000
G02 X-425.962177 Y407.725204 Z-0.125000 I-0.419848 J-13.888915
G02 X-413.009684 Y400.266714 Z-0.125000 I-59.137083 J-117.674051
G02 X-400.967862 Y391.371891 Z-0.125000 I-71.963425 J-110.022692
G02 X-397.473314 Y386.813281 Z-0.125000 I-8.276195 J-9.963115
G01 X-400.488052 Y385.548725 Z-0.125000
G01 X-400.488102 Y385.548733 Z-0.125000
G00 Z5.000000

(End cutting path id: path112)


(Start cutting path id: path112)
(Change tool to Default tool)

G00 Z5.000000
G00 X-396.422570 Y378.038928

G01 Z-0.125000 F100.0(Penetrate)
G02 X-391.690514 Y372.160805 Z-0.125000 I-11.038707 J-13.730253 F400.000000
G02 X-386.905675 Y360.359929 Z-0.125000 I-74.334238 J-37.010393
G02 X-383.754141 Y347.793448 Z-0.125000 I-98.445712 J-31.367514
G02 X-383.013503 Y339.720960 Z-0.125000 I-43.622208 J-8.072489
G01 X-383.421718 Y339.720960 Z-0.125000
G01 X-392.403623 Y339.720960 Z-0.125000
G02 X-392.885415 Y341.694860 Z-0.125000 I4.824191 J2.223244
G03 X-393.936995 Y350.435513 Z-0.125000 I-60.472230 J-2.841773
G03 X-395.189401 Y355.008094 Z-0.125000 I-31.156040 J-6.075669
G02 X-396.737950 Y359.473959 Z-0.125000 I268.014376 J95.436036
G03 X-400.694763 Y367.584282 Z-0.125000 I-33.406799 J-11.277925
G03 X-405.411140 Y374.678856 Z-0.125000 I-794.073797 J-522.774434
G01 X-396.422567 Y378.038902 Z-0.125000
G01 X-396.422570 Y378.038928 Z-0.125000
G00 Z5.000000

(End cutting path id: path112)


(Start cutting path id: path112)
(Change tool to Default tool)

G00 Z5.000000
G00 X-391.739758 Y379.790603

G01 Z-0.125000 F100.0(Penetrate)
G02 X-381.984007 Y360.676031 Z-0.125000 I-60.807412 J-43.081934 F400.000000
G02 X-378.522408 Y339.721359 Z-0.125000 I-61.693394 J-20.954671
G01 X-378.930623 Y339.721359 Z-0.125000
G01 X-381.788410 Y339.721359 Z-0.125000
G03 X-385.509590 Y360.003227 Z-0.125000 I-57.232943 J-0.018411
G03 X-394.850635 Y378.552354 Z-0.125000 I-93.594301 J-35.506032
G01 X-391.739747 Y379.790603 Z-0.125000
G01 X-391.739758 Y379.790603 Z-0.125000
G00 Z5.000000

(End cutting path id: path112)


(Start cutting path id: path112)
(Change tool to Default tool)

G00 Z5.000000
G00 X-385.026573 Y382.281744

G01 Z-0.125000 F100.0(Penetrate)
G02 X-379.119083 Y373.860938 Z-0.125000 I-11.364941 J-14.255460 F400.000000
G03 X-375.377918 Y363.688068 Z-0.125000 I192.751899 J65.111895
G02 X-372.231521 Y352.430916 Z-0.125000 I-51.052034 J-20.337440
G02 X-371.174224 Y339.721373 Z-0.125000 I-75.860731 J-12.709544
G01 X-371.582438 Y339.721373 Z-0.125000
G01 X-377.298040 Y339.721373 Z-0.125000
G01 X-377.298040 Y340.129283 Z-0.125000
G03 X-381.164752 Y361.251018 Z-0.125000 I-59.621603 J0.000000
G03 X-390.469749 Y380.264936 Z-0.125000 I-106.596054 J-40.381992
G01 X-385.026588 Y382.281816 Z-0.125000
G01 X-385.026573 Y382.281744 Z-0.125000
G00 Z5.000000

(End cutting path id: path112)


(Start cutting path id: path112)
(Change tool to Default tool)

G00 Z5.000000
G00 X-368.444584 Y388.752444

G01 Z-0.125000 F100.0(Penetrate)
G02 X-357.558188 Y367.896459 Z-0.125000 I-60.479750 J-44.838419 F400.000000
G02 X-353.618253 Y343.803497 Z-0.125000 I-71.695053 J-24.092962
G01 X-353.618253 Y342.170340 Z-0.125000
G01 X-353.629154 Y339.765203 Z-0.125000
G01 X-359.284880 Y340.239638 Z-0.125000
G03 X-363.724726 Y365.013756 Z-0.125000 I-96.036939 J-4.426178
G03 X-373.762570 Y386.898585 Z-0.125000 I-94.686812 J-30.185269
G01 X-368.444611 Y388.752481 Z-0.125000
G01 X-368.444584 Y388.752444 Z-0.125000
G00 Z5.000000

(End cutting path id: path112)


(Start cutting path id: path112)
(Change tool to Default tool)

G00 Z5.000000
G00 X-372.162079 Y396.775604

G01 Z-0.125000 F100.0(Penetrate)
G02 X-376.784925 Y401.884495 Z-0.125000 I29.288993 J31.148492 F400.000000
G03 X-382.297275 Y408.612280 Z-0.125000 I-109.211767 J-83.859527
G03 X-387.542258 Y413.569158 Z-0.125000 I-28.455873 J-24.856435
G03 X-393.782902 Y418.356184 Z-0.125000 I-336.452073 J-432.157113
G03 X-400.252796 Y422.813046 Z-0.125000 I-53.832715 J-71.222845
G03 X-407.086744 Y426.690389 Z-0.125000 I-48.348822 J-77.255209
G03 X-418.031889 Y431.352211 Z-0.125000 I-38.546579 J-75.321084
G02 X-421.872250 Y433.423207 Z-0.125000 I4.404913 J12.764471
G01 X-420.321037 Y436.912077 Z-0.125000
G02 X-415.380287 Y435.498865 Z-0.125000 I-1.877114 J-15.905923
G02 X-405.148350 Y430.225384 Z-0.125000 I-67.749551 J-144.014973
G02 X-395.220001 Y424.271477 Z-0.125000 I-100.828268 J-179.389554
G02 X-390.646995 Y421.083955 Z-0.125000 I-37.133742 J-58.148351
G02 X-386.981628 Y418.125331 Z-0.125000 I-47.546823 J-62.654381
G02 X-378.227919 Y410.165637 Z-0.125000 I-133.432526 J-155.536320
G02 X-370.153710 Y401.726408 Z-0.125000 I-99.578074 J-103.353156
G02 X-368.547515 Y398.253326 Z-0.125000 I-5.028484 J-4.433470
G01 X-372.162169 Y396.775593 Z-0.125000
G01 X-372.162079 Y396.775604 Z-0.125000
G00 Z5.000000

(End cutting path id: path112)


(Start cutting path id: path112)
(Change tool to Default tool)

G00 Z5.000000
G00 X-362.600346 Y402.185712

G01 Z-0.125000 F100.0(Penetrate)
G02 X-361.740062 Y402.867919 Z-0.125000 I1.635327 J-1.178673 F400.000000
G02 X-356.724373 Y404.799034 Z-0.125000 I38.100925 J-91.480382
G02 X-351.597100 Y406.475537 Z-0.125000 I36.937429 J-104.287621
G02 X-350.352428 Y406.676665 Z-0.125000 I1.383065 J-4.607184
