(Exported by FreeCAD)
(Post Processor: linuxcnc_post)
(Output Time:2022-01-27 14:41:51.782800)
(begin preamble)
G17 G54 G40 G49 G80 G90
G21
(begin operation: Fixture)
(machine units: mm/min)
G54 
(finish operation: Fixture)
(begin operation: 52mm Endmill001)
(machine units: mm/min)
(52mm Endmill001) 
M5
M6 T2 
G43 H2 
M3 S10000 
(finish operation: 52mm Endmill001)
(begin operation: MillFace)
(machine units: mm/min)
(MillFace) 
G0 Z5.000 
G0 X-0.100 Y831.900 
G0 Z3.000 
G1 X-0.100 Y831.900 Z3.000 F2400.000 
G1 X1200.100 Y831.900 Z3.000 F2400.000 
G1 X1200.100 Y850.100 Z3.000 F2400.000 
G1 X-0.100 Y850.100 Z3.000 F2400.000 
G1 X-0.100 Y831.900 Z3.000 F2400.000 
G1 X-0.100 Y805.900 Z3.000 F2400.000 
G1 X1200.100 Y805.900 Z3.000 F2400.000 
G1 X1200.100 Y779.900 Z3.000 F2400.000 
G1 X-0.100 Y779.900 Z3.000 F2400.000 
G1 X-0.100 Y753.900 Z3.000 F2400.000 
G1 X1200.100 Y753.900 Z3.000 F2400.000 
G1 X1200.100 Y727.900 Z3.000 F2400.000 
G1 X-0.100 Y727.900 Z3.000 F2400.000 
G1 X-0.100 Y701.900 Z3.000 F2400.000 
G1 X1200.100 Y701.900 Z3.000 F2400.000 
G1 X1200.100 Y675.900 Z3.000 F2400.000 
G1 X-0.100 Y675.900 Z3.000 F2400.000 
G1 X-0.100 Y649.900 Z3.000 F2400.000 
G1 X1200.100 Y649.900 Z3.000 F2400.000 
G1 X1200.100 Y623.900 Z3.000 F2400.000 
G1 X-0.100 Y623.900 Z3.000 F2400.000 
G1 X-0.100 Y597.900 Z3.000 F2400.000 
G1 X1200.100 Y597.900 Z3.000 F2400.000 
G1 X1200.100 Y571.900 Z3.000 F2400.000 
G1 X-0.100 Y571.900 Z3.000 F2400.000 
G1 X-0.100 Y545.900 Z3.000 F2400.000 
G1 X1200.100 Y545.900 Z3.000 F2400.000 
G1 X1200.100 Y519.900 Z3.000 F2400.000 
G1 X-0.100 Y519.900 Z3.000 F2400.000 
G1 X-0.100 Y493.900 Z3.000 F2400.000 
G1 X1200.100 Y493.900 Z3.000 F2400.000 
G1 X1200.100 Y467.900 Z3.000 F2400.000 
G1 X-0.100 Y467.900 Z3.000 F2400.000 
G1 X-0.100 Y441.900 Z3.000 F2400.000 
G1 X1200.100 Y441.900 Z3.000 F2400.000 
G1 X1200.100 Y415.900 Z3.000 F2400.000 
G1 X-0.100 Y415.900 Z3.000 F2400.000 
G1 X-0.100 Y389.900 Z3.000 F2400.000 
G1 X1200.100 Y389.900 Z3.000 F2400.000 
G1 X1200.100 Y363.900 Z3.000 F2400.000 
G1 X-0.100 Y363.900 Z3.000 F2400.000 
G1 X-0.100 Y337.900 Z3.000 F2400.000 
G1 X1200.100 Y337.900 Z3.000 F2400.000 
G1 X1200.100 Y311.900 Z3.000 F2400.000 
G1 X-0.100 Y311.900 Z3.000 F2400.000 
G1 X-0.100 Y285.900 Z3.000 F2400.000 
G1 X1200.100 Y285.900 Z3.000 F2400.000 
G1 X1200.100 Y259.900 Z3.000 F2400.000 
G1 X-0.100 Y259.900 Z3.000 F2400.000 
G1 X-0.100 Y233.900 Z3.000 F2400.000 
G1 X1200.100 Y233.900 Z3.000 F2400.000 
G1 X1200.100 Y207.900 Z3.000 F2400.000 
G1 X-0.100 Y207.900 Z3.000 F2400.000 
G1 X-0.100 Y181.900 Z3.000 F2400.000 
G1 X1200.100 Y181.900 Z3.000 F2400.000 
G1 X1200.100 Y155.900 Z3.000 F2400.000 
G1 X-0.100 Y155.900 Z3.000 F2400.000 
G1 X-0.100 Y129.900 Z3.000 F2400.000 
G1 X1200.100 Y129.900 Z3.000 F2400.000 
G1 X1200.100 Y103.900 Z3.000 F2400.000 
G1 X-0.100 Y103.900 Z3.000 F2400.000 
G1 X-0.100 Y77.900 Z3.000 F2400.000 
G1 X1200.100 Y77.900 Z3.000 F2400.000 
G1 X1200.100 Y51.900 Z3.000 F2400.000 
G1 X-0.100 Y51.900 Z3.000 F2400.000 
G1 X-0.100 Y25.900 Z3.000 F2400.000 
G1 X1200.100 Y25.900 Z3.000 F2400.000 
G1 X1200.100 Y-0.100 Z3.000 F2400.000 
G1 X-0.100 Y-0.100 Z3.000 F2400.000 
G0 Z5.000 
G0 Z5.000 
(finish operation: MillFace)
(begin postamble)
M05
G17 G54 G90 G80 G40
M2
