(Exported by FreeCAD)
(Post Processor: linuxcnc_post)
(Output Time:2022-04-28 09:03:06.607258)
(begin preamble)
G17 G54 G40 G49 G80 G90
G21
(begin operation: Fixture)
(machine units: mm/min)
G54 
(finish operation: Fixture)
(begin operation: 10mm_Endmill001)
(machine units: mm/min)
(10mm_Endmill001) 
M5
M6 T3 
G43 H3 
M3 S10000 
(finish operation: 10mm_Endmill001)
(begin operation: Profile001)
(machine units: mm/min)
(Profile001) 
(Compensated Tool Path. Diameter: 10.0) 
G0 Z17.700 
G0 X2.500 Y365.000 
G0 Z15.700 
G1 X2.500 Y365.000 Z11.000 F300.000 
G1 X2.500 Y235.000 Z11.000 F2400.000 
G1 X-2.500 Y235.000 Z11.000 F2400.000 
G1 X-2.500 Y365.000 Z11.000 F2400.000 
G1 X2.500 Y365.000 Z11.000 F2400.000 
G1 X2.500 Y365.000 Z7.000 F300.000 
G1 X2.500 Y235.000 Z7.000 F2400.000 
G1 X-2.500 Y235.000 Z7.000 F2400.000 
G1 X-2.500 Y365.000 Z7.000 F2400.000 
G1 X2.500 Y365.000 Z7.000 F2400.000 
G1 X2.500 Y365.000 Z3.000 F300.000 
G1 X2.500 Y235.000 Z3.000 F2400.000 
G1 X-2.500 Y235.000 Z3.000 F2400.000 
G1 X-2.500 Y365.000 Z3.000 F2400.000 
G1 X2.500 Y365.000 Z3.000 F2400.000 
G1 X2.500 Y365.000 Z0.100 F300.000 
G1 X2.500 Y235.000 Z0.100 F2400.000 
G1 X-2.500 Y235.000 Z0.100 F2400.000 
G1 X-2.500 Y365.000 Z0.100 F2400.000 
G1 X2.500 Y365.000 Z0.100 F2400.000 
G0 Z17.700 
G0 Z17.700 
(finish operation: Profile001)
(begin operation: Profile)
(machine units: mm/min)
(Profile) 
(Compensated Tool Path. Diameter: 10.0) 
G0 Z17.700 
G0 X115.662 Y1117.403 
G0 Z15.700 
G1 X115.662 Y1117.403 Z11.000 F300.000 
G2 X79.980 Y973.939 Z11.000 I-115.662 J-47.402 F2400.000 
G3 X83.176 Y965.000 Z11.000 I3.095 J-3.934 F2400.000 
G1 X157.652 Y965.000 Z11.000 F2400.000 
G2 X195.865 Y936.819 Z11.000 I-0.003 J-40.002 F2400.000 
G1 X295.372 Y611.707 Z11.000 F2400.000 
G2 X218.911 Y588.180 Z11.000 I-38.248 J-11.706 F2400.000 
G1 X164.375 Y766.359 Z11.000 F2400.000 
G1 X164.193 Y766.873 Z11.000 F2400.000 
G3 X154.813 Y763.432 Z11.000 I-4.633 J-1.876 F2400.000 
G1 X274.781 Y371.463 Z11.000 F2400.000 
G2 X270.000 Y365.000 Z11.000 I-4.781 J-1.463 F2400.000 
G1 X130.000 Y365.000 Z11.000 F2400.000 
G1 X130.000 Y249.553 Z11.000 F2400.000 
G3 X141.666 Y234.852 Z11.000 I15.009 J-0.069 F2400.000 
G1 X274.089 Y203.954 Z11.000 F2400.000 
G2 X304.999 Y165.116 Z11.000 I-9.092 J-38.955 F2400.000 
G1 X305.000 Y0.000 Z11.000 F2400.000 
G2 X300.000 Y-5.000 Z11.000 I-5.000 J0.000 F2400.000 
G1 X240.000 Y-5.000 Z11.000 F2400.000 
G2 X235.000 Y0.000 Z11.000 I0.000 J5.000 F2400.000 
G1 X235.000 Y95.000 Z11.000 F2400.000 
G1 X232.000 Y95.000 Z11.000 F2400.000 
G1 X232.000 Y5.000 Z11.000 F2400.000 
G2 X225.810 Y0.144 Z11.000 I-5.000 J0.000 F2400.000 
G1 X124.396 Y25.000 Z11.000 F2400.000 
G1 X-124.396 Y25.000 Z11.000 F2400.000 
G1 X-225.810 Y0.144 Z11.000 F2400.000 
G2 X-232.000 Y5.000 Z11.000 I-1.190 J4.856 F2400.000 
G1 X-232.000 Y95.000 Z11.000 F2400.000 
G1 X-235.000 Y95.000 Z11.000 F2400.000 
G1 X-235.000 Y0.000 Z11.000 F2400.000 
G2 X-240.000 Y-5.000 Z11.000 I-5.000 J0.000 F2400.000 
G1 X-300.000 Y-5.000 Z11.000 F2400.000 
G2 X-305.000 Y0.000 Z11.000 I0.000 J5.000 F2400.000 
G1 X-305.000 Y165.000 Z11.000 F2400.000 
G2 X-274.201 Y203.926 Z11.000 I40.002 J-0.002 F2400.000 
G1 X-141.666 Y234.852 Z11.000 F2400.000 
G3 X-130.000 Y249.553 Z11.000 I-3.343 J14.632 F2400.000 
G1 X-130.000 Y365.000 Z11.000 F2400.000 
G1 X-270.000 Y365.000 Z11.000 F2400.000 
G2 X-274.781 Y371.463 Z11.000 I0.000 J5.000 F2400.000 
G1 X-154.813 Y763.432 Z11.000 F2400.000 
G1 X-154.676 Y763.960 Z11.000 F2400.000 
G3 X-164.375 Y766.359 Z11.000 I-4.889 J1.038 F2400.000 
G1 X-218.875 Y588.293 Z11.000 F2400.000 
G2 X-295.406 Y611.592 Z11.000 I-38.248 J11.707 F2400.000 
G1 X-195.901 Y936.707 Z11.000 F2400.000 
G2 X-157.770 Y964.999 Z11.000 I38.250 J-11.710 F2400.000 
G1 X-83.176 Y965.000 Z11.000 F2400.000 
G3 X-79.979 Y973.938 Z11.000 I0.100 J5.005 F2400.000 
G2 X-80.181 Y1165.895 Z11.000 I79.978 J96.063 F2400.000 
G2 X115.662 Y1117.403 Z11.000 I80.181 J-95.895 F2400.000 
G1 X115.662 Y1117.403 Z7.000 F300.000 
G2 X79.980 Y973.939 Z7.000 I-115.662 J-47.402 F2400.000 
G3 X83.176 Y965.000 Z7.000 I3.095 J-3.934 F2400.000 
G1 X157.652 Y965.000 Z7.000 F2400.000 
G2 X195.865 Y936.819 Z7.000 I-0.003 J-40.002 F2400.000 
G1 X295.372 Y611.707 Z7.000 F2400.000 
G2 X218.911 Y588.180 Z7.000 I-38.248 J-11.706 F2400.000 
G1 X164.375 Y766.359 Z7.000 F2400.000 
G1 X164.193 Y766.873 Z7.000 F2400.000 
G3 X154.813 Y763.432 Z7.000 I-4.633 J-1.876 F2400.000 
G1 X274.781 Y371.463 Z7.000 F2400.000 
G2 X270.000 Y365.000 Z7.000 I-4.781 J-1.463 F2400.000 
G1 X130.000 Y365.000 Z7.000 F2400.000 
G1 X130.000 Y249.553 Z7.000 F2400.000 
G3 X141.666 Y234.852 Z7.000 I15.009 J-0.069 F2400.000 
G1 X274.089 Y203.954 Z7.000 F2400.000 
G2 X304.999 Y165.116 Z7.000 I-9.092 J-38.955 F2400.000 
G1 X305.000 Y0.000 Z7.000 F2400.000 
G2 X300.000 Y-5.000 Z7.000 I-5.000 J0.000 F2400.000 
G1 X240.000 Y-5.000 Z7.000 F2400.000 
G2 X235.000 Y0.000 Z7.000 I0.000 J5.000 F2400.000 
G1 X235.000 Y95.000 Z7.000 F2400.000 
G1 X232.000 Y95.000 Z7.000 F2400.000 
G1 X232.000 Y5.000 Z7.000 F2400.000 
G2 X225.810 Y0.144 Z7.000 I-5.000 J0.000 F2400.000 
G1 X124.396 Y25.000 Z7.000 F2400.000 
G1 X-124.396 Y25.000 Z7.000 F2400.000 
G1 X-225.810 Y0.144 Z7.000 F2400.000 
G2 X-232.000 Y5.000 Z7.000 I-1.190 J4.856 F2400.000 
G1 X-232.000 Y95.000 Z7.000 F2400.000 
G1 X-235.000 Y95.000 Z7.000 F2400.000 
G1 X-235.000 Y0.000 Z7.000 F2400.000 
G2 X-240.000 Y-5.000 Z7.000 I-5.000 J0.000 F2400.000 
G1 X-300.000 Y-5.000 Z7.000 F2400.000 
G2 X-305.000 Y0.000 Z7.000 I0.000 J5.000 F2400.000 
G1 X-305.000 Y165.000 Z7.000 F2400.000 
G2 X-274.201 Y203.926 Z7.000 I40.002 J-0.002 F2400.000 
G1 X-141.666 Y234.852 Z7.000 F2400.000 
G3 X-130.000 Y249.553 Z7.000 I-3.343 J14.632 F2400.000 
G1 X-130.000 Y365.000 Z7.000 F2400.000 
G1 X-270.000 Y365.000 Z7.000 F2400.000 
G2 X-274.781 Y371.463 Z7.000 I0.000 J5.000 F2400.000 
G1 X-154.813 Y763.432 Z7.000 F2400.000 
G1 X-154.676 Y763.960 Z7.000 F2400.000 
G3 X-164.375 Y766.359 Z7.000 I-4.889 J1.038 F2400.000 
G1 X-218.875 Y588.293 Z7.000 F2400.000 
G2 X-295.406 Y611.592 Z7.000 I-38.248 J11.707 F2400.000 
G1 X-195.901 Y936.707 Z7.000 F2400.000 
G2 X-157.770 Y964.999 Z7.000 I38.250 J-11.710 F2400.000 
G1 X-83.176 Y965.000 Z7.000 F2400.000 
G3 X-79.979 Y973.938 Z7.000 I0.100 J5.005 F2400.000 
G2 X-80.181 Y1165.895 Z7.000 I79.978 J96.063 F2400.000 
G2 X115.662 Y1117.403 Z7.000 I80.181 J-95.895 F2400.000 
G1 X115.662 Y1117.403 Z3.000 F300.000 
G2 X79.980 Y973.939 Z3.000 I-115.662 J-47.402 F2400.000 
G3 X83.176 Y965.000 Z3.000 I3.095 J-3.934 F2400.000 
G1 X157.652 Y965.000 Z3.000 F2400.000 
G2 X195.865 Y936.819 Z3.000 I-0.003 J-40.002 F2400.000 
G1 X295.372 Y611.707 Z3.000 F2400.000 
G2 X218.911 Y588.180 Z3.000 I-38.248 J-11.706 F2400.000 
G1 X164.375 Y766.359 Z3.000 F2400.000 
G1 X164.193 Y766.873 Z3.000 F2400.000 
G3 X154.813 Y763.432 Z3.000 I-4.633 J-1.876 F2400.000 
G1 X274.781 Y371.463 Z3.000 F2400.000 
G2 X270.000 Y365.000 Z3.000 I-4.781 J-1.463 F2400.000 
G1 X130.000 Y365.000 Z3.000 F2400.000 
G1 X130.000 Y249.553 Z3.000 F2400.000 
G3 X141.666 Y234.852 Z3.000 I15.009 J-0.069 F2400.000 
G1 X274.089 Y203.954 Z3.000 F2400.000 
G2 X304.999 Y165.116 Z3.000 I-9.092 J-38.955 F2400.000 
G1 X305.000 Y0.000 Z3.000 F2400.000 
G2 X300.000 Y-5.000 Z3.000 I-5.000 J0.000 F2400.000 
G1 X240.000 Y-5.000 Z3.000 F2400.000 
G2 X235.000 Y0.000 Z3.000 I0.000 J5.000 F2400.000 
G1 X235.000 Y95.000 Z3.000 F2400.000 
G1 X232.000 Y95.000 Z3.000 F2400.000 
G1 X232.000 Y5.000 Z3.000 F2400.000 
G2 X225.810 Y0.144 Z3.000 I-5.000 J0.000 F2400.000 
G1 X124.396 Y25.000 Z3.000 F2400.000 
G1 X-124.396 Y25.000 Z3.000 F2400.000 
G1 X-225.810 Y0.144 Z3.000 F2400.000 
G2 X-232.000 Y5.000 Z3.000 I-1.190 J4.856 F2400.000 
G1 X-232.000 Y95.000 Z3.000 F2400.000 
G1 X-235.000 Y95.000 Z3.000 F2400.000 
G1 X-235.000 Y0.000 Z3.000 F2400.000 
G2 X-240.000 Y-5.000 Z3.000 I-5.000 J0.000 F2400.000 
G1 X-300.000 Y-5.000 Z3.000 F2400.000 
G2 X-305.000 Y0.000 Z3.000 I0.000 J5.000 F2400.000 
G1 X-305.000 Y165.000 Z3.000 F2400.000 
G2 X-274.201 Y203.926 Z3.000 I40.002 J-0.002 F2400.000 
G1 X-141.666 Y234.852 Z3.000 F2400.000 
G3 X-130.000 Y249.553 Z3.000 I-3.343 J14.632 F2400.000 
G1 X-130.000 Y365.000 Z3.000 F2400.000 
G1 X-270.000 Y365.000 Z3.000 F2400.000 
G2 X-274.781 Y371.463 Z3.000 I0.000 J5.000 F2400.000 
G1 X-154.813 Y763.432 Z3.000 F2400.000 
G1 X-154.676 Y763.960 Z3.000 F2400.000 
G3 X-164.375 Y766.359 Z3.000 I-4.889 J1.038 F2400.000 
G1 X-218.875 Y588.293 Z3.000 F2400.000 
G2 X-295.406 Y611.592 Z3.000 I-38.248 J11.707 F2400.000 
G1 X-195.901 Y936.707 Z3.000 F2400.000 
G2 X-157.770 Y964.999 Z3.000 I38.250 J-11.710 F2400.000 
G1 X-83.176 Y965.000 Z3.000 F2400.000 
G3 X-79.979 Y973.938 Z3.000 I0.100 J5.005 F2400.000 
G2 X-80.181 Y1165.895 Z3.000 I79.978 J96.063 F2400.000 
G2 X115.662 Y1117.403 Z3.000 I80.181 J-95.895 F2400.000 
G1 X115.662 Y1117.403 Z0.100 F300.000 
G2 X79.980 Y973.939 Z0.100 I-115.662 J-47.402 F2400.000 
G3 X83.176 Y965.000 Z0.100 I3.095 J-3.934 F2400.000 
G1 X157.652 Y965.000 Z0.100 F2400.000 
G2 X195.865 Y936.819 Z0.100 I-0.003 J-40.002 F2400.000 
G1 X295.372 Y611.707 Z0.100 F2400.000 
G2 X218.911 Y588.180 Z0.100 I-38.248 J-11.706 F2400.000 
G1 X164.375 Y766.359 Z0.100 F2400.000 
G1 X164.193 Y766.873 Z0.100 F2400.000 
G3 X154.813 Y763.432 Z0.100 I-4.633 J-1.876 F2400.000 
G1 X274.781 Y371.463 Z0.100 F2400.000 
G2 X270.000 Y365.000 Z0.100 I-4.781 J-1.463 F2400.000 
G1 X130.000 Y365.000 Z0.100 F2400.000 
G1 X130.000 Y249.553 Z0.100 F2400.000 
G3 X141.666 Y234.852 Z0.100 I15.009 J-0.069 F2400.000 
G1 X274.089 Y203.954 Z0.100 F2400.000 
G2 X304.999 Y165.116 Z0.100 I-9.092 J-38.955 F2400.000 
G1 X305.000 Y0.000 Z0.100 F2400.000 
G2 X300.000 Y-5.000 Z0.100 I-5.000 J0.000 F2400.000 
G1 X240.000 Y-5.000 Z0.100 F2400.000 
G2 X235.000 Y0.000 Z0.100 I0.000 J5.000 F2400.000 
G1 X235.000 Y95.000 Z0.100 F2400.000 
G1 X232.000 Y95.000 Z0.100 F2400.000 
G1 X232.000 Y5.000 Z0.100 F2400.000 
G2 X225.810 Y0.144 Z0.100 I-5.000 J0.000 F2400.000 
G1 X124.396 Y25.000 Z0.100 F2400.000 
G1 X-124.396 Y25.000 Z0.100 F2400.000 
G1 X-225.810 Y0.144 Z0.100 F2400.000 
G2 X-232.000 Y5.000 Z0.100 I-1.190 J4.856 F2400.000 
G1 X-232.000 Y95.000 Z0.100 F2400.000 
G1 X-235.000 Y95.000 Z0.100 F2400.000 
G1 X-235.000 Y0.000 Z0.100 F2400.000 
G2 X-240.000 Y-5.000 Z0.100 I-5.000 J0.000 F2400.000 
G1 X-300.000 Y-5.000 Z0.100 F2400.000 
G2 X-305.000 Y0.000 Z0.100 I0.000 J5.000 F2400.000 
G1 X-305.000 Y165.000 Z0.100 F2400.000 
G2 X-274.201 Y203.926 Z0.100 I40.002 J-0.002 F2400.000 
G1 X-141.666 Y234.852 Z0.100 F2400.000 
G3 X-130.000 Y249.553 Z0.100 I-3.343 J14.632 F2400.000 
G1 X-130.000 Y365.000 Z0.100 F2400.000 
G1 X-270.000 Y365.000 Z0.100 F2400.000 
G2 X-274.781 Y371.463 Z0.100 I0.000 J5.000 F2400.000 
G1 X-154.813 Y763.432 Z0.100 F2400.000 
G1 X-154.676 Y763.960 Z0.100 F2400.000 
G3 X-164.375 Y766.359 Z0.100 I-4.889 J1.038 F2400.000 
G1 X-218.875 Y588.293 Z0.100 F2400.000 
G2 X-295.406 Y611.592 Z0.100 I-38.248 J11.707 F2400.000 
G1 X-195.901 Y936.707 Z0.100 F2400.000 
G2 X-157.770 Y964.999 Z0.100 I38.250 J-11.710 F2400.000 
G1 X-83.176 Y965.000 Z0.100 F2400.000 
G3 X-79.979 Y973.938 Z0.100 I0.100 J5.005 F2400.000 
G2 X-80.181 Y1165.895 Z0.100 I79.978 J96.063 F2400.000 
G2 X115.662 Y1117.403 Z0.100 I80.181 J-95.895 F2400.000 
G0 Z17.700 
G0 Z17.700 
(finish operation: Profile)
(begin operation: Array)
(machine units: mm/min)
(Profile001) 
(Compensated Tool Path. Diameter: 10.0) 
G0 Z17.700 
G0 X622.500 Y365.000 
G0 Z15.700 
G1 X622.500 Y365.000 Z11.000 F300.000 
G1 X622.500 Y235.000 Z11.000 F2400.000 
G1 X617.500 Y235.000 Z11.000 F2400.000 
G1 X617.500 Y365.000 Z11.000 F2400.000 
G1 X622.500 Y365.000 Z11.000 F2400.000 
G1 X622.500 Y365.000 Z7.000 F300.000 
G1 X622.500 Y235.000 Z7.000 F2400.000 
G1 X617.500 Y235.000 Z7.000 F2400.000 
G1 X617.500 Y365.000 Z7.000 F2400.000 
G1 X622.500 Y365.000 Z7.000 F2400.000 
G1 X622.500 Y365.000 Z3.000 F300.000 
G1 X622.500 Y235.000 Z3.000 F2400.000 
G1 X617.500 Y235.000 Z3.000 F2400.000 
G1 X617.500 Y365.000 Z3.000 F2400.000 
G1 X622.500 Y365.000 Z3.000 F2400.000 
G1 X622.500 Y365.000 Z0.100 F300.000 
G1 X622.500 Y235.000 Z0.100 F2400.000 
G1 X617.500 Y235.000 Z0.100 F2400.000 
G1 X617.500 Y365.000 Z0.100 F2400.000 
G1 X622.500 Y365.000 Z0.100 F2400.000 
G0 Z17.700 
G0 Z17.700 
(Profile001) 
(Compensated Tool Path. Diameter: 10.0) 
G0 Z17.700 
G0 X1242.500 Y365.000 
G0 Z15.700 
G1 X1242.500 Y365.000 Z11.000 F300.000 
G1 X1242.500 Y235.000 Z11.000 F2400.000 
G1 X1237.500 Y235.000 Z11.000 F2400.000 
G1 X1237.500 Y365.000 Z11.000 F2400.000 
G1 X1242.500 Y365.000 Z11.000 F2400.000 
G1 X1242.500 Y365.000 Z7.000 F300.000 
G1 X1242.500 Y235.000 Z7.000 F2400.000 
G1 X1237.500 Y235.000 Z7.000 F2400.000 
G1 X1237.500 Y365.000 Z7.000 F2400.000 
G1 X1242.500 Y365.000 Z7.000 F2400.000 
G1 X1242.500 Y365.000 Z3.000 F300.000 
G1 X1242.500 Y235.000 Z3.000 F2400.000 
G1 X1237.500 Y235.000 Z3.000 F2400.000 
G1 X1237.500 Y365.000 Z3.000 F2400.000 
G1 X1242.500 Y365.000 Z3.000 F2400.000 
G1 X1242.500 Y365.000 Z0.100 F300.000 
G1 X1242.500 Y235.000 Z0.100 F2400.000 
G1 X1237.500 Y235.000 Z0.100 F2400.000 
G1 X1237.500 Y365.000 Z0.100 F2400.000 
G1 X1242.500 Y365.000 Z0.100 F2400.000 
G0 Z17.700 
G0 Z17.700 
(finish operation: Array)
(begin operation: Array001)
(machine units: mm/min)
(Profile) 
(Compensated Tool Path. Diameter: 10.0) 
G0 Z17.700 
G0 X735.662 Y1117.403 
G0 Z15.700 
G1 X735.662 Y1117.403 Z11.000 F300.000 
G2 X699.980 Y973.939 Z11.000 I-115.662 J-47.402 F2400.000 
G3 X703.176 Y965.000 Z11.000 I3.095 J-3.934 F2400.000 
G1 X777.652 Y965.000 Z11.000 F2400.000 
G2 X815.865 Y936.819 Z11.000 I-0.003 J-40.002 F2400.000 
G1 X915.372 Y611.707 Z11.000 F2400.000 
G2 X838.911 Y588.180 Z11.000 I-38.248 J-11.706 F2400.000 
G1 X784.375 Y766.359 Z11.000 F2400.000 
G1 X784.193 Y766.873 Z11.000 F2400.000 
G3 X774.813 Y763.432 Z11.000 I-4.633 J-1.876 F2400.000 
G1 X894.781 Y371.463 Z11.000 F2400.000 
G2 X890.000 Y365.000 Z11.000 I-4.781 J-1.463 F2400.000 
G1 X750.000 Y365.000 Z11.000 F2400.000 
G1 X750.000 Y249.553 Z11.000 F2400.000 
G3 X761.666 Y234.852 Z11.000 I15.009 J-0.069 F2400.000 
G1 X894.089 Y203.954 Z11.000 F2400.000 
G2 X924.999 Y165.116 Z11.000 I-9.092 J-38.955 F2400.000 
G1 X925.000 Y0.000 Z11.000 F2400.000 
G2 X920.000 Y-5.000 Z11.000 I-5.000 J0.000 F2400.000 
G1 X860.000 Y-5.000 Z11.000 F2400.000 
G2 X855.000 Y0.000 Z11.000 I0.000 J5.000 F2400.000 
G1 X855.000 Y95.000 Z11.000 F2400.000 
G1 X852.000 Y95.000 Z11.000 F2400.000 
G1 X852.000 Y5.000 Z11.000 F2400.000 
G2 X845.810 Y0.144 Z11.000 I-5.000 J0.000 F2400.000 
G1 X744.396 Y25.000 Z11.000 F2400.000 
G1 X495.604 Y25.000 Z11.000 F2400.000 
G1 X394.190 Y0.144 Z11.000 F2400.000 
G2 X388.000 Y5.000 Z11.000 I-1.190 J4.856 F2400.000 
G1 X388.000 Y95.000 Z11.000 F2400.000 
G1 X385.000 Y95.000 Z11.000 F2400.000 
G1 X385.000 Y0.000 Z11.000 F2400.000 
G2 X380.000 Y-5.000 Z11.000 I-5.000 J0.000 F2400.000 
G1 X320.000 Y-5.000 Z11.000 F2400.000 
G2 X315.000 Y0.000 Z11.000 I0.000 J5.000 F2400.000 
G1 X315.000 Y165.000 Z11.000 F2400.000 
G2 X345.799 Y203.926 Z11.000 I40.002 J-0.002 F2400.000 
G1 X478.334 Y234.852 Z11.000 F2400.000 
G3 X490.000 Y249.553 Z11.000 I-3.343 J14.632 F2400.000 
G1 X490.000 Y365.000 Z11.000 F2400.000 
G1 X350.000 Y365.000 Z11.000 F2400.000 
G2 X345.219 Y371.463 Z11.000 I0.000 J5.000 F2400.000 
G1 X465.187 Y763.432 Z11.000 F2400.000 
G1 X465.324 Y763.960 Z11.000 F2400.000 
G3 X455.625 Y766.359 Z11.000 I-4.889 J1.038 F2400.000 
G1 X401.125 Y588.293 Z11.000 F2400.000 
G2 X324.594 Y611.592 Z11.000 I-38.248 J11.707 F2400.000 
G1 X424.099 Y936.707 Z11.000 F2400.000 
G2 X462.230 Y964.999 Z11.000 I38.250 J-11.710 F2400.000 
G1 X536.824 Y965.000 Z11.000 F2400.000 
G3 X540.021 Y973.938 Z11.000 I0.100 J5.005 F2400.000 
G2 X539.819 Y1165.895 Z11.000 I79.978 J96.063 F2400.000 
G2 X735.662 Y1117.403 Z11.000 I80.181 J-95.895 F2400.000 
G1 X735.662 Y1117.403 Z7.000 F300.000 
G2 X699.980 Y973.939 Z7.000 I-115.662 J-47.402 F2400.000 
G3 X703.176 Y965.000 Z7.000 I3.095 J-3.934 F2400.000 
G1 X777.652 Y965.000 Z7.000 F2400.000 
G2 X815.865 Y936.819 Z7.000 I-0.003 J-40.002 F2400.000 
G1 X915.372 Y611.707 Z7.000 F2400.000 
G2 X838.911 Y588.180 Z7.000 I-38.248 J-11.706 F2400.000 
G1 X784.375 Y766.359 Z7.000 F2400.000 
G1 X784.193 Y766.873 Z7.000 F2400.000 
G3 X774.813 Y763.432 Z7.000 I-4.633 J-1.876 F2400.000 
G1 X894.781 Y371.463 Z7.000 F2400.000 
G2 X890.000 Y365.000 Z7.000 I-4.781 J-1.463 F2400.000 
G1 X750.000 Y365.000 Z7.000 F2400.000 
G1 X750.000 Y249.553 Z7.000 F2400.000 
G3 X761.666 Y234.852 Z7.000 I15.009 J-0.069 F2400.000 
G1 X894.089 Y203.954 Z7.000 F2400.000 
G2 X924.999 Y165.116 Z7.000 I-9.092 J-38.955 F2400.000 
G1 X925.000 Y0.000 Z7.000 F2400.000 
G2 X920.000 Y-5.000 Z7.000 I-5.000 J0.000 F2400.000 
G1 X860.000 Y-5.000 Z7.000 F2400.000 
G2 X855.000 Y0.000 Z7.000 I0.000 J5.000 F2400.000 
G1 X855.000 Y95.000 Z7.000 F2400.000 
G1 X852.000 Y95.000 Z7.000 F2400.000 
G1 X852.000 Y5.000 Z7.000 F2400.000 
G2 X845.810 Y0.144 Z7.000 I-5.000 J0.000 F2400.000 
G1 X744.396 Y25.000 Z7.000 F2400.000 
G1 X495.604 Y25.000 Z7.000 F2400.000 
G1 X394.190 Y0.144 Z7.000 F2400.000 
G2 X388.000 Y5.000 Z7.000 I-1.190 J4.856 F2400.000 
G1 X388.000 Y95.000 Z7.000 F2400.000 
G1 X385.000 Y95.000 Z7.000 F2400.000 
G1 X385.000 Y0.000 Z7.000 F2400.000 
G2 X380.000 Y-5.000 Z7.000 I-5.000 J0.000 F2400.000 
G1 X320.000 Y-5.000 Z7.000 F2400.000 
G2 X315.000 Y0.000 Z7.000 I0.000 J5.000 F2400.000 
G1 X315.000 Y165.000 Z7.000 F2400.000 
G2 X345.799 Y203.926 Z7.000 I40.002 J-0.002 F2400.000 
G1 X478.334 Y234.852 Z7.000 F2400.000 
G3 X490.000 Y249.553 Z7.000 I-3.343 J14.632 F2400.000 
G1 X490.000 Y365.000 Z7.000 F2400.000 
G1 X350.000 Y365.000 Z7.000 F2400.000 
G2 X345.219 Y371.463 Z7.000 I0.000 J5.000 F2400.000 
G1 X465.187 Y763.432 Z7.000 F2400.000 
G1 X465.324 Y763.960 Z7.000 F2400.000 
G3 X455.625 Y766.359 Z7.000 I-4.889 J1.038 F2400.000 
G1 X401.125 Y588.293 Z7.000 F2400.000 
G2 X324.594 Y611.592 Z7.000 I-38.248 J11.707 F2400.000 
G1 X424.099 Y936.707 Z7.000 F2400.000 
G2 X462.230 Y964.999 Z7.000 I38.250 J-11.710 F2400.000 
G1 X536.824 Y965.000 Z7.000 F2400.000 
G3 X540.021 Y973.938 Z7.000 I0.100 J5.005 F2400.000 
G2 X539.819 Y1165.895 Z7.000 I79.978 J96.063 F2400.000 
G2 X735.662 Y1117.403 Z7.000 I80.181 J-95.895 F2400.000 
G1 X735.662 Y1117.403 Z3.000 F300.000 
G2 X699.980 Y973.939 Z3.000 I-115.662 J-47.402 F2400.000 
G3 X703.176 Y965.000 Z3.000 I3.095 J-3.934 F2400.000 
G1 X777.652 Y965.000 Z3.000 F2400.000 
G2 X815.865 Y936.819 Z3.000 I-0.003 J-40.002 F2400.000 
G1 X915.372 Y611.707 Z3.000 F2400.000 
G2 X838.911 Y588.180 Z3.000 I-38.248 J-11.706 F2400.000 
G1 X784.375 Y766.359 Z3.000 F2400.000 
G1 X784.193 Y766.873 Z3.000 F2400.000 
G3 X774.813 Y763.432 Z3.000 I-4.633 J-1.876 F2400.000 
G1 X894.781 Y371.463 Z3.000 F2400.000 
G2 X890.000 Y365.000 Z3.000 I-4.781 J-1.463 F2400.000 
G1 X750.000 Y365.000 Z3.000 F2400.000 
G1 X750.000 Y249.553 Z3.000 F2400.000 
G3 X761.666 Y234.852 Z3.000 I15.009 J-0.069 F2400.000 
G1 X894.089 Y203.954 Z3.000 F2400.000 
G2 X924.999 Y165.116 Z3.000 I-9.092 J-38.955 F2400.000 
G1 X925.000 Y0.000 Z3.000 F2400.000 
G2 X920.000 Y-5.000 Z3.000 I-5.000 J0.000 F2400.000 
G1 X860.000 Y-5.000 Z3.000 F2400.000 
G2 X855.000 Y0.000 Z3.000 I0.000 J5.000 F2400.000 
G1 X855.000 Y95.000 Z3.000 F2400.000 
G1 X852.000 Y95.000 Z3.000 F2400.000 
G1 X852.000 Y5.000 Z3.000 F2400.000 
G2 X845.810 Y0.144 Z3.000 I-5.000 J0.000 F2400.000 
G1 X744.396 Y25.000 Z3.000 F2400.000 
G1 X495.604 Y25.000 Z3.000 F2400.000 
G1 X394.190 Y0.144 Z3.000 F2400.000 
G2 X388.000 Y5.000 Z3.000 I-1.190 J4.856 F2400.000 
G1 X388.000 Y95.000 Z3.000 F2400.000 
G1 X385.000 Y95.000 Z3.000 F2400.000 
G1 X385.000 Y0.000 Z3.000 F2400.000 
G2 X380.000 Y-5.000 Z3.000 I-5.000 J0.000 F2400.000 
G1 X320.000 Y-5.000 Z3.000 F2400.000 
G2 X315.000 Y0.000 Z3.000 I0.000 J5.000 F2400.000 
G1 X315.000 Y165.000 Z3.000 F2400.000 
G2 X345.799 Y203.926 Z3.000 I40.002 J-0.002 F2400.000 
G1 X478.334 Y234.852 Z3.000 F2400.000 
G3 X490.000 Y249.553 Z3.000 I-3.343 J14.632 F2400.000 
G1 X490.000 Y365.000 Z3.000 F2400.000 
G1 X350.000 Y365.000 Z3.000 F2400.000 
G2 X345.219 Y371.463 Z3.000 I0.000 J5.000 F2400.000 
G1 X465.187 Y763.432 Z3.000 F2400.000 
G1 X465.324 Y763.960 Z3.000 F2400.000 
G3 X455.625 Y766.359 Z3.000 I-4.889 J1.038 F2400.000 
G1 X401.125 Y588.293 Z3.000 F2400.000 
G2 X324.594 Y611.592 Z3.000 I-38.248 J11.707 F2400.000 
G1 X424.099 Y936.707 Z3.000 F2400.000 
G2 X462.230 Y964.999 Z3.000 I38.250 J-11.710 F2400.000 
G1 X536.824 Y965.000 Z3.000 F2400.000 
G3 X540.021 Y973.938 Z3.000 I0.100 J5.005 F2400.000 
G2 X539.819 Y1165.895 Z3.000 I79.978 J96.063 F2400.000 
G2 X735.662 Y1117.403 Z3.000 I80.181 J-95.895 F2400.000 
G1 X735.662 Y1117.403 Z0.100 F300.000 
G2 X699.980 Y973.939 Z0.100 I-115.662 J-47.402 F2400.000 
G3 X703.176 Y965.000 Z0.100 I3.095 J-3.934 F2400.000 
G1 X777.652 Y965.000 Z0.100 F2400.000 
G2 X815.865 Y936.819 Z0.100 I-0.003 J-40.002 F2400.000 
G1 X915.372 Y611.707 Z0.100 F2400.000 
G2 X838.911 Y588.180 Z0.100 I-38.248 J-11.706 F2400.000 
G1 X784.375 Y766.359 Z0.100 F2400.000 
G1 X784.193 Y766.873 Z0.100 F2400.000 
G3 X774.813 Y763.432 Z0.100 I-4.633 J-1.876 F2400.000 
G1 X894.781 Y371.463 Z0.100 F2400.000 
G2 X890.000 Y365.000 Z0.100 I-4.781 J-1.463 F2400.000 
G1 X750.000 Y365.000 Z0.100 F2400.000 
G1 X750.000 Y249.553 Z0.100 F2400.000 
G3 X761.666 Y234.852 Z0.100 I15.009 J-0.069 F2400.000 
G1 X894.089 Y203.954 Z0.100 F2400.000 
G2 X924.999 Y165.116 Z0.100 I-9.092 J-38.955 F2400.000 
G1 X925.000 Y0.000 Z0.100 F2400.000 
G2 X920.000 Y-5.000 Z0.100 I-5.000 J0.000 F2400.000 
G1 X860.000 Y-5.000 Z0.100 F2400.000 
G2 X855.000 Y0.000 Z0.100 I0.000 J5.000 F2400.000 
G1 X855.000 Y95.000 Z0.100 F2400.000 
G1 X852.000 Y95.000 Z0.100 F2400.000 
G1 X852.000 Y5.000 Z0.100 F2400.000 
G2 X845.810 Y0.144 Z0.100 I-5.000 J0.000 F2400.000 
G1 X744.396 Y25.000 Z0.100 F2400.000 
G1 X495.604 Y25.000 Z0.100 F2400.000 
G1 X394.190 Y0.144 Z0.100 F2400.000 
G2 X388.000 Y5.000 Z0.100 I-1.190 J4.856 F2400.000 
G1 X388.000 Y95.000 Z0.100 F2400.000 
G1 X385.000 Y95.000 Z0.100 F2400.000 
G1 X385.000 Y0.000 Z0.100 F2400.000 
G2 X380.000 Y-5.000 Z0.100 I-5.000 J0.000 F2400.000 
G1 X320.000 Y-5.000 Z0.100 F2400.000 
G2 X315.000 Y0.000 Z0.100 I0.000 J5.000 F2400.000 
G1 X315.000 Y165.000 Z0.100 F2400.000 
G2 X345.799 Y203.926 Z0.100 I40.002 J-0.002 F2400.000 
G1 X478.334 Y234.852 Z0.100 F2400.000 
G3 X490.000 Y249.553 Z0.100 I-3.343 J14.632 F2400.000 
G1 X490.000 Y365.000 Z0.100 F2400.000 
G1 X350.000 Y365.000 Z0.100 F2400.000 
G2 X345.219 Y371.463 Z0.100 I0.000 J5.000 F2400.000 
G1 X465.187 Y763.432 Z0.100 F2400.000 
G1 X465.324 Y763.960 Z0.100 F2400.000 
G3 X455.625 Y766.359 Z0.100 I-4.889 J1.038 F2400.000 
G1 X401.125 Y588.293 Z0.100 F2400.000 
G2 X324.594 Y611.592 Z0.100 I-38.248 J11.707 F2400.000 
G1 X424.099 Y936.707 Z0.100 F2400.000 
G2 X462.230 Y964.999 Z0.100 I38.250 J-11.710 F2400.000 
G1 X536.824 Y965.000 Z0.100 F2400.000 
G3 X540.021 Y973.938 Z0.100 I0.100 J5.005 F2400.000 
G2 X539.819 Y1165.895 Z0.100 I79.978 J96.063 F2400.000 
G2 X735.662 Y1117.403 Z0.100 I80.181 J-95.895 F2400.000 
G0 Z17.700 
G0 Z17.700 
(Profile) 
(Compensated Tool Path. Diameter: 10.0) 
G0 Z17.700 
G0 X1355.662 Y1117.403 
G0 Z15.700 
G1 X1355.662 Y1117.403 Z11.000 F300.000 
G2 X1319.980 Y973.939 Z11.000 I-115.662 J-47.402 F2400.000 
G3 X1323.176 Y965.000 Z11.000 I3.095 J-3.934 F2400.000 
G1 X1397.652 Y965.000 Z11.000 F2400.000 
G2 X1435.865 Y936.819 Z11.000 I-0.003 J-40.002 F2400.000 
G1 X1535.372 Y611.707 Z11.000 F2400.000 
G2 X1458.911 Y588.180 Z11.000 I-38.248 J-11.706 F2400.000 
G1 X1404.375 Y766.359 Z11.000 F2400.000 
G1 X1404.193 Y766.873 Z11.000 F2400.000 
G3 X1394.813 Y763.432 Z11.000 I-4.633 J-1.876 F2400.000 
G1 X1514.781 Y371.463 Z11.000 F2400.000 
G2 X1510.000 Y365.000 Z11.000 I-4.781 J-1.463 F2400.000 
G1 X1370.000 Y365.000 Z11.000 F2400.000 
G1 X1370.000 Y249.553 Z11.000 F2400.000 
G3 X1381.666 Y234.852 Z11.000 I15.009 J-0.069 F2400.000 
G1 X1514.089 Y203.954 Z11.000 F2400.000 
G2 X1544.999 Y165.116 Z11.000 I-9.092 J-38.955 F2400.000 
G1 X1545.000 Y0.000 Z11.000 F2400.000 
G2 X1540.000 Y-5.000 Z11.000 I-5.000 J0.000 F2400.000 
G1 X1480.000 Y-5.000 Z11.000 F2400.000 
G2 X1475.000 Y0.000 Z11.000 I0.000 J5.000 F2400.000 
G1 X1475.000 Y95.000 Z11.000 F2400.000 
G1 X1472.000 Y95.000 Z11.000 F2400.000 
G1 X1472.000 Y5.000 Z11.000 F2400.000 
G2 X1465.810 Y0.144 Z11.000 I-5.000 J0.000 F2400.000 
G1 X1364.396 Y25.000 Z11.000 F2400.000 
G1 X1115.604 Y25.000 Z11.000 F2400.000 
G1 X1014.190 Y0.144 Z11.000 F2400.000 
G2 X1008.000 Y5.000 Z11.000 I-1.190 J4.856 F2400.000 
G1 X1008.000 Y95.000 Z11.000 F2400.000 
G1 X1005.000 Y95.000 Z11.000 F2400.000 
G1 X1005.000 Y0.000 Z11.000 F2400.000 
G2 X1000.000 Y-5.000 Z11.000 I-5.000 J0.000 F2400.000 
G1 X940.000 Y-5.000 Z11.000 F2400.000 
G2 X935.000 Y0.000 Z11.000 I0.000 J5.000 F2400.000 
G1 X935.000 Y165.000 Z11.000 F2400.000 
G2 X965.799 Y203.926 Z11.000 I40.002 J-0.002 F2400.000 
G1 X1098.334 Y234.852 Z11.000 F2400.000 
G3 X1110.000 Y249.553 Z11.000 I-3.343 J14.632 F2400.000 
G1 X1110.000 Y365.000 Z11.000 F2400.000 
G1 X970.000 Y365.000 Z11.000 F2400.000 
G2 X965.219 Y371.463 Z11.000 I0.000 J5.000 F2400.000 
G1 X1085.187 Y763.432 Z11.000 F2400.000 
G1 X1085.324 Y763.960 Z11.000 F2400.000 
G3 X1075.625 Y766.359 Z11.000 I-4.889 J1.038 F2400.000 
G1 X1021.125 Y588.293 Z11.000 F2400.000 
G2 X944.594 Y611.592 Z11.000 I-38.248 J11.707 F2400.000 
G1 X1044.099 Y936.707 Z11.000 F2400.000 
G2 X1082.230 Y964.999 Z11.000 I38.250 J-11.710 F2400.000 
G1 X1156.824 Y965.000 Z11.000 F2400.000 
G3 X1160.021 Y973.938 Z11.000 I0.100 J5.005 F2400.000 
G2 X1159.819 Y1165.895 Z11.000 I79.978 J96.063 F2400.000 
G2 X1355.662 Y1117.403 Z11.000 I80.181 J-95.895 F2400.000 
G1 X1355.662 Y1117.403 Z7.000 F300.000 
G2 X1319.980 Y973.939 Z7.000 I-115.662 J-47.402 F2400.000 
G3 X1323.176 Y965.000 Z7.000 I3.095 J-3.934 F2400.000 
G1 X1397.652 Y965.000 Z7.000 F2400.000 
G2 X1435.865 Y936.819 Z7.000 I-0.003 J-40.002 F2400.000 
G1 X1535.372 Y611.707 Z7.000 F2400.000 
G2 X1458.911 Y588.180 Z7.000 I-38.248 J-11.706 F2400.000 
G1 X1404.375 Y766.359 Z7.000 F2400.000 
G1 X1404.193 Y766.873 Z7.000 F2400.000 
G3 X1394.813 Y763.432 Z7.000 I-4.633 J-1.876 F2400.000 
G1 X1514.781 Y371.463 Z7.000 F2400.000 
G2 X1510.000 Y365.000 Z7.000 I-4.781 J-1.463 F2400.000 
G1 X1370.000 Y365.000 Z7.000 F2400.000 
G1 X1370.000 Y249.553 Z7.000 F2400.000 
G3 X1381.666 Y234.852 Z7.000 I15.009 J-0.069 F2400.000 
G1 X1514.089 Y203.954 Z7.000 F2400.000 
G2 X1544.999 Y165.116 Z7.000 I-9.092 J-38.955 F2400.000 
G1 X1545.000 Y0.000 Z7.000 F2400.000 
G2 X1540.000 Y-5.000 Z7.000 I-5.000 J0.000 F2400.000 
G1 X1480.000 Y-5.000 Z7.000 F2400.000 
G2 X1475.000 Y0.000 Z7.000 I0.000 J5.000 F2400.000 
G1 X1475.000 Y95.000 Z7.000 F2400.000 
G1 X1472.000 Y95.000 Z7.000 F2400.000 
G1 X1472.000 Y5.000 Z7.000 F2400.000 
G2 X1465.810 Y0.144 Z7.000 I-5.000 J0.000 F2400.000 
G1 X1364.396 Y25.000 Z7.000 F2400.000 
G1 X1115.604 Y25.000 Z7.000 F2400.000 
G1 X1014.190 Y0.144 Z7.000 F2400.000 
G2 X1008.000 Y5.000 Z7.000 I-1.190 J4.856 F2400.000 
G1 X1008.000 Y95.000 Z7.000 F2400.000 
G1 X1005.000 Y95.000 Z7.000 F2400.000 
G1 X1005.000 Y0.000 Z7.000 F2400.000 
G2 X1000.000 Y-5.000 Z7.000 I-5.000 J0.000 F2400.000 
G1 X940.000 Y-5.000 Z7.000 F2400.000 
G2 X935.000 Y0.000 Z7.000 I0.000 J5.000 F2400.000 
G1 X935.000 Y165.000 Z7.000 F2400.000 
G2 X965.799 Y203.926 Z7.000 I40.002 J-0.002 F2400.000 
G1 X1098.334 Y234.852 Z7.000 F2400.000 
G3 X1110.000 Y249.553 Z7.000 I-3.343 J14.632 F2400.000 
G1 X1110.000 Y365.000 Z7.000 F2400.000 
G1 X970.000 Y365.000 Z7.000 F2400.000 
G2 X965.219 Y371.463 Z7.000 I0.000 J5.000 F2400.000 
G1 X1085.187 Y763.432 Z7.000 F2400.000 
G1 X1085.324 Y763.960 Z7.000 F2400.000 
G3 X1075.625 Y766.359 Z7.000 I-4.889 J1.038 F2400.000 
G1 X1021.125 Y588.293 Z7.000 F2400.000 
G2 X944.594 Y611.592 Z7.000 I-38.248 J11.707 F2400.000 
G1 X1044.099 Y936.707 Z7.000 F2400.000 
G2 X1082.230 Y964.999 Z7.000 I38.250 J-11.710 F2400.000 
G1 X1156.824 Y965.000 Z7.000 F2400.000 
G3 X1160.021 Y973.938 Z7.000 I0.100 J5.005 F2400.000 
G2 X1159.819 Y1165.895 Z7.000 I79.978 J96.063 F2400.000 
G2 X1355.662 Y1117.403 Z7.000 I80.181 J-95.895 F2400.000 
G1 X1355.662 Y1117.403 Z3.000 F300.000 
G2 X1319.980 Y973.939 Z3.000 I-115.662 J-47.402 F2400.000 
G3 X1323.176 Y965.000 Z3.000 I3.095 J-3.934 F2400.000 
G1 X1397.652 Y965.000 Z3.000 F2400.000 
G2 X1435.865 Y936.819 Z3.000 I-0.003 J-40.002 F2400.000 
G1 X1535.372 Y611.707 Z3.000 F2400.000 
G2 X1458.911 Y588.180 Z3.000 I-38.248 J-11.706 F2400.000 
G1 X1404.375 Y766.359 Z3.000 F2400.000 
G1 X1404.193 Y766.873 Z3.000 F2400.000 
G3 X1394.813 Y763.432 Z3.000 I-4.633 J-1.876 F2400.000 
G1 X1514.781 Y371.463 Z3.000 F2400.000 
G2 X1510.000 Y365.000 Z3.000 I-4.781 J-1.463 F2400.000 
G1 X1370.000 Y365.000 Z3.000 F2400.000 
G1 X1370.000 Y249.553 Z3.000 F2400.000 
G3 X1381.666 Y234.852 Z3.000 I15.009 J-0.069 F2400.000 
G1 X1514.089 Y203.954 Z3.000 F2400.000 
G2 X1544.999 Y165.116 Z3.000 I-9.092 J-38.955 F2400.000 
G1 X1545.000 Y0.000 Z3.000 F2400.000 
G2 X1540.000 Y-5.000 Z3.000 I-5.000 J0.000 F2400.000 
G1 X1480.000 Y-5.000 Z3.000 F2400.000 
G2 X1475.000 Y0.000 Z3.000 I0.000 J5.000 F2400.000 
G1 X1475.000 Y95.000 Z3.000 F2400.000 
G1 X1472.000 Y95.000 Z3.000 F2400.000 
G1 X1472.000 Y5.000 Z3.000 F2400.000 
G2 X1465.810 Y0.144 Z3.000 I-5.000 J0.000 F2400.000 
G1 X1364.396 Y25.000 Z3.000 F2400.000 
G1 X1115.604 Y25.000 Z3.000 F2400.000 
G1 X1014.190 Y0.144 Z3.000 F2400.000 
G2 X1008.000 Y5.000 Z3.000 I-1.190 J4.856 F2400.000 
G1 X1008.000 Y95.000 Z3.000 F2400.000 
G1 X1005.000 Y95.000 Z3.000 F2400.000 
G1 X1005.000 Y0.000 Z3.000 F2400.000 
G2 X1000.000 Y-5.000 Z3.000 I-5.000 J0.000 F2400.000 
G1 X940.000 Y-5.000 Z3.000 F2400.000 
G2 X935.000 Y0.000 Z3.000 I0.000 J5.000 F2400.000 
G1 X935.000 Y165.000 Z3.000 F2400.000 
G2 X965.799 Y203.926 Z3.000 I40.002 J-0.002 F2400.000 
G1 X1098.334 Y234.852 Z3.000 F2400.000 
G3 X1110.000 Y249.553 Z3.000 I-3.343 J14.632 F2400.000 
G1 X1110.000 Y365.000 Z3.000 F2400.000 
G1 X970.000 Y365.000 Z3.000 F2400.000 
G2 X965.219 Y371.463 Z3.000 I0.000 J5.000 F2400.000 
G1 X1085.187 Y763.432 Z3.000 F2400.000 
G1 X1085.324 Y763.960 Z3.000 F2400.000 
G3 X1075.625 Y766.359 Z3.000 I-4.889 J1.038 F2400.000 
G1 X1021.125 Y588.293 Z3.000 F2400.000 
G2 X944.594 Y611.592 Z3.000 I-38.248 J11.707 F2400.000 
G1 X1044.099 Y936.707 Z3.000 F2400.000 
G2 X1082.230 Y964.999 Z3.000 I38.250 J-11.710 F2400.000 
G1 X1156.824 Y965.000 Z3.000 F2400.000 
G3 X1160.021 Y973.938 Z3.000 I0.100 J5.005 F2400.000 
G2 X1159.819 Y1165.895 Z3.000 I79.978 J96.063 F2400.000 
G2 X1355.662 Y1117.403 Z3.000 I80.181 J-95.895 F2400.000 
G1 X1355.662 Y1117.403 Z0.100 F300.000 
G2 X1319.980 Y973.939 Z0.100 I-115.662 J-47.402 F2400.000 
G3 X1323.176 Y965.000 Z0.100 I3.095 J-3.934 F2400.000 
G1 X1397.652 Y965.000 Z0.100 F2400.000 
G2 X1435.865 Y936.819 Z0.100 I-0.003 J-40.002 F2400.000 
G1 X1535.372 Y611.707 Z0.100 F2400.000 
G2 X1458.911 Y588.180 Z0.100 I-38.248 J-11.706 F2400.000 
G1 X1404.375 Y766.359 Z0.100 F2400.000 
G1 X1404.193 Y766.873 Z0.100 F2400.000 
G3 X1394.813 Y763.432 Z0.100 I-4.633 J-1.876 F2400.000 
G1 X1514.781 Y371.463 Z0.100 F2400.000 
G2 X1510.000 Y365.000 Z0.100 I-4.781 J-1.463 F2400.000 
G1 X1370.000 Y365.000 Z0.100 F2400.000 
G1 X1370.000 Y249.553 Z0.100 F2400.000 
G3 X1381.666 Y234.852 Z0.100 I15.009 J-0.069 F2400.000 
G1 X1514.089 Y203.954 Z0.100 F2400.000 
G2 X1544.999 Y165.116 Z0.100 I-9.092 J-38.955 F2400.000 
G1 X1545.000 Y0.000 Z0.100 F2400.000 
G2 X1540.000 Y-5.000 Z0.100 I-5.000 J0.000 F2400.000 
G1 X1480.000 Y-5.000 Z0.100 F2400.000 
G2 X1475.000 Y0.000 Z0.100 I0.000 J5.000 F2400.000 
G1 X1475.000 Y95.000 Z0.100 F2400.000 
G1 X1472.000 Y95.000 Z0.100 F2400.000 
G1 X1472.000 Y5.000 Z0.100 F2400.000 
G2 X1465.810 Y0.144 Z0.100 I-5.000 J0.000 F2400.000 
G1 X1364.396 Y25.000 Z0.100 F2400.000 
G1 X1115.604 Y25.000 Z0.100 F2400.000 
G1 X1014.190 Y0.144 Z0.100 F2400.000 
G2 X1008.000 Y5.000 Z0.100 I-1.190 J4.856 F2400.000 
G1 X1008.000 Y95.000 Z0.100 F2400.000 
G1 X1005.000 Y95.000 Z0.100 F2400.000 
G1 X1005.000 Y0.000 Z0.100 F2400.000 
G2 X1000.000 Y-5.000 Z0.100 I-5.000 J0.000 F2400.000 
G1 X940.000 Y-5.000 Z0.100 F2400.000 
G2 X935.000 Y0.000 Z0.100 I0.000 J5.000 F2400.000 
G1 X935.000 Y165.000 Z0.100 F2400.000 
G2 X965.799 Y203.926 Z0.100 I40.002 J-0.002 F2400.000 
G1 X1098.334 Y234.852 Z0.100 F2400.000 
G3 X1110.000 Y249.553 Z0.100 I-3.343 J14.632 F2400.000 
G1 X1110.000 Y365.000 Z0.100 F2400.000 
G1 X970.000 Y365.000 Z0.100 F2400.000 
G2 X965.219 Y371.463 Z0.100 I0.000 J5.000 F2400.000 
G1 X1085.187 Y763.432 Z0.100 F2400.000 
G1 X1085.324 Y763.960 Z0.100 F2400.000 
G3 X1075.625 Y766.359 Z0.100 I-4.889 J1.038 F2400.000 
G1 X1021.125 Y588.293 Z0.100 F2400.000 
G2 X944.594 Y611.592 Z0.100 I-38.248 J11.707 F2400.000 
G1 X1044.099 Y936.707 Z0.100 F2400.000 
G2 X1082.230 Y964.999 Z0.100 I38.250 J-11.710 F2400.000 
G1 X1156.824 Y965.000 Z0.100 F2400.000 
G3 X1160.021 Y973.938 Z0.100 I0.100 J5.005 F2400.000 
G2 X1159.819 Y1165.895 Z0.100 I79.978 J96.063 F2400.000 
G2 X1355.662 Y1117.403 Z0.100 I80.181 J-95.895 F2400.000 
G0 Z17.700 
G0 Z17.700 
(finish operation: Array001)
(begin postamble)
M05
G17 G54 G90 G80 G40
M2
